P3
400 225
255
185 205 102
185 206 105
188 208 117
186 206 111
184 205 99
183 205 102
180 202 84
181 203 92
178 201 67
179 202 72
178 201 57
183 204 92
185 205 102
181 203 88
186 207 114
182 203 84
183 204 95
181 203 80
182 203 88
183 204 84
179 201 84
180 202 80
178 201 72
181 203 88
181 203 88
185 205 95
179 201 67
182 203 80
182 203 80
178 200 67
182 203 84
179 201 72
182 204 88
178 201 57
178 200 62
179 201 72
179 201 62
178 201 72
180 202 76
178 201 62
176 199 51
180 202 67
180 202 76
179 201 62
179 201 57
180 202 62
179 202 76
180 202 62
178 201 67
177 200 62
175 199 44
177 199 36
178 200 51
178 200 67
178 200 51
174 198 36
179 201 62
178 200 44
177 200 44
177 199 36
176 199 57
177 199 44
175 198 25
176 199 44
175 198 25
178 200 51
176 199 44
176 199 36
175 198 0
176 199 44
178 200 51
175 198 0
175 198 0
176 199 36
173 197 25
175 199 51
174 198 25
176 199 36
174 198 0
175 198 25
176 198 0
177 199 25
174 198 25
177 199 0
175 199 25
175 198 25
174 198 25
175 198 25
174 198 25
175 198 0
175 198 0
175 198 0
175 198 0
174 197 0
175 198 0
174 197 0
176 199 0
173 197 0
175 198 0
175 198 0
174 198 0
172 197 0
175 198 0
174 198 0
177 199 0
174 197 0
176 199 0
176 198 0
175 198 0
173 197 0
174 198 0
174 198 0
173 197 0
173 197 0
176 199 0
174 198 0
174 198 0
174 198 0
174 198 0
175 198 0
174 198 0
175 198 0
174 197 0
175 198 0
174 197 0
176 199 0
175 198 0
175 198 0
175 198 0
174 197 0
176 198 0
175 198 0
174 198 0
175 198 0
174 198 0
174 198 0
173 197 0
173 197 0
175 198 0
173 197 0
175 198 0
174 197 0
174 198 0
173 197 0
174 198 0
175 198 0
174 198 0
174 197 0
176 198 0
174 198 0
176 199 0
174 198 0
174 198 0
174 198 0
173 197 0
174 198 0
175 198 0
174 198 0
173 197 0
175 198 0
174 198 0
176 199 0
174 198 0
173 197 0
175 198 0
174 197 0
175 198 0
174 197 0
174 198 0
174 197 0
174 197 0
174 198 0
176 198 0
176 199 0
175 198 0
174 198 0
174 198 0
174 198 0
174 197 0
174 198 0
174 197 0
174 197 0
175 198 0
175 198 0
173 197 0
174 198 0
174 198 0
173 197 0
172 196 0
173 197 0
175 198 0
173 197 0
174 198 0
174 197 0
175 198 0
172 197 0
174 198 0
176 198 0
176 199 0
174 197 0
176 199 0
174 198 0
174 197 0
174 198 0
174 198 0
175 198 0
173 197 0
175 198 0
175 198 0
175 198 0
175 198 0
176 198 0
173 197 0
174 198 0
176 199 0
173 197 0
177 199 0
174 197 0
175 198 0
175 198 0
175 198 0
174 198 0
174 198 0
174 197 0
174 198 0
174 198 0
174 198 0
175 198 0
176 198 0
175 198 0
174 198 0
174 197 0
174 197 0
177 199 0
174 198 0
175 198 0
176 198 0
174 198 0
173 197 0
175 198 0
175 198 0
174 198 0
173 197 0
173 197 0
174 198 0
175 198 0
174 198 0
173 197 0
175 198 0
174 198 0
173 197 0
173 197 0
174 198 0
175 198 0
177 199 0
173 197 0
174 198 0
176 199 0
174 198 0
174 198 0
175 198 0
173 197 0
174 198 0
174 197 0
174 197 0
175 198 0
176 198 0
174 198 0
175 198 0
175 198 0
175 198 0
174 198 0
174 198 0
175 198 0
175 198 0
175 198 0
175 198 0
174 198 0
174 198 0
174 198 0
175 198 0
176 199 0
175 198 0
175 198 0
174 198 0
175 198 0
175 198 0
173 197 0
174 198 0
175 198 0
175 198 0
174 198 0
175 198 0
176 198 0
174 198 0
173 197 0
173 197 0
174 197 0
176 198 0
175 198 25
175 198 0
176 199 25
175 198 0
174 198 0
173 197 0
175 198 0
173 197 0
175 198 36
175 198 0
175 198 0
175 198 0
175 198 0
175 198 0
176 199 25
176 199 0
176 199 0
173 197 0
175 198 25
175 198 25
175 199 44
177 199 0
175 199 25
175 198 36
174 197 0
175 199 51
175 198 0
175 199 36
175 198 0
174 198 0
177 199 44
175 198 36
176 199 36
177 199 44
174 198 0
175 199 44
175 198 36
175 198 25
175 198 25
174 198 25
175 198 36
179 201 57
176 199 36
180 202 76
176 199 36
175 198 36
178 200 44
174 198 36
179 202 72
175 198 36
178 200 44
177 200 62
178 200 44
177 200 62
176 199 57
177 200 57
177 200 57
179 201 67
180 202 76
177 200 62
177 200 62
176 199 44
178 201 76
181 203 84
180 202 76
177 200 51
180 202 72
178 201 76
181 202 76
179 202 84
181 202 72
181 203 80
179 201 76
182 203 88
180 202 76
180 202 80
180 202 76
179 202 76
179 201 72
179 201 67
179 201 72
183 204 95
177 200 67
182 203 92
181 203 92
181 202 76
186 206 111
183 204 102
181 203 95
181 203 88
185 206 102
186 207 111
180 202 84
183 204 99
184 205 102
184 205 95
186 206 105
179 202 80
181 203 92
186 206 111
183 204 95
184 205 102
184 205 95
182 204 92
179 201 62
183 204 88
185 206 102
182 203 80
183 204 95
180 202 72
183 205 102
182 203 88
183 204 95
181 202 76
180 202 84
184 205 99
181 202 76
181 203 88
177 200 67
181 203 84
182 203 84
180 202 76
180 202 76
178 200 51
179 201 67
182 203 80
179 201 67
177 200 51
179 201 72
180 202 72
177 200 57
179 202 80
178 201 62
178 200 62
180 202 72
178 201 72
178 200 57
177 200 51
180 202 62
178 201 62
178 201 62
177 200 44
177 200 51
176 199 44
178 200 51
178 200 51
176 199 36
177 199 25
176 199 51
177 199 36
178 200 57
176 198 36
174 198 25
175 198 25
178 200 51
176 199 25
178 200 44
175 198 25
175 199 36
175 198 36
178 200 57
174 198 25
175 198 25
176 199 36
176 199 25
174 198 25
175 198 36
174 198 0
175 198 25
175 198 25
176 199 36
175 198 25
176 199 0
174 197 0
174 198 0
174 197 0
174 197 0
175 198 0
175 198 25
173 197 0
174 198 0
174 198 0
175 198 0
174 198 0
173 197 0
174 198 0
175 198 0
175 198 0
174 197 0
176 198 0
174 198 0
174 198 0
174 198 0
175 198 0
174 198 0
174 197 0
175 198 0
173 197 0
174 197 0
174 197 0
174 198 0
173 197 0
174 198 0
173 197 0
175 198 0
173 197 0
176 199 0
175 198 0
173 197 0
174 198 0
174 197 0
175 198 0
176 198 0
172 197 0
175 198 0
176 198 0
174 198 0
175 198 0
175 198 0
173 197 0
173 197 0
176 199 0
171 196 0
175 198 0
174 197 0
174 198 0
175 198 0
174 198 0
173 196 0
174 198 0
174 197 0
173 197 0
175 198 0
173 197 0
174 198 0
174 197 0
175 198 0
174 198 0
175 198 0
174 198 0
175 198 0
173 197 0
174 198 0
176 199 0
175 198 0
175 198 0
174 197 0
174 198 0
175 198 0
174 197 0
174 197 0
174 198 0
176 199 0
174 197 0
174 198 0
172 197 0
175 198 0
173 197 0
175 198 0
174 198 0
174 198 0
173 197 0
175 198 0
176 199 0
174 197 0
173 197 0
174 198 0
175 198 0
175 198 0
174 198 0
177 199 0
175 198 0
175 198 0
175 198 0
174 198 0
173 197 0
173 197 0
175 198 0
175 198 0
174 197 0
174 197 0
174 197 0
175 198 0
174 198 0
176 198 0
175 198 0
175 198 0
175 198 0
173 197 0
174 197 0
174 198 0
174 198 0
174 198 0
174 198 0
176 199 0
174 197 0
174 198 0
175 198 0
174 198 0
174 198 0
175 198 0
176 199 0
174 198 0
173 197 0
173 197 0
175 198 0
174 198 0
174 198 0
175 198 0
175 198 0
175 198 0
176 199 0
173 197 0
175 198 0
175 198 0
174 198 0
175 198 0
175 198 0
176 198 0
177 199 0
173 197 0
175 198 0
174 198 0
175 198 0
172 197 0
174 197 0
175 198 0
174 198 0
174 197 0
175 198 0
174 197 0
174 198 0
174 198 0
174 198 0
175 198 0
175 198 0
173 197 0
176 198 0
174 197 0
174 198 0
175 198 0
174 198 0
174 198 0
174 198 0
174 198 0
173 197 0
174 198 0
175 198 0
173 197 0
173 197 0
174 198 0
176 199 0
173 197 0
174 198 0
174 197 0
173 197 0
173 197 0
176 198 0
173 197 0
173 197 0
174 198 0
176 199 0
174 198 0
174 198 0
175 198 0
174 198 0
174 197 0
175 198 0
174 198 0
175 198 0
176 198 0
175 198 0
174 198 0
174 197 0
174 198 0
175 198 0
175 198 0
176 198 0
175 198 0
176 199 0
173 197 0
173 197 0
174 198 0
174 198 0
173 197 0
174 198 0
173 197 0
176 198 0
175 198 0
174 198 0
175 198 0
174 197 0
173 197 0
173 197 0
174 198 0
173 197 0
173 197 0
173 197 0
175 198 0
176 198 0
173 197 0
175 198 0
175 198 0
175 198 0
175 198 0
175 198 0
173 197 0
174 197 0
176 199 0
174 198 0
174 197 0
176 199 0
174 198 25
175 198 0
175 198 0
173 197 0
175 198 0
174 198 0
174 198 0
174 198 25
174 198 0
173 197 0
176 199 0
173 197 0
174 198 0
177 199 0
175 198 0
174 198 0
174 198 25
173 197 25
173 197 25
175 198 25
175 198 0
175 198 0
174 198 0
175 198 0
177 200 36
175 198 25
175 198 0
175 198 0
176 199 36
177 200 36
174 197 0
173 197 25
176 199 44
176 199 44
174 198 25
178 200 51
177 200 44
175 198 36
177 200 36
177 200 51
176 199 25
175 198 25
176 199 36
177 200 57
177 200 51
178 200 44
179 201 44
175 199 36
175 198 44
178 201 57
178 201 67
177 200 51
180 201 57
176 199 25
177 200 44
178 200 57
178 201 67
177 200 57
177 200 51
179 201 67
177 200 62
181 203 88
179 202 76
179 201 62
180 202 72
175 199 44
179 201 72
179 201 62
180 202 76
176 199 44
183 204 102
181 202 80
181 203 80
181 202 72
182 203 88
180 202 72
180 202 76
185 205 102
181 203 84
181 202 80
183 205 99
187 207 111
178 201 62
186 206 111
186 206 111
178 201 62
181 203 80
182 203 84
181 202 80
181 203 80
182 203 88
185 206 102
179 202 76
182 203 92
180 202 84
181 203 84
177 200 51
181 203 76
181 203 76
177 200 57
182 203 88
178 201 62
182 204 95
183 204 95
180 202 72
177 200 51
180 202 67
180 202 80
181 202 76
178 200 51
176 199 44
178 200 57
179 201 57
178 200 62
179 201 72
177 200 51
176 199 44
178 201 72
178 200 44
179 201 67
177 199 51
177 200 51
178 200 51
179 201 62
176 199 36
178 201 67
176 199 36
178 200 51
176 200 57
176 199 44
178 200 51
175 198 25
175 198 36
175 198 36
174 198 36
176 199 36
174 198 25
175 198 25
174 198 25
175 198 36
175 198 36
173 197 25
175 198 0
174 198 25
176 199 25
175 199 36
174 198 36
175 198 25
174 198 0
175 198 0
173 197 0
174 198 0
176 199 25
174 198 0
174 198 0
174 198 0
175 198 0
174 198 0
176 198 0
174 197 0
176 199 25
175 198 0
175 198 0
174 198 0
174 198 0
174 197 0
174 198 0
173 197 0
175 198 0
174 198 0
174 198 0
175 198 0
175 198 0
173 197 0
175 198 0
173 197 0
174 198 0
175 198 0
174 197 0
175 198 0
175 198 0
173 197 0
175 198 0
175 198 0
174 198 0
174 198 0
175 198 0
174 198 0
173 197 0
174 198 0
174 197 0
173 197 0
173 197 0
174 198 0
174 198 0
174 198 0
174 197 0
173 197 0
175 198 0
174 198 0
174 198 0
174 198 0
174 198 0
173 197 0
174 197 0
174 198 0
176 199 0
176 198 0
174 198 0
174 198 0
174 198 0
175 198 0
176 199 0
174 198 0
174 198 0
175 198 0
176 199 0
173 197 0
174 197 0
174 198 0
175 198 0
174 198 0
174 198 0
175 198 0
173 197 0
174 198 0
173 197 0
176 199 0
173 197 0
171 196 0
175 198 0
174 197 0
175 198 0
174 198 0
175 198 0
173 197 0
174 197 0
175 198 0
173 197 0
175 198 0
176 198 0
175 198 0
174 198 0
174 198 0
176 199 0
173 197 0
175 198 0
177 199 0
175 198 0
175 198 0
175 198 0
175 198 0
173 197 0
175 198 0
175 198 0
175 198 0
173 197 0
175 198 0
175 198 0
175 198 0
175 198 0
175 198 0
175 198 0
175 198 0
174 197 0
175 198 0
176 198 0
175 198 0
175 198 0
174 198 0
175 198 0
175 198 0
174 198 0
174 198 0
175 198 0
173 197 0
176 199 0
175 198 0
175 198 0
175 198 0
175 198 0
174 197 0
175 198 0
175 198 0
177 199 0
174 198 0
175 198 0
174 197 0
176 198 0
175 198 0
173 197 0
174 198 0
174 198 0
174 197 0
175 198 0
173 197 0
174 198 0
173 197 0
174 198 0
176 199 0
174 198 0
175 198 0
174 198 0
174 198 0
174 198 0
173 197 0
173 197 0
174 198 0
175 198 0
174 197 0
174 198 0
174 198 0
173 197 0
174 197 0
173 197 0
175 198 0
175 197 0
175 198 0
174 198 0
176 198 0
174 198 0
174 197 0
174 197 0
175 198 0
174 198 0
174 198 0
174 198 0
174 198 0
174 198 0
173 197 0
174 198 0
173 197 0
173 197 0
175 198 0
173 197 0
175 198 0
175 198 0
175 198 0
174 198 0
175 198 0
173 197 0
176 199 0
175 198 0
175 198 0
175 198 0
176 198 0
175 198 0
175 198 0
174 198 0
174 197 0
175 198 0
174 198 0
175 198 0
174 198 0
174 197 0
175 198 0
175 198 0
174 198 0
174 198 0
175 198 0
174 197 0
175 198 0
173 197 0
175 198 0
173 197 0
175 198 0
175 198 0
175 198 0
173 197 0
174 198 0
173 197 0
174 198 0
173 197 0
174 198 0
175 198 0
175 198 0
171 196 0
174 198 0
175 198 0
175 198 0
175 198 0
176 198 0
174 197 0
173 197 0
174 198 0
176 198 0
173 197 0
175 198 0
174 197 0
175 198 0
174 198 0
174 197 0
174 197 0
175 198 0
175 198 0
173 197 0
175 198 0
174 197 0
174 198 0
175 198 0
173 197 0
175 198 0
174 197 0
174 198 0
175 198 0
174 198 0
173 197 0
175 198 0
177 199 0
175 198 0
175 198 0
176 199 0
175 198 0
175 198 0
175 198 0
173 197 0
176 199 0
175 198 0
175 198 0
176 199 0
175 198 0
175 198 25
175 198 0
175 199 36
174 197 0
174 198 0
173 197 0
175 198 25
174 198 25
174 198 25
175 198 36
178 200 36
177 199 36
176 198 0
176 199 44
175 198 25
176 199 36
174 198 25
176 199 25
177 200 51
175 198 25
177 200 57
176 199 25
176 199 44
173 197 0
177 200 44
176 199 36
176 199 36
177 199 44
177 199 36
177 199 44
181 202 72
174 198 25
176 199 51
178 200 51
178 200 62
176 199 51
177 200 51
178 200 62
177 200 57
176 199 44
179 201 67
179 201 57
177 199 51
177 200 51
180 202 72
176 199 36
180 202 62
179 201 67
182 203 80
180 202 72
178 200 57
178 200 62
178 201 72
180 202 72
180 202 84
179 201 72
179 202 76
180 202 80
180 202 76
178 201 72
182 204 92
187 207 111
179 201 76
182 203 88
177 200 67
181 203 92
180 202 80
180 202 67
183 204 92
181 203 76
181 203 88
180 202 80
181 202 80
179 202 76
177 200 57
178 200 62
180 202 80
184 204 88
178 200 51
180 202 76
177 200 57
179 201 72
177 200 57
177 200 57
176 199 51
182 204 88
179 201 72
177 200 57
176 199 44
179 201 62
178 200 57
179 201 67
178 201 67
176 199 36
181 202 72
178 200 51
177 200 44
178 200 36
179 201 72
177 200 62
176 199 25
176 199 36
176 199 36
177 200 44
176 199 44
174 198 25
177 200 44
174 197 0
178 200 51
175 198 25
175 198 0
175 199 36
175 198 0
176 199 36
175 198 25
177 199 36
175 198 0
175 198 0
174 198 0
174 198 0
175 198 36
174 198 0
174 197 0
175 198 0
174 197 0
175 199 25
174 198 0
176 198 0
175 198 0
174 198 0
175 198 0
175 198 0
172 197 0
174 198 0
175 198 0
176 198 0
174 197 0
174 198 0
174 198 0
175 198 0
176 199 0
174 197 0
175 198 0
176 199 0
174 198 0
174 197 0
174 198 0
174 198 0
175 198 0
175 198 0
174 197 0
175 198 0
176 199 0
176 199 0
175 198 0
176 199 0
176 199 0
173 197 0
175 198 0
173 197 0
175 198 0
172 196 0
175 198 0
176 198 0
174 198 0
175 198 0
174 197 0
175 198 0
176 199 0
174 198 0
175 198 0
175 198 0
175 198 0
174 198 0
175 198 0
174 197 0
175 198 0
174 198 0
173 197 0
175 198 0
175 198 0
174 197 0
174 198 0
175 198 0
174 198 0
176 198 0
174 198 0
175 198 0
174 197 0
176 198 0
174 198 0
174 198 0
174 198 0
174 198 0
175 198 0
175 198 0
174 198 0
175 198 0
174 197 0
174 197 0
175 198 0
175 198 0
174 198 0
173 197 0
175 198 0
175 198 0
173 197 0
174 197 0
175 198 0
174 198 0
175 198 0
173 197 0
173 197 0
175 198 0
174 198 0
175 198 0
175 198 0
174 197 0
174 197 0
175 198 0
175 198 0
175 198 0
175 198 0
175 198 0
175 198 0
172 197 0
175 198 0
175 198 0
173 197 0
174 198 0
175 198 0
174 197 0
175 198 0
175 198 0
176 198 0
174 198 0
175 198 0
174 198 0
175 198 0
173 197 0
173 197 0
174 197 0
175 198 0
176 199 0
174 197 0
174 198 0
176 199 0
174 198 0
173 197 0
174 197 0
174 198 0
175 198 0
174 198 0
173 197 0
174 198 0
173 197 0
175 198 0
173 197 0
174 197 0
175 198 0
175 198 0
175 198 0
174 198 0
174 197 0
174 198 0
174 198 0
173 197 0
176 198 0
174 198 0
175 198 0
173 197 0
174 198 0
174 197 0
175 198 0
175 198 0
175 198 0
174 198 0
174 197 0
174 198 0
175 198 0
175 198 0
173 197 0
174 198 0
173 197 0
175 198 0
173 197 0
175 198 0
176 199 0
173 197 0
176 198 0
174 198 0
173 197 0
174 197 0
173 197 0
174 198 0
174 197 0
173 197 0
173 197 0
175 198 0
174 198 0
175 198 0
174 198 0
175 198 0
174 198 0
175 198 0
174 198 0
176 199 0
176 199 0
175 198 0
175 198 0
175 198 0
174 197 0
175 198 0
175 198 0
177 199 0
174 198 0
174 197 0
176 199 0
174 198 0
174 198 0
173 197 0
175 198 0
174 198 0
173 197 0
174 198 0
173 197 0
174 198 0
174 198 0
175 198 0
173 197 0
174 197 0
173 197 0
173 197 0
173 197 0
175 198 0
175 198 0
175 198 0
174 197 0
174 198 0
174 197 0
174 198 0
174 198 0
173 197 0
174 197 0
174 197 0
174 198 0
175 198 0
174 198 0
174 197 0
174 197 0
174 197 0
174 197 0
174 198 0
174 198 0
174 197 0
175 198 0
173 197 0
176 199 0
175 198 0
176 199 0
174 198 0
174 198 0
174 198 0
174 198 0
174 197 0
173 197 0
173 197 0
172 197 0
174 197 0
175 198 0
175 198 0
174 198 0
175 198 0
173 197 0
175 198 0
174 197 0
175 198 0
175 198 0
174 198 0
175 198 0
176 199 0
173 197 0
176 198 0
174 198 0
176 199 0
174 198 0
173 197 0
175 198 0
174 197 0
174 198 0
176 199 0
172 197 0
175 198 0
174 197 0
175 198 0
174 198 0
175 198 0
175 198 0
175 198 0
175 198 0
175 198 0
174 198 0
177 199 0
174 197 0
174 198 0
175 198 0
174 198 0
173 197 0
175 198 0
177 199 25
172 196 0
176 199 0
176 199 25
177 199 36
173 197 0
175 198 0
173 197 0
174 198 0
175 198 25
176 199 36
175 198 0
175 198 0
175 198 36
174 198 0
173 197 0
176 199 44
176 199 36
175 198 25
177 199 25
177 199 44
175 198 36
174 198 25
176 199 44
174 198 25
176 199 51
176 199 36
177 199 36
179 201 57
176 199 25
176 199 25
176 199 36
178 200 57
177 200 51
178 201 57
179 201 57
175 199 44
178 201 57
177 199 44
179 201 67
179 201 57
178 200 51
177 200 62
176 199 44
180 202 67
180 202 72
179 201 67
180 202 84
179 201 67
179 201 72
177 200 57
181 203 88
179 201 62
182 203 84
177 200 57
179 202 72
183 204 92
181 202 80
180 202 72
176 199 51
179 201 62
179 201 67
178 201 67
182 203 80
180 201 62
178 201 67
182 203 84
176 199 44
178 201 62
175 198 0
180 202 72
176 199 51
179 201 62
177 200 57
175 198 0
177 200 44
179 201 67
180 201 62
175 198 36
176 199 25
176 199 51
176 199 44
176 199 36
175 199 25
176 199 36
176 199 25
174 198 25
176 199 36
177 200 57
174 198 25
176 199 36
176 198 0
175 198 36
176 199 36
176 199 0
174 197 25
172 197 0
175 198 25
175 198 0
176 199 0
174 198 25
174 197 0
175 198 0
177 199 0
175 198 25
175 198 0
172 197 0
176 199 0
174 197 0
174 198 0
174 197 0
175 198 0
176 198 0
174 198 0
176 199 0
173 197 0
174 198 0
175 198 0
174 198 0
174 198 0
175 198 0
175 198 0
173 197 0
173 197 0
174 197 0
175 198 0
174 198 0
175 198 0
173 197 0
176 198 0
174 197 0
175 198 0
175 198 0
175 198 0
174 198 0
175 198 0
175 198 0
175 198 0
175 198 0
174 198 0
176 199 0
175 198 0
174 198 0
174 198 0
174 197 0
174 197 0
174 198 0
175 198 0
175 198 0
173 197 0
174 198 0
174 198 0
175 198 0
176 199 0
174 198 0
174 198 0
174 197 0
175 198 0
176 198 0
173 197 0
176 198 0
174 197 0
174 198 0
176 199 0
176 198 0
175 198 0
173 197 0
176 198 0
174 198 0
176 199 0
174 198 0
175 198 0
175 198 0
175 198 0
176 199 0
173 197 0
174 198 0
173 197 0
176 198 0
175 198 0
175 198 0
174 198 0
173 197 0
174 198 0
175 198 0
176 199 0
174 198 0
175 198 0
174 198 0
174 198 0
174 197 0
174 198 0
176 199 0
174 198 0
175 198 0
173 197 0
174 198 0
175 198 0
174 197 0
177 199 0
175 198 0
175 198 0
174 197 0
174 197 0
173 197 0
173 197 0
174 198 0
176 199 0
176 199 0
173 197 0
175 198 0
175 198 0
175 198 0
173 197 0
175 198 0
175 198 0
173 197 0
174 198 0
174 198 0
174 198 0
174 197 0
175 198 0
174 198 0
175 198 0
174 198 0
173 197 0
177 199 0
176 199 0
173 197 0
173 197 0
175 197 0
174 198 0
176 198 0
174 198 0
175 198 0
175 198 0
175 198 0
174 197 0
173 197 0
174 197 0
176 199 0
176 199 0
175 198 0
175 198 0
173 197 0
174 198 0
176 198 0
173 197 0
174 198 0
175 198 0
175 198 0
175 198 0
175 198 0
174 198 0
175 198 0
173 197 0
174 197 0
175 198 0
174 198 0
175 198 0
175 198 0
173 197 0
175 198 0
174 198 0
174 198 0
174 197 0
174 198 0
174 198 0
176 198 0
175 198 0
174 198 0
175 198 0
174 198 0
174 198 0
175 198 0
175 198 0
174 198 0
173 197 0
174 197 0
174 198 0
174 197 0
174 198 0
175 198 0
173 197 0
174 198 0
175 198 0
174 198 0
175 198 0
175 198 0
175 198 0
175 198 0
174 197 0
175 198 0
176 199 0
174 197 0
175 198 0
174 197 0
174 198 0
177 199 0
177 199 0
175 198 0
175 198 0
175 198 0
174 198 0
174 198 0
174 198 0
174 198 0
175 198 0
174 197 0
175 198 0
173 197 0
175 198 0
175 198 0
173 197 0
174 198 0
174 198 0
173 197 0
174 198 0
176 199 0
174 198 0
176 199 0
174 198 0
173 197 0
176 198 0
176 199 0
173 197 0
175 198 0
174 197 0
175 198 0
173 197 0
172 196 0
174 198 0
174 197 0
175 198 0
176 198 0
177 199 0
173 197 0
174 197 0
176 198 0
172 196 0
173 197 0
175 198 0
175 198 0
173 197 0
173 197 0
176 199 0
174 198 0
174 197 0
175 198 0
175 198 0
175 198 0
176 199 0
173 197 0
173 197 0
174 198 0
174 198 0
175 198 0
174 198 0
175 198 0
175 198 0
174 197 0
174 198 0
175 198 0
174 198 0
173 197 0
177 199 0
174 198 0
175 198 0
174 198 0
174 198 0
173 197 0
175 198 0
175 198 0
173 197 0
174 198 0
175 198 0
175 198 0
174 198 0
174 198 0
175 198 0
175 198 0
175 198 0
174 197 0
176 198 0
174 197 0
175 198 0
176 199 0
174 198 0
174 198 0
175 198 0
174 198 0
175 198 0
174 198 0
174 198 0
174 198 0
175 198 0
174 198 0
176 198 0
174 198 0
175 198 0
176 199 0
174 197 0
174 197 0
175 198 0
173 197 0
175 198 0
175 198 0
174 198 0
175 198 0
176 199 0
175 198 0
174 198 0
172 197 0
175 198 0
176 199 36
174 197 0
174 198 25
173 197 0
176 199 44
174 198 0
175 198 25
175 198 25
174 198 25
178 200 44
175 198 25
176 199 44
177 200 44
175 198 25
176 199 25
177 199 36
174 197 0
175 198 25
174 198 25
176 199 51
178 200 51
173 197 0
177 200 51
177 200 57
176 199 51
177 200 51
177 200 44
177 200 44
178 201 57
178 200 51
174 198 25
178 200 57
179 201 67
178 200 62
178 201 57
176 199 51
178 201 67
177 200 51
179 201 51
180 202 72
177 200 62
181 203 84
179 201 67
182 203 84
181 203 84
176 200 57
175 198 36
181 203 76
179 201 62
176 199 36
178 200 67
178 200 44
178 200 57
178 200 67
175 199 36
175 198 25
176 199 51
175 199 44
176 199 36
177 200 44
177 200 44
176 200 62
178 200 51
176 199 51
174 197 0
179 201 57
175 198 25
176 199 25
177 199 25
175 198 0
177 199 51
175 198 36
173 197 25
175 198 36
174 198 0
175 198 25
176 198 0
175 198 0
174 198 36
176 199 0
175 198 0
174 198 25
173 197 0
173 197 0
175 198 0
173 197 0
174 198 0
175 198 0
176 199 0
173 197 0
174 198 0
174 198 0
176 198 0
174 198 0
174 198 0
176 198 0
176 198 0
175 198 0
174 198 0
175 198 0
173 197 0
175 198 0
176 198 0
173 197 0
175 198 0
175 198 0
175 198 0
174 198 0
174 198 0
176 198 0
174 198 0
176 198 0
175 198 0
174 198 0
174 197 0
175 198 0
173 197 0
175 198 0
174 197 0
176 199 0
175 198 0
175 198 0
174 198 0
174 198 0
176 198 0
175 198 0
175 198 0
174 197 0
174 198 0
173 197 0
173 197 0
174 198 0
175 198 0
176 199 0
174 198 0
175 198 0
174 198 0
174 198 0
175 198 0
173 197 0
173 197 0
175 198 0
174 197 0
174 197 0
175 198 0
174 198 0
173 197 0
174 198 0
173 197 0
173 197 0
174 198 0
175 198 0
175 198 0
174 198 0
176 199 0
176 199 0
174 198 0
174 198 0
175 198 0
174 198 0
173 197 0
175 198 0
174 198 0
175 198 0
174 197 0
175 198 0
173 197 0
174 198 0
174 198 0
174 198 0
173 197 0
175 198 0
175 198 0
174 197 0
175 198 0
174 198 0
174 198 0
174 197 0
174 198 0
175 198 0
175 198 0
175 198 0
175 198 0
174 198 0
174 198 0
174 198 0
175 198 0
175 198 0
174 197 0
175 198 0
174 197 0
175 198 0
174 198 0
173 197 0
174 197 0
173 197 0
174 198 0
174 197 0
173 197 0
175 198 0
175 198 0
175 198 0
173 197 0
174 198 0
173 197 0
176 199 0
173 197 0
175 198 0
174 198 0
177 199 0
175 198 0
175 198 0
174 197 0
173 197 0
174 198 0
175 198 0
177 199 0
174 198 0
173 197 0
175 198 0
175 198 0
174 197 0
174 198 0
174 197 0
175 198 0
174 197 0
176 199 0
175 198 0
174 198 0
174 197 0
175 198 0
174 197 0
175 198 0
172 197 0
176 198 0
173 197 0
174 197 0
174 198 0
175 198 0
174 197 0
174 198 0
175 198 0
174 198 0
175 198 0
174 198 0
174 198 0
172 197 0
174 198 0
174 198 0
176 199 0
174 198 0
176 199 0
175 198 0
174 197 0
174 197 0
174 198 0
173 197 0
173 197 0
174 198 0
174 198 0
173 197 0
174 198 0
174 198 0
176 198 0
175 198 0
174 198 0
175 198 0
175 198 0
173 197 0
175 198 0
175 198 0
174 198 0
175 198 0
176 199 0
175 198 0
174 198 0
174 198 0
175 198 0
175 198 0
176 199 0
174 198 0
174 197 0
176 198 0
174 197 0
172 197 0
174 197 0
174 198 0
175 198 0
173 197 0
174 197 0
175 198 0
174 198 0
176 198 0
175 198 0
174 197 0
174 198 0
173 197 0
174 198 0
174 198 0
176 199 0
176 198 0
174 198 0
174 198 0
174 198 0
175 198 0
176 199 0
175 198 0
174 198 0
173 197 0
174 197 0
175 198 0
174 198 0
174 198 0
175 198 0
174 198 0
173 197 0
173 197 0
175 198 0
175 198 0
174 198 0
174 198 0
175 198 0
175 198 0
175 198 0
173 197 0
173 197 0
174 198 0
175 198 0
173 197 0
174 198 0
175 198 0
174 198 0
173 196 0
174 198 0
175 198 0
174 198 0
174 198 0
175 198 0
174 197 0
175 198 0
175 198 0
174 197 0
174 198 0
173 197 0
175 198 0
174 198 0
174 197 0
174 198 0
172 197 0
175 198 0
175 198 0
174 198 0
175 198 0
175 198 0
174 197 0
175 198 0
174 198 0
175 198 0
175 198 0
174 197 0
174 197 0
176 198 0
174 198 0
176 199 0
174 197 0
173 197 0
174 198 0
174 198 0
175 198 0
176 199 0
173 197 0
174 198 0
174 198 0
174 197 0
174 198 0
174 198 0
174 198 0
176 198 0
175 198 0
175 198 0
174 198 0
175 198 0
176 198 0
175 198 0
174 198 0
174 198 0
174 198 0
176 199 0
175 198 0
174 197 0
175 198 0
174 198 0
173 197 0
175 198 0
175 198 0
175 198 0
175 198 0
176 199 0
174 198 0
174 198 0
175 198 0
176 198 0
175 198 0
176 199 0
175 198 0
175 198 0
173 197 0
177 199 0
175 198 0
174 198 0
178 200 36
174 197 0
175 198 0
175 199 36
177 199 36
174 198 0
175 198 25
176 199 25
174 198 0
177 199 44
176 199 44
176 199 36
174 198 0
176 199 44
176 199 44
174 198 25
176 199 25
180 201 62
176 199 51
177 200 57
175 199 44
178 201 57
174 198 36
178 200 62
177 200 62
175 198 44
175 199 44
177 200 57
178 201 62
178 200 44
175 198 36
177 200 51
178 200 51
180 201 62
178 201 67
178 200 57
179 201 62
176 199 36
177 200 36
176 199 51
178 200 57
176 199 44
180 201 62
178 200 57
174 198 25
175 199 51
177 200 44
178 200 51
173 197 25
174 198 25
172 197 0
173 197 0
174 198 0
176 199 36
176 199 36
175 198 25
176 199 0
174 197 0
175 198 25
175 198 25
175 198 0
174 198 0
174 198 0
173 197 0
175 198 0
174 198 0
174 198 0
173 196 0
174 198 0
174 198 0
176 199 0
175 198 0
173 197 0
174 198 0
175 198 0
174 198 0
175 198 0
173 197 0
174 198 0
175 198 0
175 198 0
174 198 0
174 198 0
173 197 0
176 199 0
174 198 0
175 198 0
174 198 0
175 198 0
173 197 0
174 198 0
175 198 0
174 198 0
174 198 0
174 197 0
175 198 0
175 198 0
176 199 0
174 198 0
174 197 0
175 198 0
175 198 0
173 197 0
174 197 0
175 198 0
173 197 0
173 197 0
173 197 0
174 197 0
174 198 0
174 198 0
175 198 0
175 198 0
175 198 0
175 198 0
174 197 0
174 198 0
173 197 0
175 198 0
174 197 0
174 198 0
174 198 0
173 197 0
175 198 0
176 199 0
176 199 0
174 197 0
174 198 0
175 198 0
174 197 0
175 198 0
174 198 0
175 198 0
174 198 0
174 198 0
175 198 0
175 198 0
174 198 0
174 198 0
175 198 0
174 197 0
176 199 0
174 197 0
172 197 0
174 198 0
175 198 0
174 198 0
173 197 0
174 198 0
174 198 0
175 198 0
175 198 0
174 198 0
176 199 0
175 198 0
174 198 0
175 198 0
175 198 0
174 198 0
173 197 0
175 198 0
174 198 0
175 198 0
174 198 0
174 198 0
174 198 0
173 197 0
173 197 0
176 199 0
175 198 0
176 199 0
173 197 0
175 198 0
173 197 0
173 197 0
175 198 0
174 198 0
175 198 0
174 198 0
175 198 0
174 198 0
174 198 0
175 198 0
174 198 0
176 199 0
173 197 0
176 199 0
174 197 0
175 198 0
175 198 0
174 198 0
173 197 0
176 199 0
175 198 0
173 197 0
174 198 0
174 197 0
176 199 0
173 197 0
174 197 0
173 197 0
173 197 0
173 197 0
174 198 0
174 197 0
175 198 0
175 198 0
173 197 0
173 197 0
175 198 0
176 199 0
174 198 0
174 198 0
174 198 0
177 199 0
175 198 0
176 198 0
175 198 0
174 198 0
173 197 0
173 197 0
174 198 0
175 198 0
173 197 0
173 197 0
174 198 0
173 197 0
174 197 0
176 199 0
176 199 0
174 197 0
174 197 0
177 199 0
174 198 0
174 197 0
174 197 0
175 198 0
174 198 0
175 198 0
174 197 0
173 197 0
173 197 0
175 198 0
174 197 0
174 198 0
174 197 0
174 198 0
175 198 0
175 198 0
174 198 0
174 198 0
175 198 0
174 198 0
175 198 0
175 198 0
174 198 0
174 198 0
174 198 0
176 199 0
175 198 0
175 198 0
174 198 0
174 198 0
174 198 0
174 198 0
175 198 0
173 197 0
174 197 0
174 198 0
175 198 0
173 197 0
174 197 0
173 197 0
176 198 0
176 198 0
175 198 0
175 198 0
175 198 0
175 198 0
174 198 0
176 199 0
175 198 0
174 198 0
174 197 0
174 198 0
175 198 0
176 198 0
173 197 0
176 199 0
173 197 0
176 198 0
173 197 0
175 198 0
174 198 0
174 197 0
175 198 0
175 198 0
174 197 0
173 197 0
174 197 0
175 198 0
173 197 0
173 197 0
175 198 0
173 197 0
175 198 0
174 198 0
175 198 0
172 196 0
175 198 0
174 198 0
175 198 0
175 198 0
173 197 0
176 199 0
175 198 0
174 198 0
174 197 0
175 198 0
173 197 0
174 198 0
176 198 0
174 197 0
174 197 0
174 198 0
174 197 0
174 198 0
176 199 0
175 198 0
175 198 0
175 198 0
176 199 0
175 198 0
175 198 0
174 198 0
175 198 0
174 197 0
174 197 0
173 197 0
176 198 0
173 197 0
174 198 0
174 197 0
174 198 0
175 198 0
173 197 0
172 197 0
174 197 0
175 198 0
175 198 0
174 198 0
175 198 0
176 199 0
174 198 0
175 198 0
174 198 0
175 198 0
174 198 0
176 199 0
175 198 0
175 198 0
172 197 0
174 197 0
174 198 0
173 197 0
175 198 0
173 197 0
174 198 0
174 198 0
176 199 0
176 199 0
175 198 0
175 198 0
174 198 0
175 198 0
176 199 0
174 198 0
175 198 0
176 198 0
175 198 0
174 198 0
175 198 0
176 198 0
174 198 0
175 198 0
175 198 0
177 199 0
173 197 0
174 197 0
173 197 0
175 198 0
172 197 0
174 198 0
174 197 0
175 198 0
174 198 0
173 197 0
173 197 0
174 197 0
174 197 0
173 197 0
175 198 0
175 198 0
174 198 0
175 198 0
175 198 0
173 197 0
174 198 25
177 199 25
175 198 0
175 198 0
176 198 0
175 198 0
174 198 0
174 198 25
173 197 0
176 199 25
175 198 25
176 199 25
173 197 25
175 199 44
178 200 51
178 200 51
174 198 0
179 201 57
177 199 36
176 200 57
176 199 0
177 200 51
174 198 25
177 200 51
178 200 51
177 200 62
177 200 51
179 201 62
176 199 44
176 199 36
175 198 0
176 199 44
174 198 0
176 199 36
177 199 44
176 199 25
177 200 57
175 198 25
173 197 0
175 198 36
178 200 51
174 198 0
177 199 36
174 198 25
176 199 25
175 198 25
174 198 0
174 198 0
175 198 0
176 199 0
174 198 0
173 197 0
174 197 0
174 198 0
176 199 0
176 198 0
174 198 0
173 197 0
174 198 0
175 198 0
174 198 0
173 197 0
175 198 0
174 198 0
175 198 0
175 198 0
175 198 0
175 198 0
175 198 0
175 198 0
175 198 0
175 198 0
175 198 0
176 199 0
175 198 0
175 198 0
174 197 0
173 197 0
175 198 0
175 198 0
173 197 0
175 198 0
176 198 0
175 198 0
175 198 0
174 198 0
175 198 0
172 197 0
173 197 0
175 198 0
175 198 0
174 198 0
175 198 0
175 198 0
175 198 0
175 198 0
176 199 0
174 198 0
176 198 0
175 198 0
175 198 0
175 198 0
173 197 0
174 197 0
174 198 0
176 199 0
173 197 0
174 198 0
175 198 0
177 199 0
174 198 0
174 198 0
173 197 0
175 198 0
172 197 0
173 197 0
172 196 0
174 197 0
175 198 0
174 198 0
172 196 0
175 198 0
174 198 0
174 197 0
175 198 0
174 197 0
174 197 0
175 198 0
175 198 0
174 198 0
176 199 0
173 197 0
174 197 0
174 197 0
175 198 0
173 197 0
174 198 0
175 198 0
174 198 0
174 197 0
173 197 0
176 198 0
175 198 0
173 197 0
174 198 0
174 197 0
174 197 0
173 197 0
175 198 0
174 198 0
174 197 0
174 197 0
175 198 0
174 198 0
174 197 0
173 197 0
174 198 0
174 198 0
175 198 0
174 197 0
174 198 0
174 197 0
175 198 0
175 198 0
173 197 0
175 198 0
174 197 0
175 198 0
174 197 0
173 197 0
173 197 0
174 198 0
175 198 0
174 198 0
176 198 0
173 197 0
175 198 0
174 198 0
174 198 0
175 198 0
176 199 0
173 197 0
174 198 0
176 199 0
174 198 0
175 198 0
174 198 0
175 198 0
175 198 0
174 198 0
174 197 0
176 199 0
172 196 0
175 198 0
173 197 0
175 198 0
174 197 0
173 197 0
174 198 0
174 198 0
175 198 0
175 198 0
174 198 0
174 197 0
177 199 0
175 198 0
174 198 0
173 197 0
175 198 0
175 198 0
174 198 0
176 199 0
174 197 0
175 198 0
174 197 0
175 198 0
175 198 0
174 198 0
173 197 0
175 198 0
174 198 0
175 198 0
174 198 0
175 198 0
175 198 0
173 197 0
174 198 0
175 198 0
175 198 0
174 197 0
175 198 0
173 197 0
173 197 0
176 199 0
175 198 0
174 198 0
173 197 0
173 197 0
174 198 0
173 197 0
174 198 0
174 198 0
175 198 0
174 198 0
175 198 0
175 198 0
175 198 0
174 197 0
174 198 0
173 197 0
175 198 0
174 197 0
173 197 0
173 197 0
174 198 0
175 198 0
173 197 0
175 198 0
175 198 0
174 198 0
173 197 0
174 198 0
174 197 0
173 197 0
174 198 0
174 197 0
173 197 0
175 197 0
175 198 0
175 198 0
174 198 0
175 198 0
173 197 0
174 197 0
173 197 0
174 197 0
175 198 0
175 198 0
175 198 0
174 198 0
174 198 0
174 198 0
175 198 0
175 198 0
175 198 0
174 198 0
173 197 0
173 197 0
174 198 0
174 198 0
175 198 0
174 197 0
174 197 0
175 198 0
175 198 0
174 198 0
175 198 0
176 199 0
174 198 0
175 198 0
174 198 0
175 198 0
174 198 0
176 199 0
174 198 0
174 198 0
175 198 0
173 197 0
173 197 0
173 197 0
174 198 0
173 197 0
174 198 0
177 199 0
175 198 0
174 198 0
175 198 0
175 198 0
175 198 0
175 198 0
174 198 0
173 197 0
174 198 0
174 197 0
176 199 0
174 198 0
173 197 0
174 198 0
175 198 0
175 198 0
175 198 0
176 199 0
175 198 0
174 198 0
174 197 0
174 198 0
173 197 0
175 198 0
175 198 0
174 198 0
174 198 0
177 199 0
175 198 0
174 198 0
174 198 0
174 198 0
174 197 0
174 198 0
176 199 0
176 198 0
175 198 0
175 198 0
175 198 0
173 197 0
175 198 0
174 198 0
174 198 0
176 199 0
174 197 0
173 197 0
175 198 0
174 198 0
176 199 0
174 198 0
175 198 0
175 198 0
173 197 0
174 198 0
175 198 0
174 198 0
174 198 0
175 198 0
175 198 0
174 198 0
174 198 0
174 198 0
175 198 0
173 197 0
172 196 0
175 198 0
175 198 0
175 198 0
175 198 0
174 197 0
176 198 0
176 198 0
176 199 0
175 198 0
173 197 0
174 198 0
176 198 0
175 198 0
175 198 0
174 198 0
174 198 0
174 198 0
173 197 0
174 198 0
174 198 0
174 198 0
175 198 0
173 197 0
176 198 0
175 198 25
175 198 0
175 198 0
175 198 0
174 198 0
176 199 0
174 197 0
175 198 25
176 198 0
175 198 0
174 197 0
175 198 36
176 199 36
176 199 25
175 198 25
176 199 25
176 199 25
176 199 25
176 199 36
176 199 36
177 200 44
176 199 44
175 198 36
175 198 36
176 199 51
174 198 0
177 199 25
175 198 25
175 199 25
174 198 0
174 198 0
175 199 36
175 198 0
173 197 0
173 197 0
174 198 0
173 197 0
174 198 0
175 198 0
176 198 0
175 198 0
175 198 0
173 197 0
174 198 0
175 198 0
176 198 0
174 197 0
173 197 0
175 198 0
177 199 0
174 197 0
175 198 0
173 197 0
174 198 0
174 198 0
175 198 0
175 198 0
176 198 0
176 198 0
174 197 0
175 198 0
173 197 0
175 198 0
174 197 0
174 197 0
176 199 0
174 198 0
175 198 0
176 198 0
175 198 0
174 197 0
174 197 0
175 198 0
174 198 0
174 197 0
173 197 0
174 197 0
174 198 0
174 198 0
175 198 0
175 198 0
174 198 0
174 197 0
175 198 0
173 197 0
175 198 0
174 198 0
176 198 0
175 198 0
175 198 0
174 198 0
174 197 0
174 197 0
173 197 0
174 198 0
173 197 0
175 198 0
174 198 0
174 198 0
175 198 0
174 197 0
174 198 0
172 196 0
172 197 0
174 198 0
174 198 0
174 197 0
174 197 0
175 198 0
175 198 0
174 198 0
174 198 0
174 198 0
175 198 0
175 198 0
173 197 0
175 198 0
175 198 0
173 197 0
175 198 0
173 197 0
174 198 0
174 198 0
174 198 0
175 198 0
173 197 0
175 198 0
175 198 0
175 198 0
174 198 0
175 198 0
174 198 0
173 197 0
175 198 0
173 197 0
175 198 0
173 197 0
175 198 0
175 198 0
175 198 0
174 197 0
174 198 0
173 197 0
173 197 0
174 198 0
173 197 0
175 198 0
173 197 0
174 198 0
175 198 0
174 198 0
173 197 0
174 198 0
174 198 0
175 198 0
174 197 0
175 198 0
176 198 0
174 198 0
174 198 0
174 198 0
175 198 0
177 199 0
174 198 0
175 198 0
175 198 0
175 198 0
173 197 0
175 198 0
174 197 0
174 197 0
175 198 0
173 197 0
175 198 0
175 198 0
175 198 0
175 198 0
173 197 0
175 198 0
174 198 0
176 199 0
175 198 0
174 198 0
173 197 0
175 198 0
175 198 0
177 199 0
177 199 0
175 198 0
175 198 0
174 197 0
174 197 0
175 198 0
174 197 0
175 198 0
174 197 0
174 198 0
175 198 0
175 198 0
175 198 0
173 197 0
175 198 0
174 198 0
173 197 0
174 198 0
175 198 0
175 198 0
172 197 0
175 198 0
176 199 0
174 197 0
175 198 0
175 198 0
175 198 0
175 198 0
174 197 0
174 198 0
176 198 0
173 197 0
175 198 0
174 197 0
174 197 0
174 197 0
174 198 0
173 197 0
175 198 0
175 198 0
174 198 0
175 198 0
175 198 0
174 197 0
175 198 0
176 198 0
174 197 0
175 198 0
175 198 0
174 197 0
174 198 0
174 197 0
174 197 0
176 198 0
175 198 0
175 198 0
174 197 0
174 197 0
176 199 0
174 197 0
173 197 0
174 198 0
173 197 0
175 198 0
175 198 0
173 197 0
175 198 0
175 198 0
175 198 0
174 198 0
174 198 0
174 198 0
175 198 0
174 197 0
174 197 0
174 198 0
174 197 0
175 198 0
174 198 0
173 197 0
174 198 0
176 199 0
176 199 0
173 197 0
174 197 0
176 198 0
174 198 0
174 198 0
173 197 0
174 197 0
173 197 0
175 198 0
174 198 0
175 198 0
174 198 0
174 198 0
175 198 0
173 197 0
174 198 0
172 197 0
174 198 0
174 198 0
175 198 0
174 197 0
174 198 0
175 198 0
174 198 0
175 198 0
174 197 0
175 198 0
175 198 0
175 198 0
175 198 0
176 198 0
175 198 0
175 198 0
172 196 0
176 199 0
175 198 0
176 198 0
174 198 0
174 198 0
174 198 0
174 198 0
175 198 0
175 198 0
176 199 0
173 197 0
173 197 0
174 197 0
173 197 0
174 197 0
175 198 0
177 199 0
174 198 0
173 197 0
174 198 0
176 198 0
175 198 0
175 198 0
174 198 0
174 198 0
176 198 0
173 197 0
175 198 0
175 198 0
174 197 0
174 198 0
174 198 0
175 198 0
174 198 0
173 197 0
174 198 0
175 198 0
175 198 0
174 198 0
175 198 0
174 198 0
174 198 0
174 197 0
174 197 0
175 198 0
174 198 0
175 198 0
174 198 0
175 198 0
174 198 0
175 198 0
175 198 0
175 198 0
173 197 0
175 198 0
176 199 0
175 198 0
175 198 0
175 198 0
174 197 0
175 198 0
175 198 0
174 198 0
175 198 0
174 198 0
174 198 0
173 197 0
174 198 0
174 198 0
176 198 0
173 197 0
175 198 0
176 199 0
176 199 0
175 198 0
174 198 0
176 199 0
175 198 0
175 198 0
173 197 0
176 199 0
175 198 0
174 197 0
173 197 0
175 198 0
175 198 0
173 197 0
175 198 0
176 199 0
174 198 0
174 197 0
175 198 0
175 198 0
175 198 0
175 198 0
174 198 0
173 197 0
175 198 0
174 197 0
176 199 0
175 198 0
176 198 0
173 197 0
174 197 0
174 198 0
176 199 0
175 198 0
174 198 0
173 197 0
175 198 0
174 198 0
174 198 0
174 197 0
174 198 0
174 197 25
174 198 0
174 197 0
175 198 0
173 197 0
175 198 25
173 197 0
175 198 25
174 197 0
174 198 0
176 199 0
174 198 0
175 198 0
174 198 0
174 197 0
174 197 0
174 197 0
175 198 0
175 198 0
175 198 0
173 197 0
175 198 0
176 199 0
175 198 0
175 198 0
174 198 0
174 197 0
174 198 0
174 198 0
174 197 0
174 198 0
176 198 0
173 197 0
174 198 0
174 198 0
175 198 0
175 198 0
175 198 0
173 197 0
176 199 0
175 198 0
175 198 0
176 199 0
173 197 0
173 197 0
175 198 0
174 198 0
175 198 0
176 198 0
174 197 0
175 198 0
173 197 0
173 197 0
174 198 0
173 197 0
172 197 0
174 197 0
174 198 0
175 198 0
175 198 0
174 198 0
174 198 0
173 197 0
174 198 0
175 198 0
174 197 0
175 198 0
175 198 0
174 198 0
174 198 0
175 198 0
175 198 0
174 198 0
176 199 0
174 198 0
174 198 0
175 198 0
173 197 0
174 198 0
174 197 0
173 197 0
174 197 0
175 198 0
175 198 0
175 198 0
174 197 0
176 199 0
174 198 0
175 198 0
176 199 0
174 198 0
175 198 0
174 197 0
173 197 0
176 198 0
174 198 0
174 197 0
174 197 0
173 197 0
175 198 0
175 198 0
175 198 0
174 197 0
176 199 0
176 198 0
175 198 0
176 198 0
173 197 0
174 198 0
174 197 0
175 198 0
175 198 0
175 198 0
174 198 0
174 198 0
175 198 0
174 198 0
174 198 0
173 197 0
175 198 0
174 198 0
175 198 0
175 198 0
173 197 0
174 197 0
172 196 0
174 198 0
175 198 0
175 198 0
174 198 0
175 198 0
174 198 0
175 198 0
176 199 0
174 198 0
176 199 0
175 198 0
174 197 0
174 198 0
174 198 0
175 198 0
175 198 0
173 197 0
174 197 0
174 197 0
175 198 0
174 198 0
173 197 0
174 197 0
173 197 0
176 199 0
174 198 0
175 198 0
175 198 0
174 197 0
175 198 0
174 198 0
174 198 0
172 196 0
173 197 0
174 198 0
174 198 0
174 198 0
175 198 0
174 198 0
174 197 0
176 199 0
173 197 0
173 197 0
173 197 0
175 198 0
175 198 0
174 198 0
174 198 0
174 197 0
174 197 0
175 198 0
174 198 0
173 197 0
175 198 0
174 198 0
174 198 0
174 197 0
177 199 0
175 198 0
174 198 0
174 197 0
174 198 0
174 198 0
174 198 0
175 198 0
175 198 0
174 197 0
175 198 0
173 197 0
175 198 0
174 198 0
174 198 0
174 198 0
174 197 0
174 198 0
174 198 0
175 198 0
174 198 0
174 198 0
174 198 0
173 197 0
175 198 0
174 198 0
175 198 0
174 198 0
174 198 0
175 198 0
175 198 0
173 197 0
173 197 0
174 198 0
173 197 0
175 198 0
173 197 0
174 198 0
176 199 0
174 197 0
173 197 0
174 198 0
175 198 0
173 197 0
174 197 0
174 198 0
175 198 0
174 197 0
173 197 0
176 198 0
174 197 0
175 198 0
174 197 0
174 197 0
173 197 0
175 198 0
174 198 0
175 198 0
176 198 0
176 199 0
172 196 0
173 197 0
177 199 0
175 198 0
173 197 0
175 198 0
175 198 0
174 197 0
174 197 0
173 197 0
175 198 0
174 198 0
175 198 0
172 197 0
174 197 0
174 197 0
172 197 0
177 199 0
174 198 0
174 198 0
175 198 0
174 197 0
175 198 0
176 199 0
174 197 0
174 197 0
176 199 0
174 197 0
173 197 0
176 198 0
173 197 0
177 199 0
175 198 0
174 197 0
174 198 0
176 199 0
175 198 0
174 198 0
173 197 0
176 199 0
172 196 0
174 197 0
173 197 0
176 199 0
174 198 0
175 198 0
175 198 0
174 197 0
176 199 0
174 198 0
175 198 0
175 198 0
174 197 0
174 198 0
173 197 0
175 198 0
176 198 0
173 197 0
173 197 0
175 198 0
175 198 0
175 198 0
175 198 0
175 198 0
175 198 0
174 198 0
174 198 0
175 198 0
175 198 0
174 198 0
175 198 0
174 197 0
174 197 0
174 198 0
174 197 0
174 197 0
174 198 0
175 198 0
172 197 0
174 197 0
174 198 0
174 198 0
173 197 0
175 198 0
175 198 0
174 198 0
175 198 0
173 197 0
174 198 0
173 197 0
173 197 0
175 198 0
174 198 0
175 198 0
175 198 0
174 198 0
175 198 0
174 198 0
175 198 0
173 197 0
174 197 0
174 198 0
174 198 0
175 198 0
174 197 0
174 198 0
175 198 0
175 198 0
175 198 0
175 198 0
174 197 0
175 198 0
175 198 0
173 197 0
173 197 0
175 198 0
175 198 0
176 199 0
176 198 0
175 198 0
174 198 0
176 199 0
176 199 0
174 198 0
175 198 0
175 198 0
176 199 0
173 197 0
174 198 0
172 197 0
175 198 0
176 199 0
174 198 0
174 198 0
175 198 0
174 198 0
174 198 0
175 198 0
175 198 0
175 198 0
175 198 0
175 198 0
174 197 0
173 197 0
175 198 0
173 197 0
173 197 0
174 198 0
173 197 0
176 199 0
175 198 0
174 198 0
174 197 0
174 198 0
174 198 0
176 198 0
174 197 0
174 198 0
176 199 0
176 198 0
174 198 0
175 198 36
175 198 0
175 198 36
175 198 0
172 197 0
174 197 0
177 199 0
173 197 0
174 197 0
174 198 0
174 198 0
173 197 0
174 198 0
175 198 0
175 198 0
175 198 0
175 198 0
175 198 0
175 198 0
176 198 0
174 198 0
174 198 0
174 197 0
175 198 0
173 197 0
175 198 0
175 198 0
174 197 0
175 198 0
176 199 0
176 199 0
175 198 0
173 197 0
176 198 0
173 197 0
173 197 0
172 197 0
175 198 0
175 198 0
175 198 0
175 198 0
174 197 0
175 198 0
176 199 0
177 199 0
174 198 0
174 197 0
174 198 0
174 197 0
175 198 0
175 198 0
175 198 0
175 198 0
175 198 0
174 198 0
176 198 0
174 198 0
175 198 0
174 198 0
175 198 0
175 198 0
177 199 0
174 198 0
175 198 0
175 198 0
176 199 0
175 198 0
175 198 0
175 198 0
174 197 0
173 197 0
173 197 0
174 197 0
176 199 0
174 197 0
174 198 0
175 198 0
175 198 0
174 198 0
174 198 0
173 197 0
174 197 0
176 198 0
174 198 0
173 197 0
176 198 0
172 196 0
176 198 0
175 198 0
174 197 0
174 197 0
175 198 0
175 198 0
174 198 0
175 198 0
173 197 0
173 197 0
174 198 0
175 198 0
175 198 0
175 198 0
174 198 0
175 198 0
173 197 0
173 197 0
174 197 0
176 199 0
175 198 0
175 198 0
175 198 0
176 199 0
175 198 0
174 198 0
174 198 0
175 198 0
174 198 0
175 198 0
175 198 0
175 198 0
175 198 0
173 197 0
174 198 0
176 199 0
176 199 0
174 198 0
174 198 0
174 197 0
174 198 0
175 198 0
173 197 0
174 197 0
175 198 0
176 199 0
176 199 0
174 198 0
174 198 0
174 198 0
174 198 0
175 198 0
173 197 0
174 198 0
175 198 0
174 197 0
173 197 0
174 198 0
173 197 0
175 198 0
174 198 0
175 198 0
174 197 0
174 197 0
176 199 0
174 197 0
174 198 0
175 198 0
174 198 0
176 198 0
172 197 0
175 198 0
174 198 0
175 198 0
175 198 0
175 198 0
173 197 0
174 198 0
175 198 0
175 198 0
173 197 0
175 198 0
176 199 0
174 198 0
173 197 0
174 197 0
174 198 0
173 196 0
174 198 0
175 198 0
175 198 0
175 198 0
175 198 0
174 198 0
174 198 0
174 197 0
173 197 0
176 199 0
174 197 0
175 198 0
172 197 0
173 197 0
173 197 0
173 197 0
174 198 0
174 198 0
175 198 0
175 198 0
175 198 0
174 198 0
176 198 0
174 198 0
173 197 0
175 198 0
173 197 0
174 198 0
176 199 0
175 198 0
176 199 0
174 197 0
175 198 0
175 198 0
174 198 0
173 197 0
176 199 0
173 197 0
175 198 0
175 198 0
175 198 0
174 198 0
174 198 0
175 198 0
174 198 0
175 198 0
174 198 0
173 196 0
174 198 0
175 198 0
175 198 0
175 198 0
174 198 0
174 198 0
177 199 0
173 197 0
174 198 0
174 198 0
174 197 0
175 198 0
175 198 0
174 198 0
175 198 0
174 198 0
175 198 0
175 198 0
175 198 0
174 198 0
174 198 0
174 198 0
175 198 0
173 197 0
175 198 0
175 198 0
174 198 0
173 197 0
175 198 0
175 198 0
174 198 0
173 197 0
175 198 0
176 199 0
174 198 0
176 199 0
174 197 0
172 196 0
175 198 0
173 197 0
174 198 0
173 197 0
174 198 0
173 197 0
174 198 0
174 197 0
174 198 0
174 198 0
175 198 0
173 197 0
175 198 0
174 198 0
176 199 0
176 199 0
175 198 0
173 197 0
174 198 0
174 197 0
174 198 0
174 198 0
175 198 0
173 197 0
175 198 0
174 198 0
175 198 0
173 197 0
175 198 0
174 198 0
175 198 0
176 199 0
173 197 0
176 199 0
174 198 0
174 198 0
173 197 0
173 197 0
175 198 0
175 198 0
174 198 0
176 199 0
174 197 0
175 198 0
174 198 0
174 198 0
174 198 0
175 198 0
175 198 0
175 198 0
175 198 0
176 198 0
175 198 0
175 198 0
173 197 0
174 197 0
174 197 0
173 197 0
175 198 0
174 198 0
175 198 0
174 197 0
175 198 0
174 198 0
174 197 0
175 198 0
173 197 0
174 198 0
175 198 0
174 197 0
174 197 0
175 198 0
175 198 0
174 198 0
174 197 0
174 198 0
174 197 0
174 198 0
174 197 0
173 197 0
177 199 0
176 198 0
175 198 0
175 198 0
173 197 0
176 199 0
174 198 0
174 197 0
176 198 0
175 198 0
173 197 0
175 198 0
173 197 0
173 197 0
176 198 0
175 198 0
175 198 0
174 198 0
174 198 0
174 198 0
175 198 0
174 198 0
175 198 0
174 198 0
175 198 0
174 198 0
173 197 0
173 197 0
176 199 0
173 197 0
174 198 0
175 198 0
175 198 0
175 198 0
175 198 0
173 197 0
175 198 0
175 198 0
176 199 0
174 198 0
176 198 0
175 198 0
175 198 0
176 198 0
175 198 0
175 198 0
173 197 0
174 198 0
175 198 0
175 198 0
175 198 0
174 198 0
175 198 0
174 198 0
175 198 0
175 198 0
175 198 0
176 198 0
174 198 0
176 199 0
174 198 0
175 198 0
174 198 0
174 197 0
175 198 0
175 198 0
174 198 0
174 198 0
174 198 0
176 199 0
173 197 0
176 198 0
175 198 0
174 198 0
174 198 0
175 198 0
175 198 0
173 197 0
174 197 0
175 198 0
175 198 0
175 198 0
173 197 0
174 198 0
174 198 0
175 198 0
174 198 0
175 198 0
174 197 0
174 198 0
176 198 0
174 198 0
175 198 0
175 198 0
176 199 0
175 198 0
176 199 0
176 199 0
173 197 0
174 198 0
173 197 0
173 197 0
174 198 0
176 199 0
174 197 0
176 199 0
175 198 0
174 198 0
175 198 0
174 198 0
174 198 0
174 198 0
175 198 0
174 198 0
174 198 0
174 197 0
175 198 0
175 198 0
175 198 0
173 197 0
175 198 0
174 197 0
174 198 0
175 198 0
174 198 0
173 197 0
174 198 0
174 198 0
174 198 0
174 197 0
174 198 0
175 198 0
173 197 0
173 197 0
175 198 0
175 198 0
174 197 0
174 198 0
174 198 0
173 197 0
172 197 0
175 198 0
175 198 0
175 198 0
173 197 0
176 199 0
174 198 0
174 198 0
176 198 0
175 198 0
175 198 0
175 198 0
174 197 0
175 198 0
174 198 0
176 198 0
175 198 0
174 198 0
174 198 0
176 199 0
176 199 0
174 198 0
176 198 0
176 199 0
174 198 0
174 198 0
175 198 0
175 198 0
176 198 0
175 198 0
174 197 0
172 196 0
174 198 0
174 198 0
175 198 0
174 198 0
175 198 0
175 198 0
174 198 0
174 197 0
175 198 0
175 198 0
173 197 0
175 198 0
174 198 0
177 199 0
176 199 0
174 198 0
175 198 0
171 196 0
173 197 0
175 198 0
175 198 0
174 198 0
175 198 0
173 197 0
175 198 0
176 198 0
175 198 0
176 199 0
174 198 0
173 196 0
176 199 0
173 197 0
174 198 0
175 198 0
176 199 0
174 198 0
175 198 0
173 197 0
174 197 0
175 198 0
174 197 0
174 197 0
175 198 0
174 198 0
172 197 0
174 197 0
176 199 0
173 197 0
175 198 0
172 197 0
175 198 0
172 197 0
174 198 0
174 197 0
176 198 0
173 197 0
174 198 0
175 198 0
174 198 0
174 197 0
175 198 0
175 198 0
175 198 0
177 199 0
174 198 0
173 197 0
173 197 0
176 199 0
176 198 0
176 198 0
174 198 0
175 198 0
174 198 0
174 197 0
174 197 0
175 198 0
174 198 0
175 198 0
174 198 0
174 198 0
172 196 0
176 199 0
175 198 0
175 198 0
175 198 0
174 197 0
175 198 0
172 196 0
174 198 0
174 197 0
173 197 0
175 198 0
175 198 0
174 197 0
175 198 0
175 198 0
174 197 0
174 198 0
174 198 0
175 198 0
175 198 0
176 198 0
174 198 0
174 197 0
175 198 0
175 198 0
177 199 0
173 197 0
174 197 0
174 198 0
175 198 0
174 197 0
174 197 0
176 198 0
175 198 0
174 197 0
175 198 0
174 198 0
176 198 0
174 198 0
174 197 0
174 198 0
175 198 0
174 197 0
174 198 0
176 198 0
175 198 0
174 197 0
174 198 0
175 198 0
175 198 0
174 197 0
175 198 0
174 198 0
173 197 0
176 199 0
175 198 0
174 197 0
174 198 0
175 198 0
176 199 0
173 197 0
175 198 0
175 198 0
175 198 0
175 198 0
174 197 0
174 198 0
174 198 0
174 197 0
174 197 0
175 198 0
175 198 0
175 198 0
176 198 0
174 198 0
175 198 0
175 198 0
173 197 0
173 197 0
172 197 0
175 198 0
173 197 0
175 198 0
173 197 0
174 197 0
174 198 0
173 197 0
176 198 0
174 198 0
173 197 0
174 198 0
173 197 0
174 197 0
174 198 0
173 197 0
174 198 0
174 198 0
175 198 0
176 199 0
175 198 0
174 198 0
175 198 0
174 198 0
174 198 0
175 198 0
173 197 0
174 198 0
176 199 0
174 198 0
173 197 0
173 197 0
175 198 0
175 198 0
173 197 0
174 198 0
173 197 0
173 197 0
174 198 0
175 198 0
175 198 0
174 197 0
175 198 0
175 198 0
175 198 0
175 198 0
173 197 0
174 198 0
175 198 0
174 198 0
174 198 0
174 198 0
174 198 0
173 197 0
175 198 0
174 198 0
174 198 0
173 197 0
175 198 0
174 197 0
176 199 0
173 197 0
174 197 0
174 198 0
174 197 0
175 198 0
174 197 0
174 198 0
175 198 0
174 198 0
174 198 0
175 198 0
174 198 0
174 198 0
174 197 0
174 198 0
176 199 0
175 198 0
172 197 0
175 198 0
172 196 0
173 197 0
175 198 0
174 197 0
175 198 0
174 198 0
174 197 0
175 198 0
175 198 0
174 197 0
175 198 0
175 198 0
176 198 0
173 197 0
174 198 0
175 198 0
175 198 0
173 197 0
174 198 0
174 198 0
175 198 0
175 198 0
174 198 0
174 198 0
176 199 0
173 197 0
175 198 0
173 197 0
175 198 0
174 197 0
175 198 0
173 197 0
175 198 0
172 197 0
175 198 0
174 197 0
175 198 0
175 198 0
174 198 0
175 198 0
174 197 0
176 199 0
175 198 0
173 197 0
175 198 0
176 199 0
175 198 0
175 198 0
175 198 0
175 198 0
175 198 0
174 198 0
176 198 0
174 198 0
174 198 0
175 198 0
175 198 0
174 198 0
173 197 0
172 197 0
175 198 0
173 197 0
175 198 0
176 198 0
175 198 0
175 198 0
175 198 0
175 198 0
175 198 0
174 198 0
175 198 0
175 198 0
173 197 0
174 198 0
175 198 0
175 198 0
175 198 0
174 198 0
174 198 0
173 197 0
174 197 0
175 198 0
176 198 0
175 198 0
173 197 0
176 199 0
174 198 0
173 197 0
174 197 0
175 198 0
175 198 0
175 198 0
172 197 0
176 199 0
174 198 0
177 199 0
175 198 0
173 197 0
176 199 0
176 198 0
175 198 0
175 198 0
175 198 0
174 197 0
173 197 0
175 198 0
175 198 0
175 198 0
173 197 0
175 198 0
175 198 0
175 198 0
176 198 0
174 197 0
175 198 0
174 198 0
174 198 0
174 198 0
175 198 0
174 198 0
176 199 0
174 198 0
175 198 0
172 196 0
175 198 0
175 198 0
173 197 0
174 198 0
175 198 0
175 198 0
174 198 0
175 198 0
175 198 0
174 197 0
174 198 0
174 198 0
174 198 0
173 197 0
174 197 0
175 198 0
175 198 0
174 198 0
175 198 0
173 197 0
175 198 0
176 198 0
175 198 0
175 198 0
173 197 0
175 198 0
175 198 0
174 197 0
174 198 0
174 197 0
174 197 0
173 197 0
175 198 0
175 198 0
175 198 0
175 198 0
176 199 0
175 198 0
175 198 0
175 198 0
174 198 0
174 198 0
174 197 0
175 198 0
175 198 0
174 198 0
174 197 0
172 196 0
174 198 0
174 198 0
174 197 0
175 198 0
174 198 0
176 199 0
175 198 0
174 198 0
172 196 0
174 198 0
174 198 0
174 197 0
175 198 0
175 198 0
173 197 0
176 199 0
175 198 0
174 198 0
173 197 0
173 197 0
175 198 0
172 196 0
174 198 0
173 197 0
173 197 0
174 197 0
175 198 0
175 198 0
173 197 0
173 197 0
173 197 0
175 198 0
174 197 0
174 197 0
175 198 0
175 198 0
174 198 0
174 198 0
174 198 0
176 198 0
174 198 0
173 197 0
174 198 0
174 198 0
175 198 0
175 198 0
174 198 0
175 198 0
173 197 0
175 198 0
176 199 0
175 198 0
173 197 0
174 198 0
173 197 0
176 198 0
175 198 0
175 198 0
174 198 0
173 197 0
176 198 0
175 198 0
174 198 0
173 197 0
174 198 0
174 198 0
175 198 0
173 197 0
173 197 0
174 198 0
175 198 0
173 197 0
175 198 0
175 198 0
174 198 0
174 198 0
174 198 0
174 198 0
177 199 0
174 198 0
175 198 0
175 198 0
175 198 0
175 198 0
174 198 0
174 198 0
174 197 0
174 198 0
172 196 0
176 199 0
174 198 0
175 198 0
175 198 0
174 198 0
174 197 0
174 198 0
173 197 0
174 198 0
175 198 0
174 198 0
176 199 0
175 198 0
173 197 0
176 199 0
175 198 0
174 198 0
173 197 0
175 198 0
174 197 0
174 198 0
176 198 0
174 198 0
174 197 0
174 198 0
174 198 0
173 197 0
174 198 0
176 199 0
174 198 0
175 198 0
175 198 0
173 197 0
174 198 0
175 198 0
173 197 0
175 198 0
173 197 0
175 198 0
174 197 0
174 198 0
173 197 0
174 197 0
173 197 0
175 198 0
175 198 0
174 198 0
175 198 0
174 198 0
174 197 0
174 198 0
176 199 0
173 197 0
174 198 0
174 198 0
176 199 0
173 197 0
173 197 0
174 198 0
175 198 0
174 198 0
174 198 0
175 198 0
174 198 0
173 197 0
175 198 0
174 198 0
175 198 0
173 197 0
174 198 0
174 198 0
174 198 0
174 197 0
174 198 0
174 197 0
175 198 0
174 197 0
175 198 0
175 198 0
173 197 0
176 199 0
173 197 0
176 198 0
175 198 0
174 198 0
174 198 0
175 198 0
173 197 0
173 197 0
174 197 0
173 197 0
174 198 0
176 199 0
176 199 0
176 198 0
173 197 0
175 198 0
175 198 0
176 198 0
174 198 0
175 198 0
176 198 0
174 197 0
174 198 0
174 198 0
174 198 0
174 198 0
175 198 0
176 198 0
174 198 0
175 198 0
173 197 0
174 198 0
174 197 0
175 198 0
174 198 0
173 197 0
175 198 0
174 197 0
175 198 0
175 198 0
174 198 0
174 198 0
174 197 0
174 198 0
174 198 0
174 198 0
174 198 0
173 197 0
175 198 0
174 198 0
174 198 0
174 198 0
174 197 0
176 199 0
174 198 0
175 198 0
175 198 0
174 198 0
174 198 0
176 199 0
174 198 0
173 197 0
175 198 0
174 198 0
175 198 0
174 198 0
174 198 0
175 198 0
174 198 0
174 198 0
175 198 0
175 198 0
174 198 0
174 198 0
174 198 0
173 197 0
173 197 0
174 197 0
173 197 0
174 198 0
175 198 0
174 198 0
175 198 0
175 198 0
173 197 0
176 199 0
174 197 0
174 198 0
175 198 0
174 198 0
175 198 0
176 198 0
175 198 0
174 198 0
174 198 0
175 198 0
174 198 0
174 197 0
175 198 0
174 198 0
174 198 0
174 197 0
175 198 0
174 198 0
174 198 0
174 198 0
174 198 0
174 198 0
174 198 0
174 198 0
176 199 0
175 198 0
174 197 0
175 198 0
173 197 0
175 198 0
176 199 0
174 197 0
174 197 0
174 197 0
174 198 0
174 198 0
174 197 0
174 198 0
175 198 0
173 197 0
175 198 0
175 198 0
176 199 0
175 198 0
175 198 0
174 198 0
175 198 0
175 198 0
175 198 0
174 198 0
174 198 0
175 198 0
174 198 0
175 198 0
175 198 0
175 198 0
174 198 0
173 197 0
175 198 0
175 198 0
173 197 0
174 197 0
174 197 0
174 198 0
174 197 0
175 198 0
176 199 0
175 198 0
173 197 0
174 198 0
175 198 0
174 197 0
175 198 0
175 198 0
173 197 0
175 198 0
173 197 0
173 197 0
175 198 0
174 198 0
173 197 0
174 198 0
175 198 0
174 197 0
174 197 0
175 198 0
174 198 0
174 198 0
175 198 0
174 198 0
175 198 0
173 197 0
174 198 0
175 198 0
175 198 0
173 197 0
175 198 0
174 198 0
175 198 0
175 198 0
174 197 0
176 199 0
176 199 0
173 197 0
174 197 0
176 198 0
174 198 0
174 197 0
174 197 0
174 198 0
174 198 0
173 197 0
176 199 0
176 198 0
174 198 0
174 198 0
173 197 0
174 198 0
174 197 0
174 197 0
174 198 0
175 198 0
175 198 0
175 198 0
175 198 0
175 198 0
174 198 0
173 197 0
175 198 0
175 198 0
174 198 0
173 197 0
175 198 0
174 198 0
174 198 0
175 198 0
174 197 0
174 198 0
175 198 0
173 197 0
174 197 0
175 198 0
174 198 0
176 199 0
175 198 0
176 199 0
175 198 0
174 198 0
176 198 0
175 198 0
174 198 0
173 197 0
175 198 0
174 198 0
175 198 0
174 198 0
174 198 0
174 198 0
174 198 0
174 198 0
173 197 0
173 197 0
174 197 0
174 198 0
174 198 0
173 197 0
175 198 0
174 198 0
174 198 0
173 197 0
175 198 0
175 198 0
175 198 0
173 197 0
175 198 0
174 197 0
174 198 0
173 197 0
174 197 0
172 197 0
175 198 0
175 198 0
175 198 0
174 198 0
176 199 0
173 197 0
174 197 0
174 197 0
173 197 0
173 197 0
175 198 0
175 198 0
174 197 0
175 198 0
174 198 0
174 198 0
175 198 0
174 198 0
174 198 0
175 198 0
174 197 0
174 197 0
176 198 0
173 197 0
176 199 0
174 198 0
175 198 0
175 197 0
174 197 0
174 198 0
175 198 0
175 198 0
174 197 0
173 197 0
174 197 0
175 198 0
175 198 0
174 198 0
175 198 0
174 198 0
174 198 0
173 197 0
173 197 0
174 198 0
175 198 0
175 198 0
173 197 0
174 197 0
174 197 0
174 198 0
175 198 0
173 197 0
173 197 0
173 197 0
174 197 0
175 198 0
174 197 0
173 197 0
177 199 0
175 198 0
173 197 0
175 198 0
176 199 0
174 198 0
174 198 0
175 198 0
178 200 0
176 198 0
175 198 0
176 199 0
174 198 0
173 197 0
176 199 0
174 198 0
174 197 0
174 198 0
173 197 0
175 198 0
175 198 0
172 196 0
174 198 0
176 198 0
173 197 0
175 198 0
175 198 0
175 198 0
175 198 0
174 197 0
173 197 0
175 198 0
175 198 0
176 199 0
174 197 0
174 198 0
175 198 0
173 197 0
174 198 0
174 198 0
176 198 0
173 197 0
174 198 0
175 198 0
175 198 0
175 198 0
174 198 0
174 198 0
174 198 0
174 198 0
175 198 0
175 198 0
175 198 0
176 199 0
175 198 0
174 198 0
174 198 0
176 198 0
175 198 0
174 198 0
175 198 0
174 198 0
174 197 0
174 198 0
173 197 0
175 198 0
175 198 0
175 198 0
174 197 0
174 198 0
173 197 0
173 197 0
174 198 0
176 199 0
175 198 0
176 199 0
174 197 0
176 199 0
174 197 0
176 198 0
175 198 0
176 199 0
175 198 0
175 198 0
176 198 0
174 198 0
175 198 0
174 197 0
174 198 0
175 198 0
174 198 0
176 199 0
172 196 0
173 196 0
175 198 0
174 197 0
175 198 0
175 198 0
174 198 0
174 198 0
175 198 0
175 198 0
174 197 0
174 198 0
174 198 0
173 197 0
174 197 0
176 198 0
175 198 0
173 197 0
174 198 0
174 198 0
175 198 0
175 198 0
175 198 0
174 198 0
174 198 0
173 197 0
174 198 0
174 197 0
174 198 0
176 199 0
175 198 0
175 198 0
176 199 0
174 198 0
175 198 0
176 199 0
173 197 0
174 197 0
176 199 0
174 197 0
175 198 0
173 197 0
173 197 0
174 198 0
174 197 0
174 198 0
175 198 0
175 198 0
174 198 0
173 197 0
174 198 0
174 198 0
175 198 0
174 198 0
177 199 0
175 198 0
176 199 0
177 199 0
175 198 0
175 198 0
173 197 0
174 198 0
175 198 0
175 198 0
175 198 0
174 198 0
174 198 0
173 197 0
174 197 0
175 198 0
176 198 0
175 198 0
174 198 0
174 197 0
175 198 0
175 198 0
175 198 0
174 198 0
175 198 0
175 198 0
173 197 0
174 198 0
176 199 0
176 198 0
175 198 0
175 198 0
176 199 0
175 198 0
174 198 0
175 198 0
176 198 0
176 199 0
174 198 0
176 199 0
174 198 0
173 197 0
175 198 0
174 198 0
173 197 0
173 197 0
173 197 0
175 198 0
175 198 0
174 198 0
174 198 0
174 198 0
174 197 0
173 197 0
176 199 0
174 198 0
174 197 0
175 198 0
175 198 0
176 199 0
173 197 0
174 198 0
174 198 0
175 198 0
173 197 0
174 198 0
175 198 0
173 197 0
175 198 0
173 197 0
174 197 0
174 197 0
175 198 0
175 198 0
174 198 0
175 198 0
174 197 0
175 198 0
175 198 0
174 197 0
175 198 0
174 198 0
174 198 0
173 197 0
174 197 0
175 198 0
176 199 0
176 199 0
176 199 0
175 198 0
175 198 0
175 198 0
174 198 0
174 198 0
174 198 0
175 198 0
174 198 0
175 198 0
174 198 0
175 198 0
175 198 0
174 198 0
175 198 0
175 198 0
175 198 0
175 198 0
176 199 0
174 197 0
174 198 0
175 198 0
174 197 0
175 198 0
174 198 0
175 198 0
174 198 0
173 197 0
173 197 0
172 197 0
174 198 0
171 196 0
175 198 0
173 197 0
174 197 0
175 198 0
173 197 0
174 198 0
174 198 0
176 199 0
174 197 0
175 198 0
172 197 0
174 198 0
175 198 0
175 198 0
175 198 0
174 198 0
175 198 0
173 197 0
174 198 0
175 198 0
175 198 0
175 198 0
174 198 0
175 198 0
175 198 0
175 198 0
175 198 0
174 198 0
175 198 0
174 198 0
175 198 0
175 198 0
176 198 0
174 198 0
175 198 0
175 198 0
174 198 0
176 199 0
174 197 0
175 198 0
174 197 0
174 197 0
174 198 0
174 198 0
174 198 0
174 198 0
173 197 0
174 198 0
174 198 0
175 198 0
176 198 0
173 197 0
174 198 0
174 198 0
175 198 0
174 198 0
173 197 0
174 198 0
176 199 0
176 199 0
174 198 0
175 198 0
173 197 0
173 197 0
174 198 0
176 199 0
173 197 0
175 198 0
172 196 0
175 198 0
174 198 0
175 198 0
175 198 0
174 198 0
173 197 0
175 198 0
175 198 0
174 198 0
173 196 0
175 198 0
174 197 0
174 197 0
176 199 0
175 198 0
175 198 0
173 197 0
174 198 0
174 198 0
174 197 0
175 198 0
174 198 0
175 198 0
174 198 0
176 199 0
175 198 0
176 199 0
173 197 0
175 198 0
174 198 0
174 198 0
174 198 0
174 197 0
174 198 0
176 198 0
175 198 0
173 197 0
173 197 0
174 198 0
173 197 0
176 199 0
174 198 0
174 198 0
174 197 0
175 198 0
175 198 0
174 198 0
175 198 0
176 198 0
173 196 0
175 198 0
174 198 0
174 197 0
175 198 0
174 198 0
175 198 0
172 196 0
175 198 0
174 198 0
175 198 0
174 198 0
174 197 0
175 198 0
175 198 0
176 199 0
174 198 0
174 197 0
174 198 0
175 198 0
173 197 0
174 198 0
174 197 0
171 196 0
174 198 0
175 198 0
176 198 0
174 197 0
175 198 0
175 198 0
175 198 0
174 198 0
174 198 0
174 198 0
174 198 0
175 198 0
174 198 0
174 198 0
175 198 0
174 198 0
175 198 0
174 198 0
173 197 0
174 198 0
176 199 0
173 197 0
174 198 0
173 197 0
175 198 0
175 198 0
174 198 0
174 198 0
175 198 0
176 199 0
175 198 0
174 198 0
173 197 0
173 197 0
174 198 0
176 198 0
174 198 0
175 197 0
173 197 0
176 198 0
176 199 0
175 198 0
174 197 0
173 196 0
174 198 0
174 197 0
173 197 0
173 197 0
173 197 0
174 198 0
175 198 0
173 197 0
176 198 0
174 198 0
175 198 0
174 198 0
173 197 0
173 197 0
173 197 0
174 197 0
175 198 0
175 198 0
175 198 0
173 197 0
174 197 0
176 199 0
174 198 0
174 198 0
173 197 0
175 198 0
174 198 0
174 198 0
174 197 0
176 199 0
175 198 0
174 198 0
174 198 0
176 199 0
174 198 0
174 197 0
175 198 0
174 198 0
175 198 0
175 198 0
175 198 0
176 199 0
174 198 0
176 198 0
174 198 0
175 198 0
174 198 0
175 198 0
175 198 0
174 198 0
174 198 0
174 197 0
174 197 0
173 197 0
174 197 0
174 198 0
174 198 0
175 198 0
173 197 0
174 198 0
175 198 0
175 198 0
174 198 0
174 197 0
175 198 0
175 198 0
175 198 0
176 199 0
174 198 0
174 198 0
175 198 0
175 198 0
176 198 0
174 198 0
174 198 0
175 198 0
173 197 0
175 198 0
174 198 0
174 198 0
175 198 0
173 197 0
174 198 0
174 198 0
175 198 0
175 198 0
175 198 0
175 198 0
176 199 0
175 198 0
174 198 0
176 199 0
174 198 0
176 199 0
175 198 0
174 197 0
175 198 0
174 198 0
175 198 0
173 197 0
172 196 0
173 197 0
174 198 0
174 198 0
176 199 0
175 198 0
174 198 0
173 197 0
174 198 0
174 198 0
176 199 0
174 198 0
175 198 0
173 197 0
173 197 0
174 198 0
176 198 0
175 198 0
176 199 0
174 198 0
174 198 0
175 198 0
175 198 0
176 198 0
177 199 0
173 197 0
174 198 0
174 198 0
175 198 0
175 198 0
175 198 0
173 197 0
173 197 0
175 198 0
175 198 0
175 198 0
175 198 0
175 198 0
175 198 0
175 198 0
175 198 0
172 197 0
174 198 0
173 197 0
175 198 0
175 198 0
174 198 0
174 198 0
174 198 0
174 198 0
174 198 0
175 198 0
174 198 0
173 197 0
176 198 0
173 197 0
173 197 0
175 198 0
174 198 0
176 199 0
175 198 0
173 197 0
174 197 0
175 198 0
175 198 0
175 198 0
175 198 0
175 198 0
175 198 0
175 198 0
173 197 0
174 198 0
174 198 0
174 197 0
175 198 0
174 197 0
174 198 0
174 197 0
176 198 0
175 198 0
174 197 0
174 197 0
173 197 0
174 198 0
174 198 0
174 198 0
175 198 0
174 198 0
174 197 0
173 197 0
174 198 0
175 198 0
175 198 0
175 198 0
175 198 0
175 198 0
174 198 0
173 196 0
175 198 0
174 198 0
175 198 0
175 198 0
174 198 0
173 197 0
174 197 0
174 198 0
175 198 0
174 198 0
174 197 0
175 198 0
175 198 0
175 198 0
175 198 0
175 198 0
175 198 0
174 197 0
175 198 0
174 198 0
174 198 0
175 197 0
174 198 0
174 198 0
173 196 0
175 198 0
174 198 0
175 198 0
174 198 0
175 198 0
174 197 0
174 197 0
176 198 0
174 198 0
176 199 0
175 198 0
176 199 0
175 198 0
173 197 0
174 198 0
177 199 0
175 198 0
175 198 0
174 198 0
175 198 0
173 197 0
175 198 0
174 198 0
175 198 0
175 198 0
174 197 0
173 197 0
174 198 0
174 198 0
174 198 0
175 198 0
172 196 0
175 198 0
176 199 0
173 197 0
175 198 0
174 198 0
174 198 0
173 197 0
173 197 0
173 197 0
175 198 0
175 198 0
174 198 0
173 197 0
173 197 0
175 198 0
175 198 0
175 198 0
175 198 0
174 198 0
175 198 0
174 198 0
175 198 0
174 197 0
174 197 0
173 197 0
175 198 0
176 198 0
174 197 0
173 197 0
176 199 0
175 198 0
175 198 0
174 198 0
173 197 0
173 197 0
174 197 0
173 197 0
173 197 0
174 198 0
175 198 0
173 197 0
174 197 0
175 198 0
174 198 0
175 198 0
175 198 0
174 198 0
175 198 0
173 197 0
174 197 0
174 197 0
175 198 0
173 197 0
174 197 0
175 198 0
177 199 0
174 198 0
173 197 0
171 196 0
175 198 0
175 198 0
173 197 0
174 198 0
174 198 0
174 198 0
175 198 0
175 198 0
174 197 0
174 198 0
173 197 0
174 198 0
174 198 0
173 197 0
176 198 0
174 198 0
175 198 0
176 199 0
174 197 0
175 198 0
174 198 0
173 197 0
176 198 0
173 197 0
174 198 0
173 197 0
173 197 0
174 198 0
175 198 0
173 197 0
174 198 0
175 198 0
174 197 0
174 198 0
175 198 0
173 197 0
175 198 0
175 198 0
174 197 0
174 197 0
175 198 0
173 197 0
174 198 0
176 198 0
174 198 0
175 198 0
175 198 0
173 197 0
174 198 0
176 198 0
175 198 0
175 197 0
175 198 0
174 197 0
175 198 0
175 198 0
175 198 0
174 197 0
174 197 0
174 198 0
173 197 0
175 198 0
173 196 0
176 198 0
175 198 0
175 198 0
175 198 0
173 197 0
174 198 0
174 198 0
175 198 0
174 198 0
174 198 0
175 198 0
175 198 0
174 197 0
176 199 0
174 198 0
174 198 0
175 198 0
175 198 0
174 198 0
174 198 0
174 198 0
174 198 0
173 197 0
173 196 0
175 198 0
174 198 0
175 198 0
174 198 0
175 198 0
175 198 0
175 198 0
174 198 0
172 197 0
175 198 0
174 198 0
175 198 0
174 198 0
173 197 0
175 198 0
175 198 0
173 197 0
176 199 0
175 198 0
173 197 0
176 199 0
174 197 0
174 197 0
174 198 0
175 198 0
174 197 0
176 199 0
175 198 0
176 198 0
175 198 0
174 198 0
175 198 0
175 198 0
174 198 0
174 198 0
173 197 0
176 199 0
175 198 0
175 198 0
173 197 0
175 198 0
173 197 0
173 197 0
173 197 0
174 198 0
174 197 0
175 198 0
174 198 0
174 198 0
175 198 0
174 197 0
174 198 0
174 198 0
174 197 0
174 197 0
175 198 0
174 198 0
174 198 0
175 198 0
174 198 0
175 198 0
175 198 0
176 198 0
176 199 0
173 197 0
174 197 0
174 198 0
174 198 0
174 198 0
176 198 0
174 198 0
175 198 0
176 199 0
174 198 0
174 198 0
174 197 0
173 197 0
175 198 0
174 197 0
175 198 0
174 197 0
176 198 0
176 198 0
174 198 0
174 197 0
173 197 0
175 198 0
173 197 0
173 197 0
174 198 0
176 199 0
174 198 0
174 197 0
174 198 0
174 197 0
174 198 0
174 198 0
174 198 0
175 198 0
175 198 0
175 198 0
176 198 0
176 198 0
176 199 0
174 198 0
175 198 0
174 197 0
175 198 0
174 197 0
174 198 0
175 198 0
174 197 0
173 197 0
174 198 0
174 197 0
173 197 0
174 197 0
176 199 0
175 198 0
176 199 0
175 198 0
174 198 0
175 198 0
174 198 0
175 198 0
175 198 0
174 198 0
175 198 0
175 198 0
174 197 0
175 198 0
176 199 0
174 198 0
175 198 0
176 199 0
174 198 0
174 198 0
173 197 0
173 197 0
174 198 0
173 197 0
173 197 0
174 198 0
174 198 0
173 197 0
174 197 0
175 198 0
174 197 0
173 197 0
175 198 0
174 197 0
175 198 0
174 198 0
174 197 0
173 197 0
175 198 0
174 198 0
173 197 0
174 198 0
174 197 0
174 198 0
173 197 0
175 198 0
175 198 0
175 198 0
174 198 0
174 197 0
174 198 0
175 198 0
175 198 0
175 198 0
174 197 0
174 198 0
174 198 0
175 198 0
176 199 0
173 197 0
174 197 0
174 198 0
175 198 0
174 198 0
175 198 0
175 198 0
173 197 0
175 198 0
175 198 0
174 198 0
175 198 0
173 197 0
174 198 0
174 197 0
173 197 0
173 197 0
175 198 0
176 199 0
175 198 0
175 198 0
176 199 0
175 198 0
174 198 0
175 198 0
173 197 0
175 198 0
175 198 0
174 198 0
174 198 0
174 197 0
173 197 0
174 198 0
176 198 0
175 198 0
175 198 0
176 199 0
174 198 0
174 198 0
174 198 0
175 198 0
175 198 0
175 198 0
175 198 0
175 198 0
176 198 0
175 198 0
174 198 0
174 197 0
176 199 0
174 198 0
173 197 0
174 198 0
173 197 0
176 198 0
174 198 0
175 198 0
174 197 0
173 197 0
174 197 0
174 197 0
174 198 0
174 197 0
173 197 0
173 197 0
173 197 0
176 198 0
173 197 0
175 198 0
175 198 0
175 198 0
174 198 0
172 197 0
174 198 0
174 197 0
176 199 0
175 198 0
175 198 0
175 198 0
174 197 0
175 198 0
173 197 0
175 198 0
175 198 0
176 199 0
174 198 0
175 198 0
174 197 0
175 198 0
174 197 0
174 198 0
174 198 0
175 198 0
173 197 0
173 197 0
175 198 0
175 198 0
173 197 0
175 198 0
175 198 0
174 198 0
173 197 0
174 198 0
175 198 0
175 198 0
176 199 0
175 198 0
176 199 0
174 198 0
175 198 0
174 198 0
174 197 0
176 199 0
174 198 0
173 197 0
174 197 0
174 198 0
175 198 0
173 197 0
174 198 0
174 198 0
174 198 0
173 197 0
174 198 0
172 197 0
176 199 0
175 198 0
175 198 0
175 198 0
173 197 0
175 198 0
174 197 0
173 197 0
175 198 0
175 198 0
175 198 0
174 197 0
175 198 0
175 198 0
174 198 0
173 197 0
175 198 0
174 197 0
175 198 0
171 196 0
174 198 0
175 198 0
175 198 0
175 198 0
175 198 0
174 198 0
174 198 0
174 197 0
174 197 0
174 198 0
175 198 0
174 197 0
174 197 0
175 198 0
175 198 0
173 197 0
174 197 0
172 196 0
174 197 0
175 198 0
173 197 0
175 198 0
172 197 0
175 198 0
175 198 0
174 198 0
172 196 0
176 199 0
173 197 0
174 197 0
174 198 0
174 198 0
175 198 0
175 198 0
174 198 0
173 197 0
173 197 0
174 198 0
175 198 0
174 197 0
175 198 0
173 197 0
172 197 0
175 198 0
176 199 0
175 198 0
175 198 0
172 196 0
174 198 0
175 198 0
174 197 0
175 198 0
175 198 0
173 197 0
174 198 0
174 198 0
174 198 0
175 198 0
174 197 0
175 198 0
174 197 0
174 197 0
175 198 0
174 198 0
174 198 0
173 197 0
175 198 0
175 198 0
174 198 0
176 199 0
173 197 0
175 198 0
176 198 0
173 197 0
175 198 0
174 197 0
174 197 0
174 197 0
173 197 0
175 198 0
174 197 0
175 198 0
175 198 0
174 198 0
175 198 0
174 198 0
173 197 0
175 198 0
175 198 0
175 198 0
176 199 0
175 198 0
173 197 0
176 198 0
175 198 0
173 197 0
174 197 0
173 197 0
174 198 0
174 198 0
173 197 0
176 199 0
175 198 0
175 198 0
174 198 0
175 198 0
173 197 0
175 198 0
174 198 0
174 198 0
173 197 0
177 199 0
174 198 0
174 198 0
174 197 0
173 197 0
174 198 0
174 198 0
175 198 0
174 198 0
174 197 0
175 198 0
175 198 0
176 198 0
174 197 0
174 198 0
174 197 0
174 197 0
176 199 0
175 198 0
175 198 0
175 198 0
175 198 0
174 198 0
174 198 0
174 197 0
174 197 0
173 197 0
176 199 0
175 198 0
175 198 0
176 199 0
173 197 0
175 198 0
175 198 0
173 197 0
173 197 0
175 198 0
174 198 0
176 199 0
177 199 0
174 198 0
174 198 0
174 197 0
174 198 0
175 198 0
174 198 0
176 198 0
174 198 0
173 197 0
174 198 0
175 198 0
176 199 0
174 198 0
174 197 0
174 198 0
174 197 0
175 198 0
176 199 0
174 198 0
175 198 0
173 197 0
175 198 0
175 198 0
175 198 0
173 197 0
175 198 0
174 198 0
174 197 0
172 197 0
174 197 0
174 197 0
174 197 0
174 198 0
173 197 0
175 198 0
173 197 0
175 198 0
175 198 0
175 198 0
175 198 0
173 197 0
173 197 0
174 198 0
175 198 0
176 199 0
175 198 0
175 198 0
174 198 0
173 197 0
174 198 0
175 198 0
174 198 0
173 197 0
174 198 0
175 198 0
173 197 0
176 199 0
174 198 0
176 199 0
175 198 0
174 198 0
174 198 0
175 198 0
174 198 0
175 198 0
173 197 0
176 199 0
174 197 0
173 197 0
174 198 0
176 199 0
175 198 0
175 198 0
175 198 0
176 199 0
174 198 0
174 197 0
175 198 0
174 198 0
175 198 0
175 197 0
174 197 0
173 197 0
174 197 0
175 198 0
175 198 0
175 198 0
175 198 0
174 198 0
174 198 0
175 198 0
174 197 0
174 197 0
175 198 0
174 198 0
173 197 0
174 197 0
174 197 0
175 198 0
175 198 0
174 198 0
173 197 0
174 197 0
174 197 0
174 198 0
175 198 0
174 197 0
176 199 0
175 198 0
174 198 0
174 198 0
175 198 0
174 198 0
175 198 0
173 197 0
174 198 0
175 198 0
175 198 0
175 198 0
174 198 0
175 198 0
173 197 0
175 198 0
173 197 0
175 198 0
174 198 0
175 198 0
174 197 0
175 198 0
175 198 0
174 198 0
175 198 0
174 198 0
174 197 0
175 198 0
173 197 0
175 198 0
175 198 0
175 198 0
175 198 0
173 197 0
175 198 0
174 198 0
174 198 0
175 198 0
176 198 0
174 198 0
173 197 0
175 198 0
175 198 0
176 199 0
174 197 0
174 197 0
175 198 0
174 198 0
175 198 0
174 197 0
176 199 0
175 198 0
174 197 0
175 197 0
174 198 0
174 198 0
176 198 0
176 198 0
174 198 0
176 199 0
173 197 0
172 197 0
174 198 0
174 198 0
176 198 0
174 197 0
174 198 0
175 198 0
175 198 0
175 198 0
175 198 0
174 198 0
175 198 0
175 198 0
175 198 0
175 198 0
177 199 0
174 198 0
173 197 0
175 198 0
174 197 0
173 197 0
174 198 0
176 198 0
174 198 0
175 198 0
175 198 0
175 198 0
175 198 0
175 198 0
175 198 0
173 197 0
173 197 0
172 196 0
174 198 0
175 198 0
175 198 0
174 197 0
174 198 0
175 198 0
172 197 0
173 197 0
174 197 0
174 198 0
175 198 0
173 197 0
174 198 0
173 197 0
175 198 0
174 197 0
175 198 0
175 198 0
174 197 0
174 198 0
175 198 0
176 198 0
176 199 0
176 199 0
175 198 0
173 197 0
174 197 0
173 197 0
175 198 0
173 197 0
173 197 0
173 197 0
175 197 0
176 199 0
174 198 0
173 197 0
173 197 0
174 197 0
175 198 0
174 197 0
173 197 0
175 198 0
174 197 0
173 197 0
174 197 0
174 197 0
174 197 0
173 197 0
172 196 0
174 197 0
174 198 0
175 198 0
175 198 0
174 198 0
175 198 0
174 198 0
175 198 0
173 197 0
174 197 0
175 198 0
175 198 0
175 198 0
174 198 0
174 198 0
174 197 0
173 197 0
175 198 0
174 197 0
176 199 0
174 197 0
175 198 0
174 198 0
177 199 0
175 198 0
175 198 0
174 198 0
175 198 0
173 197 0
175 198 0
174 197 0
173 197 0
176 199 0
175 198 0
173 197 0
172 197 0
175 198 0
175 198 0
174 197 0
173 197 0
173 197 0
175 198 0
175 198 0
175 198 0
173 197 0
174 197 0
174 198 0
174 197 0
175 198 0
176 198 0
174 198 0
174 198 0
174 197 0
175 198 0
175 198 0
175 198 0
175 198 0
176 199 0
176 199 0
175 198 0
175 198 0
174 198 0
173 197 0
174 198 0
173 197 0
174 198 0
175 198 0
175 198 0
174 197 0
174 198 0
174 197 0
174 198 0
174 198 0
174 197 0
174 198 0
174 197 0
175 198 0
175 198 0
175 198 0
175 198 0
173 197 0
174 197 0
174 198 0
174 198 0
175 198 0
176 199 0
173 197 0
175 198 0
175 198 0
175 198 0
174 197 0
174 198 0
173 197 0
175 198 0
174 198 0
175 198 0
174 198 0
176 198 0
175 198 0
175 198 0
174 198 0
175 198 0
176 199 0
175 198 0
174 198 0
176 199 0
175 198 0
175 198 0
174 197 0
175 198 0
176 199 0
174 198 0
174 198 0
175 198 0
174 198 0
174 198 0
174 197 0
175 198 0
176 198 0
173 197 0
173 197 0
174 198 0
174 198 0
175 198 0
175 198 0
174 198 0
175 198 0
175 198 0
175 198 0
175 198 0
176 199 0
173 197 0
174 197 0
175 198 0
174 197 0
174 197 0
174 198 0
174 198 0
175 198 0
173 197 0
174 198 0
174 197 0
174 198 0
175 198 0
175 198 0
174 198 0
174 198 0
175 198 0
173 197 0
173 197 0
175 198 0
173 197 0
175 198 0
177 199 0
174 198 0
174 198 0
173 197 0
174 198 0
175 198 0
174 198 0
176 199 0
174 197 0
174 198 0
176 199 0
175 198 0
175 198 0
174 197 0
173 197 0
174 198 0
175 198 0
175 198 0
175 198 0
175 198 0
173 197 0
175 198 0
174 198 0
175 198 0
175 198 0
174 198 0
175 198 0
175 198 0
175 198 0
175 198 0
174 197 0
175 198 0
174 198 0
173 197 0
175 198 0
173 197 0
174 198 0
174 198 0
173 197 0
174 198 0
175 198 0
174 198 0
174 198 0
175 198 0
174 197 0
174 198 0
175 198 0
174 197 0
176 199 0
173 197 0
174 198 0
174 197 0
174 198 0
174 197 0
174 198 0
175 198 0
176 199 0
174 197 0
174 197 0
173 197 0
174 198 0
175 198 0
174 198 0
174 198 0
174 197 0
175 198 0
175 198 0
174 198 0
175 198 0
174 197 0
174 198 0
173 197 0
173 197 0
174 198 0
175 198 0
174 198 0
175 198 0
175 198 0
174 198 0
174 198 0
174 198 0
173 197 0
173 197 0
175 198 0
175 198 0
174 198 0
174 198 0
175 198 0
175 198 0
174 198 0
175 198 0
175 198 0
174 198 0
175 198 0
176 199 0
174 197 0
174 197 0
175 198 0
174 197 0
174 198 0
174 198 0
174 198 0
175 198 0
175 198 0
175 198 0
174 198 0
175 198 0
173 197 0
175 198 0
176 198 0
174 197 0
172 196 0
174 198 0
173 197 0
174 198 0
175 198 0
175 198 0
172 197 0
174 198 0
173 197 0
174 197 0
174 197 0
176 198 0
175 198 0
173 197 0
172 197 0
175 198 0
175 198 0
176 198 0
173 197 0
174 198 0
172 197 0
175 198 0
175 198 0
174 198 0
174 197 0
173 197 0
175 198 0
173 197 0
176 199 0
175 198 0
176 199 0
175 198 0
173 197 0
174 198 0
173 197 0
173 197 0
174 197 0
175 198 0
174 197 0
174 198 0
175 198 0
174 197 0
175 198 0
174 197 0
175 198 0
173 197 0
174 197 0
175 198 0
174 197 0
176 199 0
175 198 0
175 198 0
174 198 0
175 198 0
175 198 0
175 198 0
175 198 0
174 197 0
172 196 0
175 198 0
173 197 0
174 198 0
174 198 0
175 198 0
173 197 0
174 198 0
174 198 0
173 197 0
175 198 0
175 198 0
175 198 0
173 197 0
174 197 0
174 198 0
173 197 0
174 198 0
175 198 0
173 197 0
174 198 0
172 196 0
175 198 0
174 197 0
176 198 0
174 197 0
174 198 0
173 196 0
173 197 0
174 198 0
176 199 0
173 197 0
173 197 0
173 197 0
174 198 0
173 197 0
175 198 0
175 198 0
174 197 0
172 197 0
174 198 0
173 197 0
175 198 0
174 198 0
174 197 0
175 198 0
176 198 0
175 198 0
173 197 0
173 197 0
175 198 0
173 197 0
175 198 0
174 197 0
174 198 0
174 197 0
176 198 0
174 197 0
174 197 0
173 197 0
175 198 0
173 197 0
173 197 0
176 199 0
174 197 0
174 197 0
175 198 0
173 197 0
174 197 0
174 198 0
175 198 0
176 199 0
175 198 0
173 197 0
173 197 0
175 198 0
175 198 0
175 198 0
175 198 0
176 199 0
175 198 0
175 198 0
176 199 0
175 198 0
175 198 0
174 197 0
174 198 0
177 199 0
174 197 0
175 198 0
173 197 0
175 198 0
174 197 0
174 198 0
174 198 0
174 198 0
175 198 0
175 198 0
174 197 0
173 197 0
176 198 0
176 199 0
174 198 0
174 197 0
174 197 0
175 198 0
173 197 0
174 198 0
173 197 0
172 196 0
174 197 0
175 197 0
176 198 0
173 197 0
175 198 0
174 197 0
174 198 0
174 197 0
174 198 0
175 198 0
174 198 0
174 198 0
173 197 0
173 197 0
175 198 0
175 198 0
173 197 0
174 198 0
173 197 0
175 198 0
176 199 0
174 197 0
175 198 0
173 196 0
174 198 0
175 198 0
174 198 0
174 198 0
174 197 0
174 198 0
175 198 0
174 198 0
173 197 0
173 197 0
175 198 0
174 197 0
174 198 0
175 198 0
174 198 0
172 197 0
175 198 0
174 198 0
173 197 0
174 198 0
173 197 0
175 198 0
176 199 0
175 198 0
173 197 0
175 198 0
175 198 0
174 197 0
173 197 0
173 197 0
174 198 0
174 198 0
175 198 0
175 198 0
175 198 0
175 198 0
175 198 0
175 198 0
175 198 0
175 198 0
175 198 0
174 198 0
175 198 0
173 197 0
174 197 0
175 198 0
174 197 0
175 198 0
172 196 0
175 198 0
174 198 0
175 198 0
175 198 0
173 197 0
173 197 0
174 198 0
176 199 0
174 198 0
175 198 0
173 197 0
175 198 0
175 198 0
175 198 0
174 198 0
174 198 0
173 196 0
176 199 0
174 197 0
175 198 0
175 198 0
173 197 0
174 198 0
173 197 0
175 198 0
175 198 0
174 198 0
174 198 0
174 197 0
173 197 0
175 198 0
173 197 0
175 198 0
173 197 0
175 198 0
175 198 0
175 198 0
174 198 0
174 197 0
174 197 0
176 199 0
175 198 0
174 198 0
175 198 0
175 198 0
174 198 0
175 198 0
173 197 0
173 197 0
175 198 0
174 198 0
176 198 0
173 197 0
174 197 0
175 198 0
174 198 0
174 198 0
175 198 0
174 198 0
175 198 0
174 198 0
175 198 0
174 198 0
175 198 0
173 197 0
174 197 0
173 197 0
173 197 0
173 197 0
174 198 0
175 198 0
175 198 0
176 198 0
176 198 0
176 198 0
176 198 0
174 198 0
174 198 0
176 198 0
176 198 0
174 198 0
173 197 0
175 198 0
175 198 0
174 198 0
174 198 0
175 198 0
176 199 0
175 198 0
176 198 0
175 198 0
175 198 0
173 197 0
175 198 0
175 198 0
173 197 0
174 198 0
175 198 0
174 198 0
174 198 0
174 197 0
175 198 0
175 198 0
174 198 0
174 198 0
173 197 0
175 198 0
176 199 0
174 198 0
174 198 0
174 198 0
174 198 0
175 198 0
174 197 0
174 198 0
175 198 0
175 198 0
175 198 0
174 198 0
175 198 0
175 198 0
176 199 0
175 198 0
173 197 0
174 198 0
173 197 0
173 197 0
173 197 0
174 198 0
175 198 0
176 199 0
173 197 0
177 199 0
175 198 0
173 197 0
175 198 0
173 197 0
174 198 0
173 197 0
175 198 0
173 197 0
174 197 0
173 197 0
173 197 0
175 198 0
175 198 0
175 198 0
174 197 0
175 198 0
176 198 0
175 198 0
175 198 0
174 197 0
174 198 0
174 198 0
175 198 0
176 198 0
174 198 0
174 197 0
174 198 0
173 197 0
174 198 0
173 197 0
175 198 0
174 198 0
174 198 0
173 197 0
177 199 0
175 198 0
175 198 0
174 197 0
173 197 0
175 198 0
174 198 0
174 197 0
174 198 0
174 198 0
176 199 0
174 198 0
174 197 0
175 198 0
174 197 0
176 199 0
174 198 0
174 197 0
176 198 0
173 197 0
175 198 0
174 198 0
176 199 0
174 197 0
173 197 0
175 198 0
175 198 0
174 198 0
174 198 0
173 197 0
175 198 0
174 197 0
172 196 0
175 198 0
173 197 0
173 197 0
175 198 0
173 197 0
174 198 0
174 197 0
174 198 0
174 198 0
173 197 0
174 198 0
175 198 0
173 197 0
174 197 0
173 197 0
174 198 0
174 197 0
174 197 0
175 198 0
174 198 0
175 198 0
174 198 0
176 198 0
173 197 0
175 198 0
172 197 0
173 197 0
175 198 0
174 198 0
173 197 0
174 197 0
176 199 0
175 198 0
174 198 0
174 198 0
175 198 0
172 197 0
174 198 0
173 197 0
175 198 0
174 198 0
174 198 0
175 198 0
174 198 0
173 197 0
174 197 0
176 198 0
172 197 0
175 198 0
174 197 0
177 199 0
175 198 0
175 198 0
174 198 0
175 197 0
174 198 0
174 198 0
174 198 0
174 197 0
174 197 0
174 198 0
176 199 0
175 198 0
175 198 0
175 198 0
176 198 0
175 198 0
172 196 0
175 198 0
174 197 0
175 198 0
174 198 0
173 197 0
174 197 0
175 198 0
173 197 0
175 198 0
175 198 0
173 197 0
174 198 0
174 197 0
174 198 0
173 197 0
173 197 0
175 198 0
173 197 0
176 198 0
174 197 0
174 198 0
175 198 0
174 197 0
175 198 0
174 198 0
173 197 0
176 199 0
172 197 0
174 197 0
174 198 0
173 197 0
172 197 0
174 198 0
174 198 0
173 197 0
173 197 0
174 198 0
175 198 0
176 198 0
175 198 0
174 197 0
174 197 0
175 198 0
173 197 0
174 198 0
175 198 0
174 197 0
174 198 0
176 199 0
174 198 0
176 199 0
174 198 0
176 199 0
174 197 0
173 197 0
174 198 0
175 198 0
174 198 0
174 197 0
174 198 0
173 197 0
173 197 0
174 198 0
175 198 0
174 197 0
173 197 0
175 198 0
175 198 0
175 198 0
174 198 0
174 197 0
175 198 0
174 198 0
175 198 0
174 198 0
174 198 0
174 198 0
174 198 0
173 197 0
173 197 0
173 197 0
175 198 0
174 198 0
173 197 0
175 198 0
175 198 0
174 198 0
174 198 0
174 198 0
174 198 0
172 197 0
176 199 0
174 198 0
175 198 0
175 198 0
175 198 0
174 197 0
174 198 0
175 198 0
175 198 0
174 198 0
174 198 0
174 198 0
175 198 0
174 197 0
174 198 0
174 198 0
175 198 0
175 198 0
174 198 0
174 197 0
174 198 0
173 197 0
175 198 0
175 198 0
172 196 0
173 197 0
175 198 0
174 198 0
175 198 0
175 198 0
178 199 0
175 198 0
174 197 0
174 198 0
173 197 0
174 198 0
174 197 0
174 198 0
175 198 0
175 198 0
176 199 0
175 198 0
174 198 0
173 197 0
173 197 0
175 198 0
174 198 0
175 198 0
174 197 0
174 198 0
175 198 0
175 198 0
175 198 0
173 197 0
173 197 0
174 198 0
175 198 0
174 197 0
174 198 0
175 198 0
175 198 0
176 199 0
174 198 0
175 198 0
175 198 0
175 198 0
173 197 0
176 199 0
174 198 0
174 197 0
173 197 0
172 196 0
174 197 0
175 198 0
174 198 0
173 197 0
175 198 0
174 198 0
174 197 0
173 197 0
176 198 0
173 197 0
174 198 0
176 199 0
176 198 0
175 198 0
173 197 0
175 198 0
174 198 0
174 198 0
174 198 0
174 197 0
174 198 0
174 198 0
175 198 0
174 197 0
174 198 0
174 198 0
175 198 0
174 198 0
173 197 0
174 197 0
175 198 0
174 198 0
174 198 0
174 197 0
175 198 0
172 197 0
173 197 0
174 198 0
175 198 0
173 197 0
175 198 0
175 198 0
175 198 0
175 198 0
175 198 0
175 198 0
175 198 0
175 198 0
173 197 0
175 198 0
173 197 0
175 198 0
173 197 0
175 198 0
173 197 0
175 198 0
175 198 0
175 198 0
175 198 0
176 198 0
174 198 0
174 198 0
174 198 0
175 198 0
175 198 0
174 198 0
175 198 0
176 198 0
175 198 0
176 199 0
175 198 0
175 198 0
175 198 0
174 197 0
175 198 0
174 198 0
174 198 0
175 198 0
173 197 0
175 198 0
174 198 0
174 198 0
175 198 0
174 198 0
173 197 0
173 197 0
174 197 0
176 199 0
174 198 0
174 198 0
176 198 0
175 198 0
174 198 0
176 198 0
175 198 0
175 198 0
174 198 0
173 197 0
174 198 0
173 197 0
174 198 0
173 197 0
174 198 0
173 197 0
175 198 0
175 198 0
175 198 0
175 198 0
175 198 0
173 197 0
174 197 0
176 199 0
175 198 0
176 198 0
174 197 0
176 199 0
173 197 0
176 199 0
174 197 0
176 199 0
176 198 0
175 198 0
174 198 0
176 198 0
174 198 0
175 198 0
174 197 0
176 198 0
174 198 0
175 198 0
173 197 0
172 197 0
176 198 0
173 197 0
176 198 0
175 198 0
173 197 0
175 198 0
175 198 0
173 197 0
175 198 0
174 197 0
173 197 0
175 198 0
177 199 0
175 198 0
173 197 0
175 198 0
174 198 0
174 197 0
173 197 0
173 197 0
173 197 0
174 197 0
174 197 0
175 198 0
174 198 0
172 197 0
174 198 0
174 197 0
174 198 0
174 198 0
176 199 0
173 197 0
173 197 0
175 198 0
174 197 0
174 197 0
173 197 0
175 198 0
175 198 0
174 197 0
174 198 0
173 197 0
174 198 0
174 198 0
174 198 0
175 198 0
174 197 0
173 197 0
176 199 0
174 198 0
174 198 0
175 198 0
175 198 0
174 198 0
175 198 0
172 197 0
175 198 0
173 197 0
174 198 0
175 198 0
174 198 0
175 198 0
176 198 0
173 197 0
175 198 0
174 197 0
175 198 0
174 198 0
173 196 0
175 198 0
174 198 0
175 198 0
175 198 0
174 197 0
176 198 0
174 198 0
174 198 0
176 199 0
173 197 0
174 198 0
174 198 0
174 198 0
175 198 0
175 198 0
175 198 0
175 198 0
175 198 0
174 198 0
174 198 0
174 198 0
174 197 0
175 198 0
174 198 0
174 198 0
174 197 0
174 198 0
174 198 0
173 197 0
173 197 0
174 198 0
174 198 0
174 198 0
174 198 0
173 197 0
174 198 0
175 198 0
176 198 0
175 198 0
176 199 0
175 198 0
172 196 0
174 198 0
174 198 0
174 197 0
175 198 0
174 197 0
175 198 0
175 198 0
174 198 0
173 197 0
175 198 0
174 198 0
175 198 0
173 197 0
174 197 0
175 198 0
174 198 0
175 198 0
174 198 0
176 198 0
175 198 0
174 197 0
175 198 0
174 197 0
175 198 0
174 198 0
176 198 0
175 198 0
176 199 0
173 197 0
175 198 0
173 197 0
175 198 0
173 196 0
174 198 0
174 198 0
176 199 0
174 197 0
173 197 0
173 197 0
175 198 0
174 198 0
174 198 0
175 198 0
174 197 0
173 197 0
174 198 0
175 198 0
174 198 0
175 198 0
174 198 0
174 197 0
174 198 0
174 197 0
176 198 0
174 198 0
175 198 0
175 198 0
174 197 0
175 198 0
174 197 0
175 198 0
175 198 0
175 198 0
174 198 0
175 198 0
176 199 0
175 198 0
175 198 0
174 198 0
175 198 0
173 197 0
174 197 0
173 197 0
173 197 0
174 197 0
173 197 0
175 198 0
175 198 0
175 198 0
175 198 0
174 198 0
174 198 0
174 197 0
174 198 0
175 198 0
174 197 0
175 198 0
173 197 0
174 197 0
175 198 0
175 198 0
175 198 0
175 198 0
175 198 0
175 198 0
174 198 0
173 197 0
175 198 0
174 198 0
174 197 0
175 198 0
173 196 0
173 196 0
174 198 0
174 197 0
172 196 0
174 197 0
174 197 0
174 198 0
174 198 0
175 198 0
175 198 0
175 198 0
175 198 0
173 197 0
174 197 0
175 198 0
173 197 0
175 198 0
175 198 0
175 198 0
175 198 0
174 197 0
175 198 0
174 198 0
175 198 0
174 197 0
174 198 0
176 199 0
174 198 0
175 198 0
174 198 0
175 198 0
176 199 0
176 199 0
175 198 0
174 198 0
174 197 0
175 198 0
175 198 0
174 198 0
174 197 0
175 198 0
176 199 0
175 198 0
175 198 0
174 198 0
175 198 0
175 198 0
175 198 0
175 198 0
176 199 0
174 198 0
175 198 0
174 198 0
174 198 0
175 198 0
175 198 0
173 197 0
175 198 0
174 197 0
175 198 0
175 198 0
174 198 0
175 198 0
175 198 0
175 198 0
175 198 0
175 198 0
174 198 0
176 199 0
174 197 0
173 197 0
174 198 0
173 197 0
174 198 0
173 197 0
174 198 0
174 198 0
173 197 0
175 198 0
175 198 0
174 197 0
173 197 0
173 197 0
174 198 0
173 197 0
174 198 0
174 198 0
175 198 0
174 197 0
175 198 0
176 198 0
174 198 0
174 198 0
174 197 0
174 198 0
177 199 0
173 197 0
174 197 0
174 198 0
175 198 0
175 198 0
174 198 0
174 197 0
174 197 0
174 198 0
175 198 0
173 197 0
175 198 0
174 198 0
174 198 0
174 197 0
175 198 0
174 198 0
172 197 0
174 198 0
173 197 0
175 198 0
175 198 0
175 198 0
174 197 0
173 197 0
174 197 0
176 198 0
174 198 0
176 198 0
174 197 0
175 198 0
175 198 0
172 197 0
174 198 0
176 198 0
176 198 0
177 199 0
175 198 0
174 198 0
175 198 0
175 198 0
172 197 0
174 198 0
175 198 0
174 198 0
174 197 0
174 198 0
175 198 0
176 198 0
176 198 0
174 198 0
174 198 0
175 198 0
173 197 0
174 198 0
174 198 0
173 197 0
174 198 0
175 198 0
174 198 0
173 197 0
176 199 0
173 197 0
175 198 0
175 198 0
174 198 0
174 197 0
172 197 0
174 198 0
175 198 0
174 198 0
174 198 0
176 198 0
174 198 0
174 198 0
174 198 0
174 198 0
173 197 0
174 198 0
173 196 0
175 198 0
174 197 0
175 198 0
175 198 0
175 198 0
176 199 0
175 198 0
174 197 0
174 197 0
175 198 0
174 197 0
175 198 0
175 198 0
175 198 0
173 196 0
175 198 0
174 197 0
174 198 0
175 198 0
175 198 0
176 198 0
174 198 0
174 197 0
175 198 0
173 196 0
173 197 0
177 199 0
174 198 0
176 198 0
175 198 0
174 198 0
174 197 0
175 198 0
173 196 0
174 198 0
174 197 0
174 197 0
175 198 0
175 198 0
174 198 0
175 198 0
176 199 0
176 199 0
175 198 0
176 199 0
175 198 0
174 197 0
173 197 0
174 198 0
175 198 0
174 198 0
174 198 0
174 198 0
174 198 0
175 198 0
175 198 0
174 198 0
174 198 0
173 197 0
176 199 0
175 198 0
173 197 0
173 197 0
174 197 0
175 198 0
175 198 0
175 198 0
172 196 0
175 198 0
175 198 0
175 198 0
176 198 0
175 198 0
176 199 0
175 198 0
175 198 0
174 198 0
176 199 0
173 197 0
175 198 0
175 198 0
173 197 0
175 198 0
173 197 0
175 198 0
174 198 0
175 198 0
175 198 0
173 197 0
173 197 0
174 197 0
175 198 0
174 197 0
175 198 0
174 197 0
175 198 0
172 196 0
175 198 0
175 198 0
173 197 0
174 198 0
174 197 0
174 197 0
175 198 0
173 197 0
174 197 0
174 197 0
174 197 0
175 198 0
174 198 0
174 198 0
173 196 0
175 198 0
174 197 0
174 197 0
175 198 0
174 198 0
173 197 0
177 199 0
175 198 0
174 197 0
175 198 0
174 198 0
174 198 0
176 199 0
174 198 0
174 197 0
176 198 0
173 197 0
174 198 0
173 197 0
174 198 0
172 197 0
174 198 0
174 197 0
175 198 0
175 198 0
175 198 0
172 196 0
173 197 0
174 198 0
173 197 0
174 197 0
174 197 0
175 198 0
172 196 0
174 198 0
176 199 0
174 197 0
172 196 0
175 198 0
174 197 0
174 197 0
175 198 0
174 198 0
173 197 0
176 199 0
175 198 0
174 198 0
173 197 0
175 198 0
174 197 0
174 197 0
175 198 0
173 197 0
174 198 0
173 197 0
173 196 0
173 197 0
173 197 0
175 198 0
174 197 0
174 198 0
175 198 0
174 198 0
176 199 0
175 198 0
173 197 0
175 198 0
174 197 0
174 198 0
175 198 0
177 199 0
175 198 0
176 199 0
174 198 0
174 198 0
172 197 0
173 197 0
174 197 0
174 197 0
174 197 0
174 198 0
175 198 0
174 198 0
174 197 0
174 198 0
176 198 0
175 198 0
174 197 0
175 198 0
174 197 0
175 198 0
175 198 0
173 197 0
173 197 0
175 198 0
174 198 0
175 198 0
175 198 0
176 199 0
174 197 0
173 196 0
173 196 0
174 197 0
175 198 0
178 200 0
174 198 0
174 198 0
174 198 0
173 197 0
176 199 0
174 198 0
174 197 0
175 198 0
174 197 0
174 198 0
175 198 0
174 198 0
172 197 0
175 198 0
175 198 0
174 198 0
174 197 0
174 198 0
172 196 0
175 198 0
175 198 0
174 198 0
173 197 0
172 196 0
172 197 0
175 198 0
175 198 0
175 198 0
176 199 0
174 197 0
175 198 0
177 199 0
175 198 0
176 198 0
173 197 0
174 198 0
175 198 0
175 198 0
175 198 0
174 198 0
175 198 0
175 198 0
175 198 0
173 197 0
174 198 0
174 197 0
174 198 0
174 198 0
175 198 0
174 197 0
173 197 0
174 198 0
174 198 0
173 197 0
175 198 0
174 197 0
176 199 0
175 198 0
174 198 0
175 198 0
174 197 0
174 198 0
173 197 0
174 198 0
174 198 0
174 198 0
174 197 0
174 198 0
174 198 0
175 198 0
174 198 0
173 197 0
175 198 0
176 198 0
174 198 0
174 198 0
174 197 0
174 197 0
174 197 0
175 198 0
174 197 0
175 198 0
175 198 0
177 199 0
174 197 0
174 198 0
175 198 0
174 198 0
175 198 0
175 198 0
173 197 0
175 198 0
172 197 0
173 197 0
175 198 0
174 198 0
174 197 0
174 197 0
175 198 0
174 198 0
174 197 0
175 198 0
176 199 0
173 197 0
174 198 0
175 198 0
174 198 0
173 197 0
173 197 0
174 197 0
174 197 0
175 198 0
175 198 0
175 198 0
175 198 0
174 198 0
176 199 0
174 198 0
175 198 0
175 198 0
175 198 0
175 198 0
173 197 0
173 197 0
175 198 0
174 197 0
175 198 0
175 198 0
172 197 0
173 197 0
175 198 0
174 198 0
173 197 0
173 197 0
174 197 0
174 197 0
176 199 0
175 198 0
176 199 0
172 196 0
175 198 0
174 197 0
174 198 0
175 198 0
175 198 0
174 198 0
174 197 0
173 197 0
175 198 0
174 197 0
176 199 0
175 198 0
175 198 0
174 198 0
172 197 0
175 198 0
174 198 0
174 197 0
173 197 0
174 198 0
174 198 0
173 197 0
174 198 0
173 197 0
174 197 0
174 198 0
176 198 0
174 198 0
176 199 0
174 198 0
174 197 0
174 198 0
172 197 0
175 198 0
175 198 0
175 198 0
175 198 0
174 198 0
174 198 0
176 198 0
173 197 0
176 199 0
177 199 0
174 198 0
175 198 0
174 198 0
173 197 0
174 197 0
174 197 0
174 198 0
174 198 0
173 197 0
175 198 0
174 197 0
174 198 0
174 198 0
173 197 0
175 198 0
173 197 0
174 198 0
174 198 0
173 197 0
175 198 0
174 198 0
173 197 0
175 198 0
175 198 0
176 198 0
174 198 0
176 199 0
174 198 0
175 198 0
175 198 0
176 199 0
175 198 0
173 197 0
175 198 0
175 198 0
175 198 0
175 198 0
174 198 0
174 197 0
175 198 0
175 198 0
175 198 0
175 198 0
175 198 0
173 197 0
174 198 0
175 198 0
176 199 0
174 198 0
174 198 0
174 198 0
175 198 0
174 198 0
174 198 0
175 198 0
172 197 0
176 199 0
173 197 0
174 198 0
173 197 0
175 198 0
175 198 0
174 197 0
173 196 0
175 198 0
174 198 0
173 197 0
174 198 0
175 198 0
175 198 0
173 197 0
175 198 0
174 198 0
176 199 0
175 198 0
174 198 0
174 198 0
175 198 0
176 199 0
175 198 0
173 197 0
174 197 0
174 198 0
176 199 0
174 198 0
173 197 0
173 197 0
174 197 0
175 198 0
175 198 0
174 198 0
173 197 0
175 198 0
174 198 0
174 197 0
174 198 0
175 198 0
175 198 0
174 197 0
172 196 0
174 198 0
174 198 0
174 198 0
176 198 0
175 198 0
173 197 0
174 198 0
175 198 0
175 198 0
175 198 0
173 197 0
174 198 0
176 199 0
173 197 0
173 197 0
174 197 0
174 197 0
174 197 0
174 198 0
173 197 0
175 198 0
173 197 0
174 198 0
174 198 0
176 199 0
175 198 0
174 198 0
174 197 0
174 198 0
174 197 0
175 198 0
175 198 0
174 198 0
174 197 0
171 195 0
174 197 0
174 197 0
174 198 0
174 198 0
175 198 0
176 199 0
174 197 0
173 197 0
173 197 0
175 198 0
175 198 0
176 199 0
174 197 0
175 198 0
174 198 0
174 197 0
175 198 0
174 198 0
176 199 0
174 197 0
174 197 0
174 197 0
176 198 0
175 198 0
175 198 0
173 197 0
173 197 0
173 197 0
173 197 0
174 198 0
175 198 0
176 198 0
171 195 0
174 198 0
174 197 0
174 198 0
173 197 0
174 197 0
175 198 0
174 198 0
175 198 0
174 198 0
175 198 0
175 198 0
174 198 0
174 197 0
173 197 0
173 197 0
175 198 0
175 198 0
173 197 0
174 198 0
176 199 0
175 198 0
173 197 0
175 197 0
173 196 0
176 198 0
174 198 0
173 197 0
175 198 0
173 197 0
175 198 0
173 197 0
174 197 0
175 198 0
174 197 0
175 198 0
176 198 0
172 197 0
174 198 0
175 198 0
174 197 0
175 198 0
176 198 0
175 198 0
174 198 0
174 197 0
173 197 0
175 198 0
175 198 0
175 198 0
174 197 0
175 198 0
173 197 0
174 197 0
177 199 0
173 197 0
174 198 0
174 198 0
176 199 0
175 198 0
176 199 0
175 198 0
174 198 0
176 199 0
175 198 0
173 197 0
174 198 0
174 198 0
174 197 0
176 199 0
175 198 0
175 198 0
174 198 0
173 197 0
173 197 0
175 198 0
174 197 0
176 199 0
175 198 0
174 197 0
173 197 0
175 198 0
174 198 0
176 198 0
175 198 0
174 198 0
173 197 0
173 197 0
174 198 0
174 197 0
174 198 0
174 198 0
176 199 0
175 198 0
175 198 0
174 197 0
173 197 0
174 198 0
174 198 0
175 198 0
175 198 0
174 198 0
174 197 0
175 198 0
175 198 0
173 197 0
175 198 0
174 198 0
174 197 0
175 198 0
175 198 0
174 198 0
175 198 0
175 198 0
175 198 0
175 198 0
176 199 0
175 198 0
175 198 0
174 197 0
173 197 0
174 197 0
174 198 0
174 197 0
174 197 0
175 198 0
174 198 0
175 198 0
175 198 0
175 198 0
174 198 0
175 198 0
173 197 0
173 197 0
176 198 0
176 199 0
175 198 0
173 197 0
174 198 0
173 197 0
175 198 0
174 198 0
174 198 0
174 198 0
176 199 0
173 197 0
175 198 0
176 199 0
173 197 0
174 198 0
176 199 0
174 198 0
175 198 0
174 198 0
175 198 0
174 197 0
174 198 0
176 199 0
172 197 0
176 198 0
176 199 0
175 198 0
175 198 0
174 198 0
175 198 0
173 197 0
176 198 0
172 197 0
173 197 0
174 198 0
175 198 0
173 197 0
174 197 0
173 197 0
174 198 0
175 198 0
175 198 0
174 198 0
175 198 0
174 198 0
174 198 0
176 198 0
175 198 0
176 198 0
175 198 0
174 198 0
175 198 0
172 197 0
174 198 0
175 198 0
175 198 0
176 199 0
174 197 0
174 198 0
173 197 0
174 197 0
173 197 0
174 197 0
173 197 0
173 197 0
174 198 0
174 198 0
175 198 0
175 198 0
174 198 0
175 198 0
175 198 0
175 198 0
174 198 0
176 199 0
174 198 0
176 199 0
174 197 0
173 197 0
176 199 0
175 198 0
173 197 0
172 197 0
175 198 0
174 198 0
175 198 0
176 198 0
175 198 0
174 197 0
174 198 0
174 198 0
177 199 0
175 198 0
173 197 0
174 197 0
174 198 0
174 197 0
174 197 0
175 198 0
173 197 0
176 199 0
176 199 0
175 198 0
174 197 0
174 198 0
177 199 0
174 197 0
174 197 0
174 197 0
175 198 0
173 197 0
173 197 0
174 198 0
176 199 0
174 198 0
174 198 0
175 198 0
174 197 0
173 197 0
175 198 0
175 198 0
174 198 0
176 198 0
174 198 0
176 199 0
174 197 0
174 198 0
175 198 0
174 198 0
173 197 0
175 198 0
173 197 0
175 198 0
176 198 0
175 198 0
176 198 0
176 198 0
177 199 0
174 198 0
175 198 0
175 198 0
175 198 0
174 198 0
175 198 0
176 198 0
176 199 0
174 198 0
173 197 0
176 199 0
174 198 0
175 198 0
174 197 0
173 197 0
174 198 0
174 197 0
175 198 0
175 198 0
174 198 0
174 197 0
176 198 0
175 198 0
175 198 0
171 196 0
174 197 0
173 197 0
174 198 0
175 198 0
173 197 0
174 197 0
174 198 0
176 198 0
174 197 0
176 198 0
175 198 0
174 197 0
174 198 0
174 198 0
175 198 0
174 198 0
174 197 0
175 198 0
176 198 0
175 198 0
175 198 0
175 198 0
174 198 0
173 197 0
174 198 0
175 198 0
174 197 0
176 199 0
174 197 0
172 196 0
174 198 0
175 198 0
176 198 0
172 197 0
175 198 0
174 197 0
174 198 0
172 197 0
175 198 0
175 198 0
176 198 0
174 198 0
174 198 0
173 197 0
175 198 0
176 199 0
172 196 0
175 198 0
173 197 0
174 198 0
175 198 0
174 197 0
174 197 0
173 196 0
173 197 0
173 197 0
173 197 0
174 197 0
174 198 0
176 199 0
174 197 0
175 198 0
173 197 0
173 197 0
173 197 0
174 197 0
173 197 0
172 197 0
175 198 0
175 198 0
174 197 0
175 198 0
174 198 0
175 198 0
172 197 0
174 197 0
174 197 0
174 197 0
172 197 0
174 197 0
175 198 0
174 198 0
175 198 0
173 196 0
173 197 0
175 198 0
174 198 0
176 199 0
176 198 0
174 197 0
173 196 0
173 197 0
174 197 0
175 198 0
174 197 0
175 198 0
175 198 0
175 198 0
174 197 0
175 198 0
175 198 0
175 198 0
174 198 0
175 198 0
175 198 0
173 197 0
173 197 0
172 196 0
176 199 0
175 198 0
174 197 0
174 197 0
174 198 0
173 197 0
172 196 0
174 198 0
175 198 0
174 197 0
175 198 0
175 198 0
175 198 0
174 197 0
175 198 0
172 197 0
174 198 0
173 197 0
175 198 0
176 199 0
175 198 0
173 197 0
173 197 0
174 197 0
173 197 0
173 197 0
175 198 0
175 197 0
174 197 0
174 198 0
174 197 0
175 198 0
175 198 0
174 198 0
175 198 0
174 198 0
175 198 0
174 198 0
174 197 0
174 198 0
174 197 0
175 198 0
175 198 0
174 198 0
173 197 0
174 198 0
173 197 0
174 198 0
174 197 0
175 198 0
174 197 0
174 198 0
175 198 0
175 198 0
175 198 0
174 198 0
174 197 0
174 197 0
175 198 0
174 197 0
176 199 0
174 197 0
173 197 0
176 199 0
175 198 0
175 198 0
173 197 0
175 198 0
175 198 0
173 197 0
174 197 0
173 196 0
174 198 0
173 197 0
174 197 0
174 197 0
176 199 0
174 198 0
174 198 0
174 198 0
175 198 0
174 198 0
173 197 0
175 198 0
175 198 0
174 198 0
174 198 0
174 198 0
175 198 0
172 196 0
175 198 0
176 199 0
175 198 0
173 197 0
175 198 0
176 199 0
176 198 0
176 198 0
174 198 0
173 197 0
173 197 0
173 197 0
174 198 0
174 198 0
176 198 0
175 198 0
175 198 0
174 198 0
174 198 0
175 198 0
174 198 0
175 198 0
176 199 0
174 197 0
174 198 0
172 196 0
174 197 0
174 197 0
176 199 0
174 197 0
176 199 0
174 198 0
175 198 0
174 198 0
175 198 0
173 197 0
174 198 0
174 198 0
175 198 0
173 197 0
173 197 0
175 198 0
174 197 0
175 198 0
174 197 0
177 199 0
177 199 0
175 198 0
173 197 0
176 199 0
174 198 0
175 198 0
174 197 0
174 198 0
175 198 0
172 197 0
175 198 0
174 198 0
175 198 0
175 198 0
174 197 0
174 198 0
174 198 0
175 198 0
174 197 0
175 198 0
174 198 0
174 198 0
173 197 0
174 197 0
175 198 0
174 198 0
174 198 0
174 197 0
173 197 0
173 197 0
174 197 0
173 197 0
176 199 0
173 197 0
174 198 0
172 197 0
173 197 0
174 197 0
175 198 0
176 199 0
175 198 0
174 198 0
173 197 0
176 198 0
173 197 0
174 197 0
174 198 0
174 198 0
174 198 0
175 198 0
175 198 0
175 198 0
175 198 0
174 198 0
174 198 0
173 197 0
174 197 0
174 198 0
174 197 0
175 198 0
174 198 0
174 197 0
173 197 0
175 198 0
173 197 0
174 198 0
174 197 0
174 198 0
174 198 0
173 197 0
173 197 0
174 197 0
174 197 0
174 197 0
174 198 0
173 197 0
173 197 0
175 198 0
173 197 0
176 199 0
176 198 0
173 197 0
173 197 0
173 197 0
174 198 0
176 199 0
174 198 0
175 198 0
174 198 0
175 198 0
175 198 0
175 198 0
174 198 0
174 198 0
176 198 0
175 198 0
174 197 0
174 198 0
175 198 0
175 198 0
175 198 0
177 199 0
174 197 0
176 199 0
175 198 0
174 197 0
173 197 0
173 197 0
173 197 0
173 197 0
175 198 0
173 197 0
173 197 0
176 199 0
174 198 0
173 197 0
175 198 0
175 198 0
175 198 0
175 198 0
174 198 0
175 198 0
174 197 0
174 198 0
175 198 0
173 197 0
174 197 0
172 197 0
175 198 0
176 199 0
174 197 0
174 197 0
174 197 0
173 197 0
176 198 0
174 198 0
176 199 0
173 197 0
175 198 0
174 198 0
175 198 0
173 197 0
174 198 0
175 198 0
175 198 0
174 198 0
175 198 0
175 198 0
174 197 0
176 199 0
176 199 0
176 199 0
175 198 0
175 198 0
174 198 0
175 198 0
174 198 0
175 198 0
173 197 0
174 198 0
173 197 0
174 198 0
175 198 0
174 198 0
174 198 0
174 197 0
176 199 0
174 198 0
173 197 0
173 197 0
174 198 0
176 199 0
174 197 0
174 198 0
175 198 0
174 198 0
174 198 0
175 198 0
174 197 0
176 199 0
176 199 0
176 199 0
174 198 0
174 198 0
175 198 0
174 197 0
173 197 0
176 199 0
172 196 0
176 198 0
175 198 0
174 197 0
176 198 0
174 198 0
174 198 0
174 198 0
175 198 0
174 198 0
174 198 0
173 197 0
174 198 0
175 198 0
176 199 0
175 198 0
175 198 0
175 198 0
174 197 0
176 199 0
175 198 0
175 198 0
175 198 0
174 197 0
174 197 0
174 198 0
174 197 0
174 198 0
173 196 0
173 197 0
177 199 0
174 198 0
174 197 0
172 196 0
173 197 0
173 196 0
174 198 0
174 197 0
175 198 0
173 197 0
174 197 0
175 198 0
174 197 0
175 198 0
173 197 0
173 196 0
174 198 0
173 197 0
174 198 0
174 197 0
175 198 0
173 196 0
174 198 0
175 198 0
174 198 0
174 198 0
173 197 0
174 197 0
175 198 0
172 197 0
175 198 0
173 197 0
174 198 0
174 198 0
175 198 0
173 196 0
172 196 0
175 198 0
175 198 0
176 198 0
174 198 0
175 198 0
175 198 0
174 198 0
175 198 0
174 198 0
175 198 0
174 198 0
175 198 0
174 198 0
175 198 0
174 198 0
175 198 0
173 197 0
176 198 0
173 197 0
175 198 0
174 197 0
173 197 0
174 198 0
175 198 0
174 198 0
174 197 0
175 198 0
174 198 0
174 197 0
174 198 0
174 198 0
173 197 0
173 197 0
174 197 0
174 198 0
175 198 0
173 197 0
174 197 0
173 197 0
175 198 0
174 197 0
173 197 0
174 198 0
175 197 0
175 198 0
176 198 0
174 197 0
174 197 0
175 198 0
176 199 0
175 198 0
174 197 0
176 199 0
176 199 0
172 197 0
174 198 0
174 198 0
173 197 0
175 198 0
173 197 0
172 196 0
175 198 0
172 197 0
175 198 0
175 198 0
174 197 0
174 197 0
173 196 0
175 198 0
174 197 0
175 198 0
174 197 0
175 198 0
175 198 0
175 198 0
174 197 0
174 198 0
174 197 0
173 197 0
174 197 0
172 196 0
173 197 0
173 197 0
174 198 0
174 197 0
176 198 0
176 199 0
175 198 0
173 197 0
175 198 0
174 197 0
175 198 0
173 197 0
174 198 0
172 196 0
175 198 0
174 198 0
174 197 0
174 197 0
174 198 0
174 198 0
173 197 0
173 197 0
173 196 0
176 199 0
174 198 0
173 197 0
175 198 0
176 198 0
175 198 0
174 198 0
176 199 0
173 197 0
175 198 0
176 198 0
175 198 0
173 197 0
174 198 0
175 198 0
173 197 0
175 198 0
173 197 0
174 198 0
175 198 0
175 198 0
174 198 0
175 198 0
174 198 0
174 197 0
172 196 0
174 197 0
174 198 0
174 198 0
174 197 0
174 198 0
174 197 0
174 198 0
176 199 0
174 198 0
174 198 0
173 197 0
176 198 0
174 197 0
176 199 0
176 198 0
174 198 0
175 198 0
176 199 0
174 198 0
175 198 0
176 199 0
175 198 0
174 198 0
173 197 0
173 197 0
175 198 0
174 198 0
175 198 0
174 198 0
175 198 0
175 198 0
175 198 0
175 198 0
175 198 0
175 198 0
173 197 0
176 199 0
177 199 0
175 198 0
174 197 0
175 198 0
174 197 0
173 197 0
173 197 0
176 198 0
174 198 0
174 198 0
174 197 0
175 198 0
174 197 0
173 197 0
174 197 0
175 198 0
173 197 0
175 198 0
174 198 0
174 198 0
175 198 0
174 198 0
174 198 0
174 198 0
174 197 0
174 198 0
174 198 0
175 198 0
175 198 0
175 198 0
174 198 0
176 198 0
175 198 0
174 197 0
174 198 0
175 198 0
174 198 0
174 198 0
175 198 0
175 198 0
173 197 0
175 198 0
174 198 0
175 198 0
173 197 0
174 198 0
174 198 0
174 197 0
176 198 0
174 197 0
174 198 0
173 197 0
175 198 0
175 198 0
174 198 0
174 198 0
174 198 0
176 199 0
175 198 0
174 198 0
174 198 0
175 198 0
174 198 0
174 198 0
174 197 0
176 198 0
174 198 0
174 197 0
176 199 0
176 199 0
172 197 0
174 198 0
174 197 0
175 198 0
174 198 0
173 197 0
174 198 0
175 198 0
173 197 0
174 198 0
176 198 0
175 198 0
174 197 0
174 198 0
174 198 0
175 198 0
174 197 0
175 198 0
174 198 0
175 198 0
174 198 0
174 198 0
174 198 0
175 198 0
175 198 0
175 198 0
173 197 0
174 197 0
173 197 0
174 197 0
174 198 0
174 197 0
175 198 0
174 197 0
175 198 0
175 198 0
174 198 0
173 197 0
176 199 0
174 198 0
174 198 0
174 198 0
174 197 0
175 198 0
174 197 0
174 198 0
177 199 0
175 198 0
173 197 0
175 198 0
175 198 0
173 197 0
173 197 0
175 198 0
174 197 0
173 196 0
175 198 0
175 198 0
175 198 0
174 198 0
174 198 0
174 197 0
175 198 0
174 197 0
175 198 0
175 198 0
174 197 0
173 197 0
174 198 0
174 198 0
177 199 0
173 197 0
175 198 0
175 198 0
174 197 0
175 198 0
173 197 0
175 197 0
173 197 0
174 197 0
174 198 0
175 198 0
174 198 0
172 197 0
175 198 0
174 198 0
173 197 0
174 198 0
172 196 0
174 197 0
173 197 0
173 196 0
174 198 0
175 198 0
176 199 0
172 196 0
174 197 0
174 198 0
174 197 0
176 199 0
173 197 0
174 197 0
176 199 0
174 198 0
172 197 0
174 198 0
173 197 0
175 198 0
173 197 0
172 197 0
173 197 0
175 198 0
174 197 0
176 198 0
173 197 0
176 198 0
175 198 0
175 198 0
175 198 0
175 198 0
174 198 0
174 198 0
174 197 0
175 198 0
174 197 0
175 198 0
175 198 0
173 196 0
175 198 0
173 197 0
175 198 0
175 198 0
174 197 0
174 198 0
174 197 0
174 198 0
176 199 0
174 198 0
174 197 0
173 197 0
174 197 0
176 199 0
174 197 0
173 197 0
175 198 0
175 198 0
173 196 0
175 198 0
173 197 0
173 197 0
175 198 0
174 197 0
174 197 0
173 197 0
174 198 0
172 196 0
174 197 0
175 198 0
175 198 0
175 198 0
175 198 0
172 196 0
175 198 0
174 197 0
174 197 0
172 197 0
174 198 0
172 196 0
175 198 0
175 198 0
174 197 0
173 197 0
175 198 0
173 197 0
173 197 0
176 199 0
173 196 0
174 198 0
176 198 0
173 197 0
175 198 0
174 197 0
174 197 0
176 198 0
174 197 0
175 198 0
174 197 0
175 198 0
176 199 0
173 197 0
174 198 0
174 198 0
173 197 0
175 198 0
173 197 0
175 198 0
174 198 0
173 197 0
175 198 0
173 197 0
174 198 0
174 198 0
176 199 0
175 198 0
174 197 0
175 198 0
174 198 0
174 197 0
173 197 0
175 197 0
174 197 0
175 198 0
174 197 0
174 197 0
174 197 0
174 198 0
174 197 0
175 198 0
175 198 0
175 198 0
174 197 0
175 198 0
173 197 0
172 197 0
174 197 0
175 198 0
175 198 0
174 198 0
174 197 0
174 197 0
174 198 0
176 198 0
174 198 0
174 198 0
174 198 0
174 198 0
174 197 0
175 198 0
176 198 0
175 198 0
175 198 0
174 198 0
175 198 0
173 197 0
176 198 0
172 197 0
174 197 0
175 198 0
174 198 0
174 198 0
177 199 0
175 198 0
174 197 0
175 198 0
177 199 0
173 197 0
174 198 0
174 198 0
174 198 0
175 198 0
175 198 0
173 196 0
174 197 0
173 196 0
175 198 0
174 197 0
173 197 0
174 198 0
175 198 0
175 198 0
174 198 0
173 197 0
175 198 0
176 198 0
174 197 0
175 198 0
176 198 0
177 199 0
173 197 0
174 197 0
175 198 0
172 197 0
175 198 0
175 198 0
174 198 0
174 198 0
173 197 0
174 198 0
176 198 0
173 197 0
175 198 0
174 198 0
175 198 0
174 197 0
176 199 0
176 199 0
174 197 0
176 199 0
174 198 0
175 198 0
174 198 0
175 198 0
174 198 0
176 198 0
173 197 0
174 198 0
174 198 0
175 198 0
174 198 0
173 197 0
174 198 0
174 198 0
175 198 0
175 198 0
174 198 0
174 198 0
175 198 0
175 198 0
176 198 0
175 198 0
173 197 0
174 198 0
175 198 0
175 198 0
174 198 0
175 198 0
174 197 0
174 198 0
174 197 0
175 198 0
174 198 0
174 198 0
176 199 0
174 198 0
174 198 0
174 198 0
175 198 0
175 198 0
175 198 0
175 198 0
174 198 0
174 197 0
174 198 0
174 198 0
175 198 0
175 198 0
175 198 0
174 197 0
174 198 0
173 197 0
174 197 0
175 198 0
173 197 0
174 198 0
174 197 0
174 198 0
174 197 0
175 198 0
173 197 0
175 198 0
174 198 0
175 198 0
175 198 0
175 198 0
175 198 0
174 198 0
174 197 0
176 199 0
177 199 0
174 197 0
175 198 0
173 197 0
176 199 0
174 198 0
174 197 0
175 198 0
174 197 0
175 198 0
175 198 0
174 197 0
175 198 0
175 198 0
175 198 0
174 197 0
174 198 0
173 197 0
174 198 0
175 198 0
175 198 0
174 198 0
175 198 0
173 197 0
175 198 0
174 198 0
176 199 0
175 198 0
174 197 0
174 197 0
173 197 0
175 198 0
174 198 0
174 198 0
176 198 0
174 197 0
173 197 0
176 199 0
174 198 0
177 199 0
174 198 0
174 198 0
174 198 0
175 198 0
174 198 0
175 198 0
174 198 0
175 198 0
172 197 0
174 198 0
175 198 0
173 197 0
174 198 0
176 199 0
175 198 0
174 198 0
175 198 0
172 197 0
176 198 0
174 197 0
175 198 0
173 197 0
173 197 0
175 198 0
174 197 0
174 198 0
175 198 0
174 198 0
173 197 0
174 198 0
173 197 0
174 198 0
175 198 0
173 197 0
174 198 0
174 197 0
175 198 0
173 197 0
175 198 0
173 197 0
174 198 0
175 198 0
174 197 0
174 198 0
176 198 0
177 199 0
175 198 0
174 198 0
175 198 0
176 199 0
174 198 0
173 196 0
175 198 0
173 197 0
174 198 0
175 198 0
174 198 0
175 198 0
173 197 0
172 196 0
172 196 0
173 197 0
173 197 0
175 198 0
174 197 0
174 198 0
174 197 0
174 197 0
176 199 0
174 198 0
175 198 0
172 196 0
175 198 0
175 198 0
174 198 0
174 198 0
172 197 0
173 197 0
175 198 0
174 198 0
174 198 0
174 198 0
174 197 0
174 197 0
174 198 0
174 198 0
175 198 0
173 197 0
172 197 0
175 197 0
175 198 0
174 198 0
173 197 0
174 197 0
174 198 0
176 199 0
174 198 0
173 197 0
174 198 0
175 198 0
174 198 0
176 198 0
173 197 0
175 198 0
173 197 0
175 198 0
174 198 0
174 198 0
175 198 0
173 197 0
174 198 0
174 197 0
176 199 0
174 198 0
175 198 0
173 197 0
171 196 0
175 198 0
173 197 0
173 197 0
175 198 0
175 198 0
173 197 0
174 197 0
174 197 0
173 197 0
174 198 0
176 199 0
174 198 0
175 198 0
175 198 0
174 197 0
175 198 0
175 198 0
173 197 0
176 198 0
175 198 0
173 197 0
174 197 0
175 198 0
173 197 0
174 196 0
174 198 0
172 197 0
175 198 0
174 198 0
175 198 0
172 196 0
174 197 0
175 198 0
173 197 0
175 198 0
174 198 0
176 199 0
173 197 0
175 197 0
173 197 0
174 197 0
176 199 0
175 198 0
174 198 0
174 197 0
171 195 0
173 196 0
175 198 0
174 198 0
175 198 0
175 198 0
177 199 0
174 198 0
173 197 0
175 198 0
174 197 0
176 199 0
175 198 0
175 198 0
174 198 0
173 197 0
174 197 0
174 198 0
176 199 0
174 197 0
174 198 0
173 197 0
174 198 0
173 197 0
175 198 0
173 197 0
173 197 0
175 198 0
174 198 0
174 198 0
174 198 0
173 197 0
174 198 0
173 197 0
175 198 0
174 198 0
173 197 0
174 198 0
173 197 0
175 198 0
174 198 0
173 197 0
174 197 0
175 198 0
176 199 0
176 198 0
174 198 0
174 197 0
174 198 0
173 197 0
173 197 0
175 198 0
174 197 0
173 197 0
173 197 0
174 198 0
174 198 0
175 198 0
174 198 0
173 197 0
174 198 0
175 198 0
171 196 0
175 198 0
176 199 0
175 198 0
176 199 0
175 198 0
174 198 0
174 198 0
173 197 0
173 197 0
174 197 0
175 198 0
174 197 0
175 198 0
176 199 0
174 197 0
173 197 0
173 197 0
175 198 0
174 197 0
175 198 0
174 198 0
173 197 0
174 198 0
174 198 0
174 197 0
174 198 0
174 198 0
175 198 0
174 197 0
175 198 0
173 197 0
172 197 0
175 198 0
175 198 0
175 198 0
175 198 0
173 197 0
173 196 0
172 196 0
173 197 0
176 199 0
173 197 0
175 198 0
174 198 0
174 198 0
175 198 0
175 198 0
174 198 0
175 198 0
176 199 0
175 198 0
175 198 0
174 198 0
174 197 0
176 198 0
176 198 0
174 198 0
174 198 0
173 197 0
174 197 0
176 198 0
175 198 0
173 197 0
174 198 0
176 199 0
175 198 0
176 198 0
175 198 0
174 198 0
175 198 0
176 199 0
176 199 0
174 197 0
175 198 0
174 198 0
174 197 0
174 198 0
174 198 0
173 197 0
175 198 0
174 197 0
174 198 0
175 198 0
175 198 0
176 199 0
174 198 0
175 198 0
175 198 0
175 198 0
173 197 0
174 198 0
176 199 0
173 197 0
176 199 0
175 198 0
175 198 0
175 198 0
174 198 0
174 197 0
175 198 0
175 198 0
174 198 0
174 198 0
175 198 0
174 198 0
174 198 0
175 198 0
175 198 0
174 198 0
174 198 0
174 198 0
176 199 0
175 198 0
174 198 0
175 198 0
175 198 0
176 199 0
175 198 0
175 198 0
175 198 0
173 197 0
174 198 0
174 197 0
175 198 0
174 198 0
175 198 0
174 198 0
172 197 0
174 198 0
175 198 0
175 198 0
174 198 0
174 198 0
176 198 0
175 198 0
174 198 0
173 197 0
174 198 0
174 198 0
174 198 0
174 197 0
175 198 0
174 197 0
177 199 0
174 198 0
174 197 0
176 199 0
175 198 0
175 198 0
174 198 0
173 197 0
175 198 0
173 197 0
177 199 0
174 198 0
175 198 0
174 198 0
174 198 0
175 198 0
174 197 0
174 197 0
175 198 0
175 198 0
175 198 0
174 198 0
174 197 0
175 198 0
173 197 0
175 198 0
174 198 0
176 199 0
174 198 0
176 199 0
175 198 0
175 198 0
175 198 0
174 197 0
174 197 0
175 198 0
175 198 0
174 197 0
176 198 0
174 197 0
175 198 0
175 198 0
174 198 0
174 197 0
175 198 0
172 197 0
172 196 0
175 198 0
175 198 0
174 197 0
175 198 0
174 198 0
174 198 0
175 198 0
173 197 0
174 197 0
174 198 0
173 197 0
175 198 0
175 198 0
174 198 0
174 198 0
176 199 0
176 199 0
174 198 0
176 198 0
174 198 0
175 198 0
174 198 0
174 198 0
174 198 0
175 198 0
175 198 0
175 198 0
174 197 0
175 198 0
175 198 0
175 198 0
173 197 0
174 198 0
175 198 0
175 198 0
175 198 0
173 197 0
174 198 0
173 197 0
173 197 0
176 199 0
174 198 0
174 198 0
174 197 0
174 198 0
174 197 0
173 197 0
174 197 0
174 197 0
173 197 0
175 198 0
175 198 0
172 196 0
175 198 0
174 198 0
174 198 0
174 198 0
173 197 0
174 197 0
176 199 0
177 199 0
176 199 0
175 198 0
175 198 0
174 197 0
174 197 0
175 198 0
173 197 0
174 198 0
174 197 0
174 198 0
175 198 0
173 197 0
175 198 0
174 198 0
174 197 0
173 197 0
173 197 0
174 197 0
175 198 0
175 198 0
174 197 0
175 198 0
173 197 0
172 196 0
173 197 0
175 198 0
174 198 0
175 198 0
173 197 0
174 198 0
174 197 0
176 199 0
173 197 0
176 198 0
174 198 0
173 197 0
173 197 0
175 198 0
173 197 0
175 198 0
172 196 0
174 197 0
175 198 0
173 197 0
175 198 0
172 196 0
174 198 0
174 197 0
175 198 0
173 196 0
175 198 0
172 196 0
175 198 0
174 197 0
174 197 0
176 198 0
174 197 0
175 198 0
173 197 0
174 198 0
174 198 0
173 197 0
174 197 0
174 197 0
174 197 0
173 197 0
176 199 0
174 197 0
173 197 0
172 196 0
173 196 0
176 198 0
173 196 0
173 197 0
175 198 0
174 197 0
174 197 0
174 197 0
173 197 0
174 197 0
175 198 0
174 198 0
175 198 0
175 198 0
172 197 0
173 197 0
173 196 0
174 197 0
177 199 0
175 198 0
175 198 0
175 197 0
174 197 0
174 197 0
175 198 0
175 198 0
173 197 0
175 198 0
174 198 0
174 197 0
172 196 0
174 198 0
175 198 0
174 197 0
174 197 0
173 197 0
173 197 0
176 199 0
174 198 0
176 198 0
175 198 0
175 198 0
173 197 0
173 197 0
174 198 0
175 198 0
175 197 0
173 197 0
175 198 0
175 198 0
174 197 0
174 197 0
175 198 0
176 198 0
175 198 0
174 198 0
172 196 0
174 197 0
173 197 0
173 197 0
175 198 0
175 198 0
174 198 0
173 197 0
173 197 0
176 199 0
176 198 0
173 197 0
174 198 0
175 198 0
173 197 0
174 198 0
174 197 0
174 198 0
172 196 0
175 198 0
174 198 0
174 198 0
176 199 0
173 197 0
175 198 0
173 197 0
173 197 0
175 198 0
176 198 0
175 198 0
173 197 0
174 198 0
174 197 0
174 197 0
174 197 0
172 196 0
174 198 0
174 198 0
173 197 0
174 198 0
173 197 0
176 198 0
174 197 0
175 198 0
175 198 0
174 197 0
175 198 0
175 198 0
175 198 0
175 198 0
173 197 0
173 197 0
174 198 0
175 198 0
173 197 0
175 198 0
174 198 0
175 198 0
175 198 0
175 198 0
174 197 0
174 198 0
175 198 0
173 197 0
174 198 0
174 198 0
176 198 0
176 198 0
175 198 0
174 198 0
175 198 0
175 198 0
174 198 0
175 198 0
175 198 0
172 196 0
175 198 0
174 198 0
174 198 0
175 198 0
175 198 0
176 199 0
174 197 0
175 198 0
173 197 0
174 197 0
175 198 0
176 199 0
176 198 0
174 198 0
175 198 0
173 197 0
174 198 0
174 198 0
175 198 0
175 198 0
175 198 0
174 197 0
174 198 0
175 198 0
175 198 0
174 198 0
175 198 0
175 198 0
174 198 0
174 198 0
174 198 0
175 198 0
174 198 0
176 199 0
174 197 0
174 198 0
174 198 0
175 198 0
175 198 0
175 198 0
174 198 0
175 198 0
176 199 0
176 199 0
175 198 0
174 198 0
176 199 0
176 198 0
174 197 0
176 199 0
173 197 0
175 198 0
174 198 0
174 197 0
175 198 0
175 198 0
175 198 0
175 198 0
175 198 0
174 198 0
175 198 0
175 198 0
175 198 0
173 197 0
175 198 0
175 198 0
174 197 0
172 196 0
175 198 0
174 198 0
176 199 0
172 197 0
174 197 0
174 198 0
172 197 0
174 198 0
176 198 0
173 197 0
176 198 0
173 197 0
172 196 0
175 198 0
173 197 0
176 198 0
174 198 0
173 197 0
173 197 0
175 198 0
177 199 0
175 198 0
174 198 0
174 197 0
174 197 0
175 198 0
174 198 0
174 197 0
174 198 0
174 198 0
174 198 0
173 197 0
173 197 0
174 197 0
174 197 0
175 198 0
173 197 0
174 197 0
173 197 0
175 198 0
174 198 0
177 199 0
173 197 0
173 197 0
173 197 0
174 198 0
174 198 0
174 197 0
174 198 0
174 197 0
175 198 0
177 199 0
174 198 0
175 198 0
173 197 0
175 198 0
173 197 0
174 198 0
175 198 0
176 199 0
174 197 0
175 198 0
174 197 0
174 197 0
174 198 0
175 198 0
174 197 0
174 197 0
175 198 0
174 198 0
175 198 0
174 198 0
174 197 0
175 198 0
175 198 0
175 198 0
173 197 0
175 198 0
174 197 0
174 198 0
172 196 0
173 197 0
175 198 0
175 198 0
173 197 0
174 198 0
175 198 0
173 197 0
176 199 0
175 198 0
173 197 0
174 197 0
175 198 0
172 196 0
173 197 0
174 198 0
174 197 0
174 197 0
174 198 0
173 197 0
175 198 0
174 198 0
174 197 0
175 198 0
176 198 0
173 197 0
175 198 0
175 198 0
174 197 0
172 197 0
174 197 0
175 198 0
175 198 0
173 196 0
174 197 0
175 198 0
175 198 0
173 197 0
174 198 0
173 197 0
173 197 0
174 197 0
174 197 0
174 198 0
172 196 0
176 198 0
173 197 0
176 199 0
175 198 0
174 197 0
174 197 0
175 198 0
174 198 0
175 198 0
176 199 0
174 198 0
174 197 0
175 198 0
176 199 0
172 197 0
174 197 0
173 197 0
174 198 0
175 198 0
173 197 0
174 198 0
172 196 0
175 198 0
173 197 0
174 198 0
172 196 0
173 197 0
176 198 0
175 198 0
175 198 0
173 197 0
174 197 0
174 197 0
174 197 0
175 198 0
175 198 0
174 198 0
174 198 0
174 198 0
173 197 0
174 198 0
175 198 0
172 196 0
175 198 0
174 197 0
173 197 0
173 197 0
175 198 0
174 197 0
174 198 0
173 197 0
175 198 0
176 199 0
176 199 0
173 197 0
173 197 0
175 198 0
175 198 0
174 198 0
172 196 0
173 197 0
175 198 0
173 196 0
175 198 0
174 198 0
175 197 0
174 198 0
176 198 0
174 198 0
174 198 0
174 197 0
175 197 0
174 198 0
175 198 0
173 197 0
176 199 0
173 197 0
175 198 0
174 198 0
174 197 0
175 198 0
174 198 0
173 197 0
175 198 0
175 198 0
174 198 0
176 198 0
175 198 0
173 197 0
173 197 0
175 198 0
175 198 0
173 197 0
174 197 0
175 198 0
173 197 0
173 197 0
174 197 0
174 198 0
175 198 0
174 197 0
173 197 0
175 198 0
174 197 0
174 197 0
175 198 0
175 198 0
173 197 0
174 197 0
176 199 0
175 198 0
174 197 0
174 197 0
173 196 0
175 198 0
175 198 0
174 197 0
174 197 0
173 197 0
175 198 0
173 197 0
173 196 0
173 197 0
174 198 0
174 198 0
174 198 0
173 197 0
173 197 0
175 198 0
174 197 0
175 198 0
171 196 0
174 197 0
175 198 0
174 198 0
175 198 0
174 198 0
174 197 0
173 196 0
173 197 0
175 198 0
176 198 0
174 197 0
173 197 0
175 198 0
173 197 0
175 198 0
173 197 0
174 198 0
173 197 0
173 197 0
174 198 0
174 197 0
174 198 0
174 197 0
173 197 0
175 198 0
174 198 0
174 197 0
177 199 0
174 197 0
176 199 0
174 197 0
174 198 0
174 197 0
175 198 0
172 197 0
174 198 0
176 199 0
174 198 0
176 199 0
174 198 0
175 198 0
176 199 0
174 197 0
175 198 0
173 197 0
175 198 0
175 198 0
174 198 0
175 198 0
174 198 0
175 198 0
175 198 0
174 197 0
174 198 0
175 198 0
176 199 0
174 198 0
174 198 0
174 198 0
174 198 0
176 198 0
174 197 0
174 197 0
174 198 0
175 198 0
174 197 0
173 197 0
174 198 0
175 198 0
175 198 0
175 198 0
176 198 0
174 198 0
175 198 0
174 198 0
174 198 0
176 198 0
175 198 0
175 197 0
175 198 0
173 197 0
173 197 0
173 197 0
174 197 0
175 198 0
174 197 0
174 198 0
174 197 0
175 198 0
176 199 0
174 198 0
173 197 0
173 197 0
175 198 0
176 198 0
174 198 0
176 199 0
175 198 0
176 198 0
173 197 0
174 197 0
174 197 0
174 198 0
175 198 0
174 198 0
174 198 0
174 198 0
174 197 0
175 198 0
174 197 0
175 198 0
174 198 0
174 198 0
173 197 0
175 198 0
174 197 0
173 197 0
176 198 0
175 198 0
174 198 0
174 198 0
173 197 0
174 197 0
175 198 0
175 198 0
175 198 0
175 198 0
175 198 0
174 197 0
173 197 0
173 197 0
174 198 0
175 198 0
174 198 0
174 197 0
176 198 0
176 198 0
174 198 0
176 199 0
174 198 0
175 198 0
175 198 0
173 197 0
175 198 0
175 198 0
174 198 0
172 196 0
175 198 0
176 199 0
177 199 0
174 198 0
174 198 0
174 198 0
174 197 0
176 199 0
176 199 0
172 197 0
174 197 0
174 198 0
174 198 0
175 198 0
175 198 0
173 197 0
174 197 0
176 198 0
174 198 0
174 198 0
175 198 0
175 198 0
174 198 0
175 198 0
174 197 0
176 199 0
174 198 0
174 198 0
174 197 0
174 197 0
174 198 0
175 198 0
173 197 0
174 197 0
176 199 0
175 197 0
178 200 0
174 197 0
175 198 0
175 198 0
174 198 0
176 199 0
175 198 0
174 197 0
174 197 0
174 197 0
174 197 0
174 197 0
174 198 0
175 198 0
177 199 0
175 198 0
174 197 0
175 198 0
173 197 0
174 197 0
173 197 0
174 197 0
174 198 0
174 198 0
174 198 0
173 197 0
175 198 0
173 197 0
173 197 0
174 198 0
174 198 0
176 198 0
172 196 0
173 197 0
172 196 0
174 197 0
175 198 0
175 198 0
175 198 0
174 197 0
175 198 0
175 198 0
175 198 0
174 198 0
175 198 0
174 198 0
174 198 0
174 197 0
174 198 0
174 198 0
174 198 0
175 198 0
172 196 0
172 196 0
173 197 0
175 198 0
173 197 0
173 197 0
176 199 0
175 198 0
174 197 0
174 198 0
176 198 0
173 197 0
174 197 0
174 198 0
174 198 0
174 198 0
175 198 0
174 198 0
175 198 0
175 198 0
175 198 0
173 197 0
174 198 0
175 198 0
175 198 0
173 197 0
173 197 0
174 197 0
173 197 0
172 196 0
174 198 0
174 198 0
175 198 0
172 197 0
175 198 0
172 196 0
175 198 0
174 198 0
175 198 0
175 198 0
175 198 0
175 198 0
174 198 0
174 198 0
173 197 0
174 197 0
173 197 0
173 197 0
174 197 0
174 198 0
174 197 0
173 197 0
174 198 0
173 197 0
174 198 0
174 197 0
175 197 0
173 197 0
174 197 0
174 198 0
174 198 0
173 197 0
175 198 0
173 197 0
175 198 0
173 196 0
175 198 0
174 198 0
175 198 0
174 197 0
174 198 0
175 198 0
174 198 0
174 198 0
174 198 0
173 197 0
174 197 0
173 197 0
174 198 0
174 197 0
176 199 0
175 198 0
173 197 0
174 198 0
174 197 0
173 197 0
175 198 0
174 198 0
172 196 0
174 198 0
175 198 0
175 198 0
172 196 0
175 198 0
175 198 0
176 198 0
175 198 0
175 198 0
173 197 0
174 197 0
173 197 0
172 196 0
174 198 0
175 198 0
174 198 0
173 197 0
174 197 0
175 197 0
173 197 0
175 198 0
175 198 0
174 198 0
173 197 0
173 197 0
173 196 0
174 197 0
174 198 0
175 198 0
173 197 0
173 197 0
173 197 0
174 197 0
175 198 0
175 198 0
173 197 0
173 197 0
173 197 0
174 197 0
175 198 0
174 197 0
174 197 0
173 197 0
176 199 0
173 197 0
174 197 0
174 197 0
173 197 0
173 197 0
174 197 0
174 198 0
175 198 0
173 197 0
176 199 0
174 198 0
175 198 0
175 197 0
175 198 0
174 198 0
175 198 0
174 197 0
172 196 0
173 197 0
174 197 0
174 197 0
174 197 0
174 197 0
177 199 0
174 197 0
173 197 0
175 198 0
174 198 0
173 197 0
175 198 0
174 198 0
175 198 0
177 199 0
175 198 0
174 198 0
176 198 0
173 197 0
174 198 0
173 197 0
175 198 0
175 198 0
173 196 0
174 197 0
174 198 0
173 197 0
174 198 0
174 198 0
174 198 0
173 197 0
175 198 0
174 198 0
175 198 0
174 198 0
174 197 0
175 198 0
175 198 0
174 197 0
174 198 0
175 198 0
175 198 0
174 197 0
174 198 0
174 198 0
175 198 0
175 198 0
175 198 0
174 198 0
174 197 0
175 198 0
174 198 0
174 198 0
175 198 0
176 198 0
174 197 0
175 198 0
175 198 0
174 197 0
175 198 0
174 197 0
175 198 0
175 198 0
175 198 0
176 199 0
174 198 0
175 198 0
174 198 0
174 197 0
175 198 0
175 198 0
174 198 0
174 197 0
174 198 0
176 199 0
174 198 0
174 198 0
176 199 0
173 197 0
173 197 0
176 198 0
174 198 0
175 198 0
175 198 0
174 197 0
175 198 0
173 197 0
175 198 0
175 198 0
174 198 0
173 197 0
174 198 0
176 199 0
173 197 0
172 196 0
175 198 0
174 198 0
174 197 0
174 198 0
175 198 0
175 198 0
175 198 0
174 198 0
175 198 0
175 197 0
175 198 0
174 197 0
175 198 0
175 198 0
174 198 0
176 198 0
175 198 0
175 198 0
174 198 0
175 198 0
174 198 0
174 198 0
175 198 0
175 198 0
174 198 0
174 197 0
176 199 0
175 198 0
176 199 0
174 198 0
175 198 0
175 198 0
175 198 0
174 198 0
175 198 0
176 198 0
175 198 0
174 197 0
174 198 0
174 197 0
175 198 0
176 198 0
175 198 0
175 198 0
173 197 0
175 198 0
175 198 0
173 197 0
173 197 0
174 197 0
174 198 0
172 196 0
174 198 0
175 198 0
174 198 0
172 196 0
175 198 0
175 198 0
175 198 0
174 198 0
175 198 0
175 198 0
173 197 0
174 198 0
174 198 0
175 198 0
174 198 0
173 197 0
176 198 0
176 198 0
173 197 0
174 198 0
174 197 0
173 197 0
175 198 0
174 198 0
175 198 0
173 197 0
173 197 0
174 197 0
173 197 0
175 198 0
171 196 0
174 198 0
174 198 0
173 197 0
174 198 0
176 199 0
175 198 0
175 198 0
176 199 0
174 198 0
174 198 0
173 197 0
173 197 0
173 197 0
174 198 0
174 198 0
176 199 0
176 199 0
175 198 0
172 196 0
175 198 0
175 198 0
175 198 0
174 198 0
175 198 0
175 198 0
175 198 0
175 198 0
175 198 0
176 199 0
173 197 0
172 196 0
174 198 0
174 198 0
174 198 0
174 197 0
175 198 0
174 197 0
173 197 0
174 197 0
174 197 0
175 198 0
176 198 0
173 197 0
174 198 0
175 198 0
174 198 0
174 197 0
173 197 0
175 198 0
174 197 0
174 197 0
174 197 0
174 197 0
175 198 0
175 198 0
173 197 0
174 197 0
175 198 0
175 198 0
174 198 0
175 198 0
173 197 0
175 198 0
174 197 0
174 197 0
174 198 0
173 197 0
174 197 0
174 197 0
175 198 0
175 198 0
175 198 0
175 198 0
173 196 0
176 198 0
173 197 0
172 197 0
176 199 0
176 198 0
174 197 0
175 198 0
176 198 0
174 198 0
175 198 0
174 197 0
174 198 0
174 197 0
174 197 0
174 198 0
174 197 0
174 198 0
173 197 0
175 198 0
175 198 0
173 197 0
175 198 0
175 198 0
174 197 0
173 197 0
173 197 0
174 198 0
176 199 0
176 198 0
174 197 0
174 197 0
175 198 0
174 198 0
175 198 0
176 198 0
175 198 0
174 197 0
173 197 0
173 197 0
176 198 0
174 197 0
174 198 0
173 197 0
174 197 0
174 198 0
174 198 0
175 198 0
174 197 0
173 196 0
175 198 0
175 198 0
175 197 0
174 198 0
176 199 0
174 198 0
174 197 0
173 197 0
175 198 0
175 198 0
176 199 0
176 199 0
174 198 0
173 197 0
174 198 0
174 197 0
174 197 0
175 198 0
174 197 0
175 198 0
175 197 0
173 196 0
173 197 0
173 196 0
174 197 0
174 198 0
174 197 0
174 198 0
173 196 0
174 197 0
175 198 0
172 196 0
174 198 0
174 198 0
174 198 0
174 198 0
174 198 0
175 198 0
175 198 0
176 198 0
173 197 0
174 198 0
171 195 0
175 198 0
175 198 0
174 198 0
174 198 0
174 198 0
175 198 0
173 197 0
176 199 0
173 197 0
175 198 0
172 196 0
174 198 0
176 199 0
174 198 0
174 197 0
173 196 0
173 197 0
172 197 0
174 197 0
175 198 0
176 198 0
175 198 0
173 197 0
174 197 0
176 199 0
174 197 0
175 198 0
174 197 0
175 198 0
174 198 0
174 197 0
174 198 0
174 197 0
174 198 0
173 197 0
173 197 0
173 197 0
175 198 0
175 198 0
173 197 0
175 198 0
177 199 0
174 198 0
175 198 0
174 197 0
172 197 0
175 198 0
174 197 0
175 198 0
175 198 0
173 197 0
174 197 0
173 196 0
174 198 0
175 198 0
174 197 0
175 198 0
173 197 0
174 197 0
173 197 0
175 198 0
174 197 0
174 198 0
175 198 0
175 198 0
174 198 0
175 198 0
173 197 0
174 198 0
173 197 0
174 197 0
174 198 0
174 197 0
172 197 0
174 198 0
176 199 0
175 198 0
175 198 0
175 198 0
174 197 0
174 197 0
176 199 0
175 198 0
175 198 0
174 198 0
175 198 0
175 198 0
174 198 0
176 198 0
175 198 0
174 197 0
174 197 0
174 197 0
172 196 0
173 197 0
174 198 0
175 198 0
174 197 0
176 199 0
174 198 0
175 198 0
174 197 0
174 198 0
174 198 0
173 196 0
174 197 0
174 198 0
173 197 0
173 197 0
175 198 0
173 197 0
174 198 0
174 198 0
177 199 0
175 198 0
173 197 0
174 198 0
176 199 0
175 198 0
175 198 0
174 197 0
174 198 0
174 198 0
173 197 0
176 198 0
174 198 0
173 197 0
176 198 0
174 198 0
176 199 0
175 198 0
174 197 0
175 198 0
171 196 0
173 197 0
175 198 0
174 197 0
173 197 0
174 198 0
175 198 0
175 198 0
175 198 0
174 198 0
174 197 0
173 197 0
175 198 0
174 198 0
175 198 0
173 197 0
175 198 0
175 198 0
175 198 0
175 198 0
174 197 0
174 198 0
175 198 0
175 198 0
175 198 0
175 198 0
175 198 0
175 198 0
174 198 0
173 197 0
174 198 0
175 198 0
175 198 0
175 198 0
173 197 0
174 198 0
175 198 0
173 197 0
174 198 0
174 197 0
172 197 0
175 198 0
174 198 0
176 199 0
175 198 0
174 198 0
174 198 0
175 198 0
174 198 0
173 197 0
174 198 0
175 198 0
174 197 0
173 196 0
174 197 0
175 198 0
175 198 0
174 198 0
173 197 0
174 198 0
174 197 0
175 198 0
175 198 0
174 197 0
175 198 0
175 198 0
175 198 0
175 198 0
174 198 0
175 198 0
173 197 0
174 198 0
173 197 0
176 198 0
174 197 0
175 198 0
174 198 0
175 198 0
173 197 0
173 197 0
174 198 0
175 198 0
175 198 0
175 198 0
175 198 0
174 198 0
175 198 0
174 198 0
174 197 0
176 198 0
173 197 0
175 198 0
175 198 0
173 197 0
175 198 0
173 197 0
176 199 0
176 199 0
176 198 0
174 198 0
175 198 0
174 197 0
175 198 0
174 198 0
175 198 0
174 197 0
176 198 0
173 197 0
175 198 0
173 196 0
174 197 0
175 198 0
174 198 0
176 199 0
176 199 0
173 197 0
176 198 0
176 198 0
175 198 0
174 198 0
175 198 0
175 198 0
175 198 0
174 197 0
175 198 0
173 197 0
175 198 0
176 198 0
175 198 0
174 198 0
174 197 0
173 197 0
174 198 0
175 198 0
176 198 0
173 197 0
175 198 0
174 198 0
175 198 0
174 198 0
175 198 0
175 198 0
176 199 0
173 197 0
175 198 0
174 198 0
177 199 0
173 197 0
175 198 0
175 198 0
175 198 0
175 198 0
174 198 0
175 198 0
174 197 0
175 198 0
175 198 0
176 198 0
174 197 0
174 198 0
176 199 0
174 197 0
175 198 0
175 197 0
175 198 0
175 198 0
176 198 0
175 198 0
174 197 0
174 197 0
176 199 0
173 197 0
177 199 0
175 198 0
173 197 0
176 199 0
174 198 0
175 198 0
174 198 0
174 197 0
176 199 0
174 197 0
172 197 0
175 198 0
174 198 0
175 198 0
175 198 0
175 198 0
174 198 0
175 198 0
175 198 0
174 197 0
175 198 0
174 198 0
174 198 0
175 198 0
173 197 0
175 198 0
174 197 0
174 197 0
176 198 0
176 199 0
172 196 0
174 198 0
174 198 0
173 197 0
174 198 0
175 198 0
174 197 0
176 199 0
173 197 0
176 199 0
174 197 0
174 197 0
174 198 0
174 197 0
175 198 0
174 198 0
173 197 0
176 199 0
175 198 0
174 197 0
173 197 0
173 197 0
175 198 0
175 198 0
173 197 0
175 198 0
175 198 0
175 198 0
173 197 0
174 197 0
173 197 0
173 197 0
175 198 0
174 198 0
173 197 0
174 198 0
173 197 0
174 197 0
173 197 0
174 197 0
174 197 0
173 197 0
174 198 0
174 197 0
175 198 0
175 198 0
172 196 0
174 198 0
175 198 0
175 198 0
174 198 0
175 198 0
173 197 0
173 197 0
174 198 0
173 197 0
174 198 0
172 197 0
175 198 0
175 198 0
173 197 0
173 197 0
174 197 0
174 197 0
175 198 0
173 197 0
174 197 0
175 198 0
174 198 0
174 197 0
175 198 0
174 197 0
175 198 0
175 198 0
174 197 0
174 198 0
173 197 0
174 197 0
174 198 0
175 198 0
176 198 0
173 197 0
174 197 0
174 198 0
175 198 0
175 198 0
173 197 0
173 197 0
174 198 0
175 198 0
174 198 0
173 196 0
173 197 0
174 198 0
175 198 0
174 197 0
175 198 0
174 198 0
174 198 0
175 198 0
175 198 0
172 196 0
173 197 0
173 197 0
174 197 0
175 198 0
175 198 0
174 198 0
175 198 0
175 198 0
175 198 0
175 198 0
173 197 0
172 197 0
176 199 0
175 198 0
174 197 0
176 198 0
172 197 0
174 198 0
176 198 0
175 198 0
174 197 0
172 196 0
176 198 0
173 197 0
175 198 0
175 198 0
173 197 0
174 197 0
176 198 0
176 198 0
174 198 0
175 198 0
176 198 0
175 198 0
175 198 0
172 196 0
175 198 0
174 197 0
173 197 0
175 198 0
173 197 0
173 197 0
173 197 0
173 197 0
174 198 0
176 199 0
175 198 0
174 198 0
175 198 0
175 198 0
175 198 0
174 198 0
174 197 0
174 197 0
173 197 0
174 198 0
174 197 0
175 198 0
175 198 0
174 197 0
172 196 0
174 197 0
175 198 0
176 199 0
173 197 0
174 197 0
174 197 0
174 198 0
173 196 0
173 197 0
175 198 0
173 197 0
174 198 0
175 198 0
175 198 0
175 198 0
175 198 0
174 197 0
176 198 0
175 198 0
175 198 0
175 198 0
172 196 0
176 199 0
176 199 0
175 198 0
174 198 0
174 198 0
175 198 0
174 197 0
174 198 0
176 199 0
173 196 0
173 197 0
174 198 0
174 198 0
175 198 0
173 197 0
174 197 0
174 198 0
175 198 0
175 198 0
173 197 0
176 198 0
174 197 0
174 198 0
174 198 0
175 198 0
174 198 0
176 198 0
175 198 0
175 198 0
172 196 0
173 197 0
175 198 0
175 198 0
173 197 0
174 197 0
173 197 0
175 198 0
175 198 0
173 197 0
173 197 0
174 197 0
175 198 0
175 198 0
175 198 0
175 198 0
175 198 0
174 198 0
173 197 0
175 198 0
175 198 0
175 198 0
175 198 0
174 198 0
173 197 0
174 198 0
174 197 0
175 198 0
174 198 0
173 197 0
174 198 0
175 198 0
176 199 0
175 198 0
173 197 0
172 197 0
175 198 0
173 197 0
174 197 0
175 198 0
175 198 0
174 198 0
175 198 0
173 197 0
175 198 0
175 198 0
173 197 0
174 197 0
174 198 0
174 198 0
175 198 0
175 198 0
175 198 0
175 198 0
176 198 0
173 197 0
173 197 0
175 198 0
175 198 0
175 198 0
174 198 0
175 198 0
174 197 0
175 198 0
175 198 0
175 198 0
174 198 0
175 198 0
174 198 0
175 198 0
175 198 0
174 198 0
175 198 0
172 196 0
174 198 0
175 198 0
173 197 0
175 198 0
174 198 0
174 198 0
174 197 0
174 197 0
174 197 0
175 198 0
174 198 0
175 198 0
174 198 0
176 199 0
174 197 0
174 198 0
175 198 0
174 198 0
174 198 0
174 197 0
174 197 0
176 198 0
174 197 0
174 197 0
174 198 0
175 198 0
175 198 0
174 197 0
175 198 0
175 198 0
174 197 0
173 197 0
174 197 0
174 198 0
173 197 0
173 197 0
174 197 0
175 198 0
175 198 0
174 198 0
174 198 0
175 198 0
176 198 0
174 198 0
174 198 0
175 198 0
175 198 0
174 197 0
175 198 0
174 197 0
175 198 0
175 198 0
177 199 0
173 197 0
175 198 0
174 197 0
175 198 0
173 197 0
175 198 0
174 197 0
174 198 0
173 197 0
174 198 0
174 198 0
173 197 0
172 196 0
175 198 0
174 197 0
174 198 0
173 197 0
174 197 0
174 198 0
174 197 0
172 197 0
173 197 0
175 198 0
175 198 0
173 197 0
174 198 0
174 197 0
174 198 0
172 196 0
173 197 0
175 198 0
173 197 0
173 197 0
174 198 0
173 196 0
175 198 0
174 198 0
172 196 0
173 197 0
174 198 0
174 198 0
174 197 0
175 198 0
175 198 0
172 196 0
173 197 0
174 198 0
175 198 0
174 197 0
174 197 0
174 198 0
175 198 0
174 198 0
175 198 0
175 198 0
175 198 0
175 198 0
175 198 0
172 196 0
173 196 0
173 197 0
174 197 0
174 198 0
174 198 0
173 197 0
174 197 0
176 198 0
174 197 0
174 198 0
174 197 0
175 198 0
174 197 0
174 198 0
175 198 0
175 198 0
175 198 0
175 198 0
175 198 0
173 197 0
174 197 0
174 197 0
173 196 0
174 198 0
173 197 0
174 198 0
174 198 0
173 197 0
174 197 0
174 197 0
174 197 0
173 197 0
174 198 0
173 196 0
175 198 0
175 198 0
172 196 0
175 198 0
173 197 0
174 198 0
173 197 0
175 198 0
174 198 0
176 198 0
173 197 0
175 198 0
174 198 0
173 197 0
174 197 0
173 197 0
173 196 0
172 196 0
174 197 0
174 198 0
175 198 0
175 198 0
174 197 0
175 198 0
175 198 0
175 198 0
174 197 0
173 195 0
174 197 0
174 198 0
174 198 0
173 197 0
175 198 0
175 198 0
174 198 0
175 198 0
174 198 0
175 198 0
174 197 0
175 197 0
176 198 0
174 197 0
175 198 0
174 197 0
173 197 0
174 197 0
172 197 0
175 198 0
175 198 0
174 198 0
173 197 0
174 197 0
176 198 0
173 197 0
174 198 0
173 197 0
173 197 0
176 198 0
173 197 0
173 196 0
173 197 0
175 198 0
175 198 0
174 197 0
175 198 0
174 198 0
174 197 0
172 196 0
174 197 0
175 198 0
174 198 0
172 196 0
174 198 0
175 198 0
174 198 0
175 198 0
176 199 0
174 198 0
173 197 0
173 197 0
173 196 0
174 198 0
173 197 0
174 198 0
174 197 0
174 197 0
174 197 0
174 197 0
174 198 0
176 198 0
174 198 0
173 197 0
174 198 0
174 198 0
176 198 0
174 198 0
175 198 0
174 198 0
175 198 0
173 197 0
173 197 0
175 198 0
174 198 0
173 196 0
175 198 0
175 198 0
174 197 0
173 197 0
175 198 0
175 198 0
175 198 0
175 198 0
174 197 0
175 198 0
175 198 0
174 197 0
176 198 0
174 197 0
176 199 0
174 197 0
174 197 0
176 198 0
174 198 0
174 197 0
174 198 0
175 198 0
174 197 0
173 197 0
173 197 0
175 198 0
174 197 0
175 198 0
172 197 0
174 198 0
173 197 0
174 198 0
175 198 0
174 198 0
173 197 0
175 198 0
174 197 0
173 197 0
176 198 0
173 197 0
174 198 0
174 198 0
173 197 0
175 198 0
175 198 0
174 198 0
175 198 0
175 198 0
175 198 0
175 198 0
175 198 0
176 198 0
173 196 0
175 198 0
174 198 0
174 198 0
174 198 0
173 197 0
174 197 0
173 197 0
175 198 0
175 198 0
175 198 0
175 198 0
172 197 0
174 198 0
174 198 0
174 198 0
174 197 0
173 197 0
174 197 0
174 197 0
173 197 0
175 198 0
175 198 0
176 198 0
173 197 0
175 198 0
173 197 0
175 198 0
173 197 0
173 197 0
174 198 0
175 198 0
175 198 0
174 198 0
174 198 0
174 197 0
174 197 0
173 197 0
173 197 0
176 199 0
173 197 0
172 197 0
173 197 0
175 198 0
173 197 0
174 198 0
175 198 0
177 199 0
175 197 0
176 199 0
174 197 0
174 197 0
175 198 0
172 197 0
175 198 0
174 198 0
173 197 0
173 197 0
173 197 0
174 198 0
174 197 0
174 198 0
173 197 0
174 198 0
175 198 0
175 198 0
175 198 0
174 197 0
174 197 0
175 198 0
174 198 0
176 198 0
175 198 0
175 198 0
174 198 0
176 199 0
173 197 0
173 197 0
175 198 0
174 198 0
175 198 0
174 197 0
175 198 0
173 197 0
174 198 0
174 198 0
175 198 0
175 198 0
175 198 0
175 198 0
174 197 0
173 197 0
173 197 0
175 198 0
176 198 0
174 197 0
174 197 0
175 198 0
174 198 0
174 198 0
175 198 0
177 199 0
175 198 0
174 198 0
174 198 0
174 197 0
174 198 0
175 198 0
174 198 0
174 198 0
175 198 0
176 198 0
175 198 0
175 198 0
174 198 0
175 198 0
174 198 0
174 198 0
174 198 0
173 197 0
174 198 0
174 197 0
173 197 0
173 197 0
176 198 0
175 198 0
173 197 0
174 197 0
175 198 0
175 198 0
174 197 0
175 198 0
175 198 0
174 197 0
174 198 0
174 197 0
174 198 0
174 198 0
175 198 0
175 198 0
176 199 0
174 198 0
173 197 0
174 198 0
173 197 0
176 199 0
175 198 0
174 197 0
174 198 0
175 198 0
176 198 0
173 197 0
174 198 0
173 197 0
175 198 0
174 198 0
175 198 0
175 198 0
176 198 0
175 198 0
173 197 0
174 198 0
175 198 0
175 198 0
176 199 0
175 198 0
173 197 0
175 198 0
174 198 0
175 197 0
174 198 0
175 198 0
174 197 0
175 198 0
174 198 0
175 198 0
175 198 0
174 197 0
174 197 0
174 197 0
174 196 0
174 198 0
175 198 0
174 198 0
174 198 0
176 199 0
174 197 0
174 198 0
174 198 0
175 198 0
175 198 0
173 197 0
173 197 0
175 198 0
175 198 0
173 197 0
175 198 0
174 198 0
174 197 0
175 198 0
175 198 0
174 198 0
172 196 0
176 198 0
175 198 0
173 196 0
174 197 0
174 197 0
176 198 0
173 196 0
173 197 0
175 198 0
175 198 0
173 197 0
175 198 0
174 198 0
173 197 0
174 197 0
175 197 0
175 198 0
175 198 0
173 197 0
172 195 0
173 197 0
174 198 0
175 198 0
174 197 0
175 198 0
172 196 0
175 198 0
174 198 0
174 198 0
173 197 0
174 198 0
174 197 0
175 198 0
174 198 0
175 198 0
174 197 0
174 197 0
174 198 0
174 198 0
173 197 0
174 197 0
176 199 0
172 197 0
175 198 0
175 198 0
173 197 0
173 196 0
173 196 0
176 198 0
175 198 0
175 198 0
174 197 0
173 197 0
175 198 0
175 198 0
175 198 0
173 197 0
174 198 0
173 197 0
175 198 0
175 198 0
171 195 0
174 198 0
173 197 0
175 198 0
172 197 0
173 196 0
173 196 0
176 199 0
172 196 0
174 197 0
172 196 0
175 198 0
174 197 0
174 197 0
174 198 0
175 198 0
174 198 0
174 198 0
174 197 0
175 198 0
173 197 0
174 198 0
173 196 0
174 198 0
174 197 0
175 198 0
175 198 0
172 196 0
173 197 0
174 198 0
175 198 0
172 196 0
174 198 0
175 198 0
176 198 0
174 198 0
173 197 0
175 198 0
173 196 0
174 197 0
176 199 0
175 198 0
176 198 0
176 199 0
173 197 0
174 197 0
174 198 0
173 197 0
176 198 0
175 198 0
173 197 0
173 197 0
174 198 0
174 197 0
173 197 0
174 197 0
174 197 0
176 199 0
174 197 0
174 197 0
174 198 0
174 198 0
172 196 0
173 197 0
173 197 0
175 198 0
175 198 0
174 198 0
176 198 0
174 198 0
172 196 0
174 198 0
172 197 0
173 196 0
173 197 0
175 197 0
174 197 0
174 198 0
175 198 0
174 197 0
175 197 0
174 198 0
173 196 0
173 197 0
177 199 0
174 197 0
175 198 0
173 196 0
175 198 0
174 197 0
174 198 0
175 198 0
173 197 0
174 198 0
174 198 0
174 197 0
173 196 0
174 197 0
174 197 0
175 198 0
174 198 0
175 198 0
173 196 0
174 197 0
174 197 0
174 197 0
174 198 0
175 198 0
173 197 0
174 198 0
173 197 0
175 198 0
174 198 0
173 197 0
174 197 0
175 198 0
174 197 0
175 198 0
173 197 0
174 198 0
174 198 0
175 198 0
174 197 0
175 198 0
174 197 0
173 197 0
176 199 0
174 198 0
174 198 0
175 198 0
173 197 0
175 198 0
176 198 0
175 198 0
174 198 0
174 198 0
173 197 0
174 197 0
175 197 0
175 198 0
172 196 0
174 197 0
174 198 0
175 198 0
174 198 0
176 199 0
173 197 0
175 198 0
175 198 0
175 198 0
174 197 0
172 197 0
175 198 0
175 198 0
172 197 0
175 198 0
177 199 0
176 199 0
174 198 0
175 198 0
174 198 0
173 197 0
176 198 0
176 198 0
176 198 0
175 198 0
174 198 0
176 198 0
174 198 0
174 198 0
175 198 0
173 197 0
174 198 0
174 197 0
175 198 0
173 197 0
174 197 0
175 198 0
173 197 0
175 198 0
173 197 0
174 198 0
176 199 0
175 198 0
173 197 0
175 198 0
175 198 0
175 198 0
174 198 0
175 198 0
174 198 0
174 198 0
174 197 0
173 197 0
174 198 0
173 197 0
174 198 0
174 198 0
174 198 0
176 199 0
174 198 0
175 198 0
175 198 0
175 198 0
174 198 0
175 198 0
172 197 0
176 199 0
174 198 0
175 198 0
176 198 0
175 198 0
172 197 0
174 198 0
174 197 0
175 198 0
175 198 0
177 199 0
175 198 0
174 198 0
176 198 0
173 197 0
175 198 0
173 197 0
174 198 0
175 198 0
174 197 0
174 198 0
173 197 0
174 197 0
175 198 0
174 197 0
175 198 0
175 198 0
173 197 0
176 198 0
174 198 0
175 198 0
174 198 0
174 197 0
175 198 0
175 198 0
174 198 0
175 198 0
174 198 0
173 197 0
174 198 0
174 198 0
175 198 0
175 198 0
173 197 0
175 198 0
174 198 0
173 197 0
174 198 0
175 198 0
174 198 0
175 198 0
174 197 0
174 198 0
175 198 0
175 198 0
173 197 0
174 197 0
174 197 0
175 198 0
175 198 0
174 198 0
175 198 0
174 198 0
175 198 0
175 198 0
175 198 0
176 198 0
173 197 0
174 198 0
175 198 0
175 198 0
173 197 0
175 198 0
175 198 0
175 198 0
176 198 0
173 197 0
173 197 0
175 198 0
174 198 0
174 197 0
174 198 0
174 197 0
173 197 0
175 198 0
174 197 0
174 198 0
175 198 0
175 198 0
173 197 0
175 198 0
172 196 0
176 199 0
173 197 0
175 198 0
175 198 0
175 198 0
176 199 0
174 198 0
173 196 0
174 198 0
173 197 0
173 197 0
174 198 0
174 198 0
176 199 0
173 197 0
171 196 0
174 197 0
174 198 0
173 197 0
174 198 0
175 198 0
174 198 0
173 197 0
174 198 0
174 198 0
174 198 0
175 198 0
173 197 0
174 197 0
174 197 0
173 197 0
175 198 0
175 198 0
174 197 0
174 198 0
173 197 0
174 198 0
175 198 0
176 198 0
174 198 0
174 197 0
173 197 0
174 197 0
174 197 0
173 197 0
174 197 0
173 197 0
174 197 0
174 197 0
173 197 0
177 199 0
174 198 0
176 199 0
174 197 0
174 198 0
173 197 0
174 197 0
174 198 0
174 197 0
175 198 0
175 198 0
174 197 0
172 196 0
174 197 0
175 198 0
176 199 0
174 197 0
174 198 0
175 198 0
175 198 0
173 197 0
175 198 0
173 197 0
174 197 0
175 198 0
174 198 0
173 197 0
172 196 0
175 198 0
173 197 0
175 198 0
174 198 0
175 198 0
175 198 0
173 197 0
174 198 0
174 197 0
174 197 0
174 198 0
176 199 0
173 197 0
175 198 0
174 197 0
174 197 0
175 198 0
174 198 0
175 198 0
174 197 0
175 198 0
173 197 0
173 196 0
175 198 0
174 198 0
174 197 0
173 196 0
173 197 0
173 196 0
175 198 0
174 198 0
174 198 0
175 198 0
175 198 0
175 198 0
172 196 0
175 198 0
174 197 0
175 197 0
176 199 0
174 197 0
175 198 0
174 197 0
173 197 0
174 197 0
174 197 0
174 197 0
175 198 0
175 198 0
174 198 0
175 198 0
175 198 0
175 198 0
174 197 0
174 197 0
175 198 0
174 198 0
176 199 0
173 196 0
174 197 0
174 197 0
174 198 0
175 198 0
175 198 0
173 197 0
173 197 0
173 196 0
174 197 0
175 198 0
173 197 0
173 197 0
174 198 0
174 198 0
175 198 0
174 197 0
174 197 0
172 196 0
175 198 0
176 199 0
174 198 0
173 197 0
175 198 0
175 198 0
173 196 0
173 197 0
175 198 0
174 197 0
173 197 0
173 197 0
173 197 0
175 198 0
172 196 0
173 197 0
174 197 0
175 197 0
176 198 0
173 196 0
173 197 0
176 198 0
174 197 0
175 198 0
174 198 0
174 197 0
174 197 0
175 198 0
172 196 0
174 198 0
175 198 0
174 198 0
174 197 0
175 198 0
174 198 0
174 198 0
173 197 0
174 197 0
174 197 0
175 198 0
174 197 0
174 198 0
174 197 0
175 198 0
176 199 0
173 197 0
173 197 0
175 198 0
172 197 0
174 197 0
175 198 0
173 197 0
174 197 0
176 199 0
174 198 0
175 198 0
173 197 0
176 198 0
175 198 0
175 198 0
175 198 0
174 198 0
174 197 0
172 197 0
176 199 0
175 198 0
175 198 0
174 198 0
174 197 0
175 198 0
175 198 0
174 198 0
173 197 0
175 198 0
174 197 0
173 197 0
175 198 0
174 197 0
173 196 0
174 198 0
175 198 0
175 198 0
175 198 0
173 197 0
175 198 0
175 198 0
175 198 0
175 198 0
174 197 0
173 197 0
173 197 0
173 197 0
174 197 0
176 199 0
174 198 0
175 198 0
176 198 0
174 198 0
175 198 0
174 198 0
173 197 0
173 197 0
175 198 0
174 198 0
175 198 0
174 198 0
173 197 0
176 199 0
174 198 0
175 198 0
174 197 0
174 198 0
174 198 0
175 198 0
173 197 0
176 198 0
174 198 0
174 198 0
175 198 0
175 198 0
175 198 0
175 198 0
173 197 0
175 198 0
173 197 0
173 197 0
174 198 0
174 198 0
175 198 0
173 196 0
175 198 0
174 198 0
173 197 0
173 197 0
174 198 0
175 198 0
175 198 0
175 198 0
173 197 0
175 198 0
175 198 0
174 197 0
175 198 0
175 198 0
175 197 0
174 197 0
176 199 0
173 197 0
173 197 0
175 198 0
174 198 0
173 197 0
175 198 0
174 197 0
175 198 0
174 198 0
174 197 0
174 198 0
175 198 0
174 197 0
174 198 0
175 198 0
174 198 0
174 197 0
175 198 0
175 198 0
173 197 0
175 198 0
174 198 0
175 198 0
175 198 0
175 198 0
174 198 0
176 199 0
174 198 0
174 198 0
175 198 0
174 198 0
174 198 0
174 198 0
175 198 0
174 198 0
174 198 0
173 197 0
175 198 0
174 198 0
174 198 0
175 198 0
175 198 0
173 197 0
173 197 0
175 198 0
175 198 0
175 198 0
172 196 0
173 197 0
173 197 0
174 198 0
175 198 0
174 197 0
174 198 0
175 198 0
174 198 0
174 197 0
176 199 0
175 198 0
175 198 0
176 198 0
174 198 0
173 197 0
175 198 0
174 198 0
174 198 0
176 198 0
175 198 0
175 198 0
173 197 0
174 198 0
176 199 0
173 197 0
175 198 0
176 199 0
175 198 0
176 199 0
176 199 0
174 197 0
173 197 0
175 198 0
175 198 0
175 198 0
175 197 0
175 198 0
173 197 0
176 198 0
174 198 0
175 198 0
175 198 0
174 198 0
175 198 0
173 197 0
174 197 0
175 198 0
174 198 0
174 198 0
175 198 0
176 198 0
174 198 0
174 198 0
174 197 0
175 198 0
174 198 0
175 198 0
174 197 0
173 197 0
175 198 0
175 198 0
175 198 0
176 199 0
175 198 0
176 199 0
174 198 0
174 198 0
175 198 0
174 197 0
176 199 0
175 198 0
175 198 0
175 198 0
175 198 0
174 198 0
175 198 0
175 198 0
175 198 0
174 197 0
174 198 0
174 197 0
174 197 0
174 198 0
176 198 0
174 197 0
174 198 0
174 198 0
174 197 0
175 198 0
174 198 0
172 197 0
174 198 0
173 197 0
174 197 0
175 198 0
173 197 0
174 197 0
175 198 0
174 197 0
174 198 0
174 197 0
173 197 0
175 198 0
173 197 0
175 198 0
174 197 0
176 199 0
173 197 0
175 198 0
174 198 0
174 198 0
174 197 0
173 197 0
173 197 0
175 197 0
174 198 0
174 197 0
174 198 0
175 198 0
173 196 0
173 197 0
174 197 0
175 198 0
175 198 0
175 198 0
174 197 0
174 197 0
176 199 0
175 198 0
173 197 0
176 198 0
172 196 0
175 198 0
174 198 0
174 197 0
173 197 0
175 198 0
174 198 0
175 198 0
173 197 0
172 196 0
175 198 0
174 198 0
174 198 0
174 197 0
174 197 0
174 198 0
175 198 0
174 197 0
173 197 0
175 198 0
173 197 0
176 199 0
175 197 0
176 199 0
174 197 0
175 198 0
176 198 0
173 197 0
175 198 0
172 196 0
175 198 0
174 198 0
173 197 0
175 198 0
172 196 0
176 198 0
173 197 0
174 197 0
174 198 0
175 198 0
173 197 0
174 197 0
173 196 0
174 197 0
174 198 0
174 197 0
172 196 0
174 197 0
174 198 0
175 198 0
176 199 0
173 197 0
173 197 0
175 198 0
174 197 0
174 198 0
172 196 0
174 198 0
175 198 0
173 196 0
175 198 0
172 196 0
173 197 0
174 197 0
173 197 0
175 197 0
175 198 0
173 197 0
173 197 0
174 197 0
173 197 0
176 198 0
171 196 0
173 196 0
175 198 0
174 198 0
175 198 0
173 197 0
172 196 0
174 198 0
175 198 0
174 197 0
173 197 0
174 197 0
175 198 0
175 198 0
174 197 0
174 198 0
174 198 0
174 198 0
174 197 0
174 197 0
173 197 0
174 197 0
174 197 0
174 198 0
173 197 0
175 198 0
172 196 0
175 198 0
176 198 0
175 198 0
176 198 0
175 198 0
174 197 0
173 197 0
175 198 0
174 197 0
173 197 0
174 198 0
175 198 0
173 197 0
175 198 0
174 197 0
174 197 0
175 198 0
176 198 0
176 198 0
176 199 0
175 198 0
174 197 0
175 198 0
174 197 0
173 197 0
175 197 0
175 198 0
174 198 0
176 198 0
174 197 0
174 197 0
176 198 0
174 198 0
173 197 0
174 197 0
175 198 0
173 197 0
174 198 0
174 198 0
175 198 0
175 198 0
174 198 0
176 198 0
175 198 0
174 198 0
175 198 0
175 198 0
174 198 0
174 198 0
175 198 0
174 197 0
174 198 0
174 197 0
175 198 0
174 198 0
174 198 0
174 198 0
175 198 0
174 197 0
174 197 0
173 197 0
174 197 0
174 198 0
175 198 0
174 198 0
173 197 0
175 198 0
174 198 0
173 197 0
173 197 0
175 198 0
174 198 0
174 198 0
174 198 0
174 197 0
174 198 0
174 198 0
176 198 0
174 198 0
175 198 0
174 198 0
173 197 0
173 196 0
174 197 0
173 197 0
174 198 0
176 199 0
174 198 0
176 199 0
173 196 0
173 197 0
175 198 0
173 197 0
176 199 0
174 198 0
175 198 0
174 198 0
174 197 0
175 198 0
173 197 0
175 198 0
175 198 0
175 198 0
175 198 0
173 197 0
173 197 0
175 198 0
174 198 0
174 198 0
176 199 0
174 198 0
174 198 0
174 198 0
175 198 0
174 198 0
173 197 0
176 198 0
174 197 0
174 197 0
174 198 0
174 198 0
174 198 0
178 199 0
173 197 0
175 198 0
173 197 0
174 198 0
174 198 0
175 198 0
175 198 0
174 198 0
174 198 0
175 198 0
175 198 0
174 198 0
175 198 0
175 198 0
172 197 0
174 197 0
173 197 0
175 198 0
176 198 0
174 198 0
175 198 0
174 198 0
175 198 0
175 198 0
173 196 0
174 198 0
174 198 0
173 197 0
174 197 0
174 198 0
174 198 0
174 198 0
173 197 0
175 198 0
173 197 0
173 197 0
175 198 0
175 198 0
174 197 0
175 198 0
175 198 0
174 197 0
173 197 0
174 197 0
176 199 0
175 198 0
175 198 0
175 198 0
174 198 0
175 198 0
175 198 0
174 198 0
174 198 0
175 198 0
174 198 0
174 198 0
175 198 0
174 198 0
175 198 0
175 198 0
176 199 0
174 197 0
175 198 0
176 199 0
175 198 0
174 198 0
173 197 0
174 198 0
173 197 0
174 198 0
175 198 0
173 197 0
174 198 0
174 197 0
174 198 0
175 198 0
173 197 0
174 198 0
175 198 0
175 198 0
175 198 0
173 197 0
174 198 0
175 198 0
174 197 0
173 197 0
174 198 0
174 197 0
176 198 0
173 197 0
174 198 0
175 198 0
174 198 0
174 197 0
174 198 0
174 197 0
176 199 0
175 198 0
175 198 0
175 198 0
175 198 0
173 197 0
174 198 0
174 198 0
175 198 0
173 197 0
176 198 0
175 198 0
175 198 0
174 198 0
176 199 0
174 198 0
173 197 0
175 198 0
174 198 0
174 197 0
175 198 0
176 199 0
174 198 0
176 198 0
173 197 0
175 198 0
174 197 0
174 198 0
174 198 0
175 198 0
175 198 0
174 198 0
174 198 0
174 198 0
175 198 0
174 198 0
173 197 0
174 197 0
175 198 0
173 197 0
173 196 0
174 197 0
174 197 0
175 198 0
174 198 0
174 197 0
174 197 0
174 197 0
175 198 0
174 198 0
175 198 0
174 197 0
174 198 0
173 197 0
175 198 0
175 198 0
175 198 0
174 197 0
175 198 0
175 198 0
174 198 0
176 199 0
173 197 0
174 198 0
175 197 0
172 196 0
174 197 0
175 198 0
175 198 0
175 198 0
173 197 0
173 197 0
175 198 0
174 197 0
174 197 0
174 197 0
174 197 0
174 198 0
173 196 0
174 197 0
173 197 0
175 198 0
174 197 0
175 198 0
173 197 0
175 198 0
173 197 0
175 198 0
174 197 0
173 197 0
175 197 0
175 198 0
175 198 0
175 198 0
174 198 0
174 197 0
175 198 0
174 197 0
175 198 0
173 196 0
173 197 0
175 198 0
173 197 0
174 198 0
173 197 0
174 198 0
173 197 0
173 197 0
173 196 0
173 197 0
172 196 0
176 199 0
175 198 0
175 198 0
173 196 0
174 198 0
174 198 0
176 198 0
175 198 0
174 197 0
173 197 0
172 197 0
173 196 0
174 198 0
175 198 0
174 198 0
171 195 0
176 198 0
174 198 0
172 196 0
174 198 0
173 197 0
174 198 0
174 197 0
174 197 0
174 197 0
174 198 0
174 197 0
174 198 0
173 197 0
172 196 0
174 197 0
174 196 0
174 198 0
174 198 0
174 197 0
174 198 0
174 197 0
172 196 0
174 197 0
172 196 0
175 198 0
174 197 0
175 198 0
173 197 0
174 197 0
176 198 0
175 198 0
173 197 0
175 198 0
174 198 0
175 198 0
174 197 0
173 196 0
174 197 0
173 196 0
174 197 0
175 197 0
177 199 0
176 198 0
176 198 0
173 197 0
173 196 0
174 198 0
174 197 0
173 197 0
174 198 0
174 198 0
172 196 0
172 196 0
173 197 0
173 196 0
175 198 0
173 197 0
174 197 0
175 198 0
176 198 0
173 197 0
174 198 0
174 197 0
172 196 0
173 197 0
174 198 0
173 197 0
175 197 0
174 198 0
175 198 0
175 198 0
175 198 0
175 198 0
175 197 0
171 196 0
175 198 0
173 197 0
175 197 0
174 197 0
175 198 0
174 198 0
173 197 0
174 198 0
174 198 0
175 198 0
174 197 0
175 198 0
174 197 0
175 198 0
174 198 0
173 197 0
175 198 0
175 198 0
174 198 0
174 197 0
175 198 0
175 198 0
174 197 0
175 198 0
174 198 0
174 197 0
173 197 0
173 197 0
173 197 0
174 197 0
173 197 0
172 196 0
174 198 0
176 199 0
176 198 0
173 197 0
172 196 0
174 197 0
174 198 0
175 198 0
174 197 0
175 198 0
177 199 0
174 197 0
175 198 0
175 198 0
174 197 0
174 198 0
174 198 0
175 198 0
175 198 0
175 198 0
175 198 0
173 197 0
175 198 0
175 198 0
174 198 0
175 198 0
174 198 0
172 196 0
173 197 0
173 197 0
174 198 0
175 197 0
174 198 0
173 197 0
175 198 0
174 197 0
173 197 0
174 197 0
175 198 0
174 198 0
174 198 0
173 197 0
174 198 0
173 197 0
175 198 0
174 198 0
175 198 0
174 198 0
174 198 0
174 198 0
175 198 0
175 198 0
174 198 0
175 198 0
174 198 0
174 197 0
175 198 0
173 197 0
175 198 0
174 198 0
175 198 0
174 198 0
174 198 0
175 198 0
174 197 0
175 198 0
173 197 0
174 198 0
174 197 0
174 198 0
175 198 0
174 198 0
176 198 0
176 199 0
174 198 0
175 198 0
175 198 0
176 198 0
175 198 0
174 198 0
175 198 0
174 198 0
174 197 0
174 198 0
176 199 0
174 197 0
173 197 0
173 197 0
172 196 0
175 198 0
175 198 0
176 198 0
175 198 0
174 198 0
176 199 0
174 198 0
175 198 0
175 198 0
173 197 0
174 198 0
174 198 0
175 198 0
174 197 0
174 198 0
175 198 0
175 198 0
174 198 0
174 198 0
177 199 0
173 197 0
173 197 0
175 198 0
175 198 0
174 197 0
174 198 0
174 198 0
176 198 0
175 198 0
174 198 0
175 198 0
174 198 0
176 199 0
174 198 0
173 197 0
176 199 0
174 198 0
174 197 0
173 197 0
175 198 0
174 198 0
176 199 0
174 198 0
175 198 0
172 196 0
173 197 0
175 198 0
174 198 0
174 198 0
174 197 0
175 198 0
175 198 0
175 198 0
175 198 0
174 198 0
174 198 0
175 198 0
173 196 0
174 197 0
174 198 0
176 199 0
174 197 0
174 198 0
172 196 0
175 198 0
174 197 0
175 198 0
175 198 0
174 198 0
177 199 0
175 198 0
174 198 0
174 197 0
173 197 0
175 198 0
175 198 0
176 199 0
173 197 0
173 197 0
174 198 0
176 199 0
174 198 0
174 197 0
173 197 0
173 197 0
174 197 0
175 198 0
174 198 0
176 199 0
175 198 0
174 198 0
174 198 0
175 198 0
174 198 0
174 198 0
173 197 0
174 197 0
173 197 0
172 196 0
175 198 0
176 199 0
174 197 0
175 198 0
175 198 0
174 198 0
176 198 0
174 197 0
173 197 0
174 198 0
175 197 0
174 197 0
175 198 0
175 198 0
174 198 0
169 194 0
174 198 0
175 198 0
175 198 0
174 197 0
174 198 0
174 198 0
175 198 0
175 198 0
174 198 0
177 199 0
172 196 0
174 197 0
173 196 0
174 198 0
174 198 0
174 197 0
174 198 0
175 198 0
173 197 0
173 197 0
173 196 0
173 196 0
174 198 0
173 197 0
173 196 0
175 198 0
172 195 0
173 197 0
172 196 0
176 199 0
174 197 0
173 196 0
174 198 0
173 197 0
173 196 0
171 195 0
173 197 0
172 196 0
174 197 0
173 197 0
173 197 0
175 198 0
174 198 0
175 198 0
175 198 0
173 197 0
171 195 0
175 198 0
174 197 0
173 196 0
172 197 0
174 198 0
173 197 0
175 198 0
172 196 0
173 197 0
174 197 0
174 197 0
174 198 0
173 197 0
173 197 0
174 198 0
173 197 0
174 197 0
173 197 0
174 197 0
174 198 0
172 197 0
173 196 0
175 198 0
173 197 0
173 197 0
173 197 0
174 197 0
172 196 0
174 197 0
175 198 0
172 195 0
174 198 0
175 198 0
174 197 0
174 197 0
172 196 0
173 196 0
174 197 0
174 198 0
173 197 0
174 197 0
173 197 0
175 198 0
175 198 0
175 198 0
173 196 0
174 198 0
173 197 0
174 197 0
174 198 0
175 197 0
173 197 0
174 197 0
174 197 0
173 196 0
173 197 0
175 198 0
174 197 0
176 199 0
174 197 0
174 198 0
173 197 0
174 198 0
173 197 0
173 197 0
173 196 0
175 198 0
175 198 0
172 196 0
175 198 0
174 197 0
175 198 0
175 198 0
175 198 0
174 197 0
175 198 0
175 198 0
172 196 0
175 198 0
174 198 0
174 197 0
174 198 0
171 195 0
175 198 0
174 196 0
175 197 0
171 195 0
174 197 0
173 197 0
176 198 0
174 197 0
174 197 0
175 198 0
175 198 0
175 198 0
173 197 0
174 198 0
174 198 0
174 197 0
174 197 0
174 197 0
175 198 0
174 198 0
174 197 0
174 198 0
174 198 0
174 198 0
174 198 0
174 197 0
174 198 0
174 198 0
174 197 0
175 198 0
175 198 0
173 197 0
175 198 0
173 197 0
175 198 0
175 198 0
174 197 0
175 198 0
175 198 0
173 197 0
174 197 0
175 198 0
173 197 0
173 197 0
175 198 0
173 196 0
175 198 0
174 198 0
174 198 0
174 197 0
172 197 0
175 198 0
173 197 0
173 197 0
175 198 0
173 197 0
175 198 0
175 198 0
175 198 0
173 197 0
173 197 0
175 198 0
176 199 0
174 197 0
174 198 0
175 198 0
174 198 0
174 198 0
174 198 0
174 198 0
175 198 0
174 198 0
173 197 0
174 197 0
175 198 0
175 198 0
174 198 0
175 198 0
175 198 0
173 197 0
173 197 0
175 198 0
175 198 0
175 198 0
174 197 0
174 198 0
174 198 0
175 197 0
174 198 0
175 198 0
175 198 0
173 197 0
175 198 0
175 198 0
176 198 0
175 198 0
173 197 0
174 198 0
174 198 0
173 197 0
175 198 0
174 198 0
174 198 0
176 198 0
173 197 0
174 198 0
175 198 0
175 198 0
175 198 0
174 198 0
176 199 0
176 199 0
174 197 0
175 198 0
175 198 0
175 198 0
173 197 0
175 198 0
175 198 0
175 198 0
173 197 0
174 198 0
173 197 0
174 198 0
176 198 0
176 199 0
174 198 0
176 199 0
175 198 0
174 198 0
175 198 0
175 198 0
174 197 0
174 197 0
175 198 0
174 197 0
175 198 0
174 198 0
174 198 0
172 196 0
175 198 0
174 197 0
176 198 0
176 199 0
175 198 0
176 199 0
173 197 0
174 198 0
175 198 0
174 197 0
175 198 0
175 198 0
174 198 0
174 197 0
173 197 0
174 198 0
174 198 0
174 198 0
175 198 0
174 198 0
175 198 0
174 197 0
174 198 0
174 198 0
175 198 0
175 198 0
174 198 0
176 199 0
173 197 0
175 198 0
175 198 0
174 197 0
173 197 0
173 197 0
175 198 0
174 198 0
175 198 0
175 198 0
175 198 0
174 198 0
174 198 0
173 197 0
174 198 0
177 199 0
174 198 0
175 198 0
172 196 0
174 197 0
176 199 0
175 198 0
173 197 0
176 198 0
174 197 0
174 198 0
174 198 0
173 197 0
174 198 0
177 199 0
174 197 0
173 197 0
173 197 0
176 198 0
174 198 0
174 198 0
177 199 0
175 198 0
175 198 0
174 197 0
173 197 0
175 198 0
173 197 0
174 198 0
175 198 0
173 197 0
174 198 0
174 197 0
175 198 0
175 198 0
174 197 0
174 198 0
174 197 0
174 198 0
174 197 0
174 198 0
175 198 0
174 197 0
176 198 0
174 197 0
174 197 0
174 198 0
175 198 0
175 198 0
173 196 0
175 198 0
175 198 0
176 198 0
174 198 0
173 197 0
175 198 0
174 198 0
175 198 0
175 198 0
174 198 0
175 198 0
174 197 0
175 198 0
175 198 0
175 198 0
175 198 0
173 197 0
173 197 0
174 197 0
176 199 0
174 198 0
175 198 0
172 197 0
174 198 0
175 198 0
174 198 0
174 197 0
175 198 0
174 197 0
174 197 0
175 198 0
174 197 0
175 198 0
175 198 0
176 199 0
175 198 0
174 198 0
176 198 0
175 198 0
175 198 0
174 198 0
175 198 0
175 198 0
172 197 0
174 198 0
174 198 0
175 198 0
172 196 0
175 198 0
172 196 0
174 198 0
173 197 0
176 198 0
175 198 0
175 198 0
174 197 0
174 197 0
174 197 0
174 197 0
175 198 0
174 197 0
172 196 0
174 198 0
174 198 0
175 198 0
175 197 0
174 198 0
176 198 0
174 198 0
174 197 0
175 198 0
174 198 0
175 198 0
174 198 0
172 196 0
174 197 0
173 197 0
174 198 0
173 196 0
175 198 0
175 198 0
173 197 0
173 197 0
173 197 0
174 197 0
175 198 0
174 197 0
174 197 0
174 198 0
175 198 0
173 197 0
174 198 0
175 198 0
176 198 0
173 197 0
174 198 0
174 198 0
174 198 0
175 198 0
174 197 0
173 197 0
174 197 0
174 198 0
174 197 0
173 197 0
172 196 0
174 197 0
174 197 0
174 198 0
172 196 0
173 197 0
175 198 0
173 196 0
175 198 0
176 198 0
176 198 0
172 196 0
174 197 0
174 197 0
175 198 0
173 197 0
175 197 0
172 196 0
173 197 0
173 197 0
172 196 0
173 197 0
174 197 0
172 197 0
175 198 0
174 197 0
173 196 0
174 198 0
175 197 0
174 198 0
173 197 0
173 197 0
175 198 0
172 196 0
175 198 0
174 197 0
175 198 0
173 197 0
175 198 0
174 197 0
175 198 0
174 197 0
173 196 0
173 197 0
172 196 0
173 197 0
173 197 0
175 198 0
176 198 0
173 196 0
174 197 0
174 197 0
174 197 0
174 197 0
175 198 0
176 198 0
174 198 0
176 198 0
175 198 0
175 198 0
173 196 0
175 198 0
176 198 0
175 198 0
174 198 0
175 198 0
174 197 11
174 198 0
174 198 0
177 199 11
174 197 0
174 197 11
175 197 16
172 196 11
174 197 0
172 195 0
174 197 11
174 198 0
174 198 0
173 197 0
173 197 0
173 197 0
175 197 0
175 198 0
176 199 0
173 197 0
174 198 0
174 197 0
174 197 0
173 197 0
175 198 0
175 198 0
173 197 0
175 198 0
174 198 0
174 198 0
174 197 0
175 198 0
175 198 0
175 198 0
175 198 0
175 198 0
175 198 0
173 197 0
174 197 0
174 197 0
174 198 0
175 198 0
175 198 0
175 198 0
173 197 0
175 198 0
174 198 0
174 198 0
174 197 0
174 197 0
175 198 0
172 196 0
176 199 0
173 197 0
174 198 0
173 197 0
175 198 0
174 197 0
174 198 0
175 198 0
173 197 0
173 197 0
172 197 0
172 197 0
175 198 0
175 198 0
174 197 0
174 198 0
174 197 0
174 197 0
175 198 0
172 196 0
175 198 0
174 198 0
175 198 0
175 198 0
175 198 0
177 199 0
174 198 0
176 199 0
175 198 0
173 197 0
174 197 0
174 197 0
175 198 0
173 197 0
173 197 0
174 197 0
176 199 0
174 198 0
174 198 0
175 198 0
174 197 0
174 198 0
175 198 0
175 198 0
175 198 0
173 197 0
173 197 0
175 198 0
174 198 0
174 198 0
173 197 0
175 198 0
174 197 0
172 196 0
175 198 0
175 198 0
176 198 0
175 198 0
174 197 0
175 198 0
175 198 0
176 199 0
175 198 0
175 198 0
171 196 0
173 197 0
172 196 0
174 197 0
175 198 0
175 198 0
173 197 0
173 197 0
174 198 0
175 198 0
173 197 0
175 198 0
174 198 0
174 198 0
175 198 0
174 198 0
174 198 0
175 198 0
174 198 0
174 198 0
176 199 0
174 197 0
175 198 0
175 198 0
175 198 0
175 198 0
175 198 0
173 197 0
174 197 0
175 198 0
173 197 0
174 198 0
174 198 0
175 198 0
175 198 0
174 198 0
174 198 0
175 198 0
175 198 0
174 197 0
175 198 0
174 197 0
173 197 0
173 197 0
174 198 0
174 197 0
176 199 0
174 198 0
175 198 0
175 198 0
175 198 0
175 198 0
175 198 0
175 198 0
174 197 0
175 198 0
175 198 0
174 197 0
174 198 0
175 198 0
173 197 0
174 198 0
174 198 0
175 198 0
174 197 0
174 198 0
175 198 0
175 198 0
174 197 0
174 198 0
173 197 0
175 198 0
174 198 0
174 198 0
175 198 0
174 198 0
175 198 0
175 198 0
174 198 0
174 198 0
173 197 0
174 197 0
173 197 0
174 198 0
173 197 0
175 198 0
173 197 0
173 197 0
176 199 0
174 198 0
173 197 0
175 198 0
175 198 0
174 198 0
173 197 0
173 196 0
174 197 0
173 196 0
173 197 0
173 197 0
175 198 0
173 197 0
175 198 0
173 196 0
173 197 0
175 198 0
173 196 0
176 199 0
175 198 0
173 197 0
174 198 0
172 197 0
176 199 0
173 197 0
176 199 0
175 198 0
174 198 0
174 197 0
175 198 0
175 198 0
173 197 0
175 198 0
174 197 0
175 198 0
172 197 0
175 198 0
174 197 0
175 198 0
172 196 0
175 198 0
173 196 0
176 198 0
175 198 0
175 198 0
173 197 0
174 197 0
175 198 0
174 197 0
175 198 0
175 198 0
174 197 0
173 197 0
174 197 0
174 197 0
173 197 0
176 199 0
174 198 0
174 197 0
174 198 0
174 198 0
174 197 0
175 198 0
173 197 0
174 198 0
175 198 0
174 198 0
174 198 0
173 197 0
176 199 0
174 197 0
173 197 0
174 198 0
174 197 0
174 198 0
175 198 0
174 197 0
175 198 0
174 197 0
175 198 0
174 198 0
174 198 0
175 198 0
174 198 0
172 195 0
174 198 0
174 198 0
173 196 0
176 199 0
173 197 0
174 197 0
174 197 0
175 198 0
175 198 0
171 195 0
174 197 0
173 197 0
174 198 0
174 197 0
172 195 0
172 196 0
174 197 0
174 197 0
174 197 0
175 198 0
174 198 0
175 198 0
175 198 0
174 198 0
173 197 0
175 198 0
173 197 0
172 196 0
175 198 0
173 197 0
173 197 0
173 197 0
173 197 0
172 196 0
174 198 0
173 197 0
174 198 0
174 197 0
174 197 0
175 198 0
174 197 0
174 198 0
175 198 0
174 197 0
175 198 0
175 198 0
175 198 0
172 197 0
174 197 0
175 198 0
175 198 0
175 198 0
175 198 0
174 197 0
175 198 0
174 198 0
173 196 0
173 197 0
173 196 0
173 197 0
175 198 0
175 198 0
173 197 0
174 197 0
173 197 0
176 199 0
175 198 0
174 198 0
176 198 0
172 195 0
175 198 0
176 199 0
174 197 0
175 198 0
173 197 0
172 195 0
174 197 0
174 197 0
172 196 0
174 198 0
175 198 0
174 198 0
174 198 0
173 197 0
171 196 0
174 198 0
172 196 0
175 197 0
174 197 0
172 196 0
173 197 0
173 197 0
172 197 0
173 197 0
174 197 0
173 197 0
176 198 0
174 197 0
173 197 0
175 198 0
174 198 0
174 197 0
172 196 0
174 197 0
175 197 0
172 195 0
176 198 11
175 197 16
173 195 16
172 195 0
174 196 19
170 192 19
172 193 28
168 189 28
172 193 25
167 186 32
173 195 22
168 188 30
173 192 34
170 192 11
171 192 22
173 195 11
171 193 11
174 196 11
174 197 11
175 198 11
175 197 0
173 196 0
174 197 0
174 198 0
174 197 0
175 198 0
175 198 0
173 196 0
173 196 0
173 197 0
174 197 0
173 196 0
173 196 0
173 197 0
175 198 0
175 198 0
174 198 0
174 197 0
174 198 0
174 197 0
174 198 0
174 197 0
175 198 0
172 196 0
176 198 0
173 197 0
174 198 0
175 198 0
173 197 0
173 197 0
175 198 0
175 198 0
174 197 0
175 198 0
175 198 0
174 197 0
175 198 0
174 198 0
175 198 0
175 198 0
173 197 0
175 198 0
176 198 0
174 197 0
174 198 0
173 197 0
175 198 0
173 197 0
174 198 0
175 198 0
174 198 0
173 197 0
175 197 0
175 198 0
175 198 0
174 198 0
174 198 0
174 198 0
173 197 0
173 197 0
175 198 0
174 197 0
175 198 0
173 197 0
174 198 0
176 198 0
174 197 0
176 199 0
174 197 0
174 197 0
176 199 0
174 197 0
174 198 0
174 197 0
173 197 0
175 198 0
175 198 0
176 198 0
173 197 0
175 198 0
174 197 0
174 197 0
176 199 0
176 199 0
175 198 0
173 197 0
173 197 0
175 198 0
173 197 0
175 198 0
175 198 0
174 197 0
174 197 0
176 199 0
176 198 0
175 198 0
175 198 0
175 198 0
175 198 0
174 197 0
175 198 0
174 197 0
174 197 0
173 197 0
174 197 0
175 198 0
173 197 0
175 198 0
174 197 0
175 198 0
173 197 0
174 198 0
174 198 0
174 197 0
175 198 0
175 198 0
174 198 0
174 197 0
174 197 0
173 197 0
174 198 0
175 198 0
174 198 0
174 198 0
174 198 0
175 198 0
174 197 0
174 198 0
174 198 0
173 197 0
174 198 0
174 197 0
174 198 0
176 198 0
174 198 0
175 198 0
175 198 0
174 198 0
174 198 0
174 198 0
173 197 0
175 198 0
175 198 0
175 198 0
174 198 0
175 198 0
174 198 0
174 198 0
173 197 0
176 198 0
174 198 0
176 198 0
175 198 0
173 197 0
173 197 0
176 198 0
174 198 0
175 198 0
175 198 0
173 197 0
174 197 0
173 197 0
175 198 0
174 197 0
176 198 0
174 198 0
175 198 0
176 198 0
175 198 0
174 197 0
175 198 0
174 197 0
177 199 0
173 197 0
174 198 0
174 198 0
173 196 0
175 198 0
174 198 0
173 197 0
174 197 0
174 198 0
173 197 0
174 198 0
174 198 0
174 197 0
173 197 0
174 198 0
176 198 0
174 198 0
176 198 0
174 198 0
174 198 0
176 199 0
175 198 0
175 198 0
175 198 0
175 198 0
173 197 0
174 197 0
174 198 0
172 197 0
175 198 0
176 199 0
173 197 0
173 197 0
174 197 0
174 197 0
175 198 0
173 197 0
174 197 0
172 196 0
174 197 0
174 197 0
175 198 0
174 198 0
172 196 0
175 198 0
174 198 0
175 198 0
174 197 0
174 198 0
174 198 0
175 198 0
174 197 0
175 198 0
174 197 0
174 197 0
174 198 0
173 197 0
175 198 0
173 197 0
172 196 0
174 198 0
174 197 0
175 198 0
174 198 0
175 198 0
174 197 0
176 199 0
174 198 0
174 197 0
174 197 0
172 196 0
172 196 0
174 197 0
175 198 0
174 197 0
175 198 0
174 198 0
175 198 0
173 197 0
173 196 0
174 197 0
174 198 0
174 197 0
176 199 0
175 198 0
174 197 0
174 197 0
174 197 0
174 197 0
174 197 0
173 197 0
174 198 0
175 198 0
174 197 0
175 198 0
173 196 0
173 197 0
175 198 0
176 199 0
173 197 0
176 199 0
176 199 0
174 197 0
173 196 0
173 196 0
172 196 0
173 197 0
173 196 0
175 198 0
174 197 0
175 198 0
174 198 0
175 198 0
172 196 0
175 198 0
174 197 0
174 198 0
176 198 0
174 197 0
174 198 0
173 197 0
173 196 0
176 199 0
173 196 0
173 196 0
175 198 0
174 197 0
175 198 0
174 197 0
175 198 0
174 197 0
176 198 0
175 197 0
174 198 0
173 197 0
174 198 0
175 198 0
172 195 0
173 197 0
174 197 0
175 198 0
174 198 0
173 197 0
173 197 0
176 198 0
172 196 0
174 197 0
174 197 0
174 197 0
174 197 0
175 198 0
174 197 0
173 197 0
173 197 0
173 197 0
174 197 0
171 194 0
171 195 0
172 195 0
173 196 0
173 197 0
176 198 0
174 198 0
174 197 0
173 197 0
173 197 0
174 197 0
174 197 0
173 197 0
175 198 0
175 198 0
172 197 0
174 198 0
173 197 0
174 197 0
174 197 0
175 198 0
172 196 0
174 197 0
173 196 0
174 197 0
173 197 0
175 198 0
175 198 0
174 197 0
172 195 0
174 197 0
174 196 0
174 197 0
175 198 0
172 195 0
173 197 0
175 198 0
173 196 0
174 198 0
174 198 0
174 197 0
173 197 0
174 198 0
173 197 0
174 197 0
174 197 0
174 197 0
174 196 11
173 195 0
173 196 0
173 195 22
174 195 25
170 194 0
170 192 19
171 190 32
168 188 32
171 189 34
169 185 45
167 184 39
167 183 47
161 178 41
163 180 41
163 181 42
166 183 44
162 181 36
173 189 48
170 189 37
167 186 32
167 187 25
171 191 30
171 189 34
172 194 16
172 195 16
174 198 0
174 198 0
175 197 0
176 199 0
172 196 0
173 197 0
174 198 0
175 198 0
175 198 0
174 198 0
174 197 0
174 198 0
175 198 0
174 198 0
176 198 0
174 197 0
173 197 0
174 197 0
174 198 0
176 199 0
173 197 0
174 198 0
172 197 0
175 198 0
175 198 0
175 198 0
174 197 0
175 198 0
175 198 0
175 198 0
174 198 0
175 198 0
174 197 0
175 198 0
174 198 0
175 198 0
174 198 0
174 198 0
174 197 0
174 198 0
174 197 0
174 198 0
174 198 0
174 198 0
173 197 0
174 198 0
175 198 0
173 197 0
174 197 0
175 198 0
172 196 0
172 196 0
175 198 0
173 197 0
175 198 0
174 198 0
174 197 0
174 197 0
174 198 0
174 198 0
176 199 0
175 198 0
176 199 0
174 198 0
174 198 0
175 198 0
174 198 0
174 198 0
175 198 0
175 198 0
175 198 0
174 197 0
176 199 0
173 197 0
176 199 0
172 196 0
174 197 0
173 197 0
176 199 0
175 198 0
174 198 0
174 198 0
174 198 0
174 198 0
174 198 0
174 197 0
173 197 0
174 198 0
174 197 0
174 197 0
174 197 0
175 198 0
174 197 0
174 198 0
175 198 0
174 197 0
174 197 0
173 197 0
175 198 0
175 198 0
174 197 0
173 197 0
173 197 0
175 198 0
176 198 0
174 198 0
173 197 0
174 197 0
174 198 0
175 198 0
173 197 0
174 197 0
173 197 0
174 198 0
174 197 0
175 198 0
173 197 0
175 198 0
174 198 0
175 198 0
173 197 0
175 198 0
175 198 0
174 197 0
173 197 0
174 198 0
174 198 0
176 198 0
174 198 0
173 197 0
175 197 0
174 198 0
175 198 0
174 198 0
173 197 0
176 199 0
175 198 0
174 198 0
175 198 0
174 198 0
174 197 0
174 198 0
175 198 0
174 198 0
175 198 0
175 198 0
175 198 0
175 198 0
176 199 0
175 198 0
174 198 0
174 198 0
175 198 0
176 199 0
176 198 0
175 198 0
176 199 0
174 197 0
173 197 0
175 198 0
174 197 0
176 199 0
176 198 0
174 198 0
176 198 0
174 198 0
173 197 0
174 197 0
174 197 0
175 198 0
174 198 0
174 198 0
175 198 0
175 198 0
176 199 0
176 198 0
174 197 0
174 198 0
175 198 0
175 198 0
175 198 0
174 198 0
173 197 0
176 199 0
174 198 0
174 198 0
174 198 0
173 197 0
174 198 0
174 198 0
175 197 0
174 197 0
175 198 0
173 197 0
175 198 0
174 198 0
174 198 0
174 198 0
174 198 0
173 197 0
173 197 0
175 198 0
173 197 0
175 198 0
174 197 0
175 198 0
174 197 0
176 199 0
175 198 0
177 199 0
174 197 0
172 196 0
173 197 0
175 198 0
174 198 0
174 197 0
174 198 0
174 197 0
174 197 0
175 198 0
173 196 0
174 197 0
175 198 0
174 198 0
174 197 0
174 198 0
174 198 0
174 198 0
176 198 0
175 198 0
175 198 0
173 197 0
174 197 0
174 197 0
173 197 0
173 197 0
174 197 0
174 197 0
173 197 0
174 197 0
175 198 0
174 198 0
173 197 0
176 199 0
174 198 0
176 198 0
174 198 0
175 198 0
173 197 0
174 197 0
173 197 0
175 198 0
174 198 0
173 197 0
175 198 0
175 198 0
174 197 0
175 198 0
174 198 0
173 196 0
173 197 0
174 198 0
172 196 0
173 197 0
175 198 0
174 198 0
173 197 0
173 197 0
175 198 0
175 198 0
175 198 0
174 197 0
174 198 0
176 199 0
174 198 0
174 198 0
174 198 0
175 198 0
175 198 0
174 198 0
175 198 0
174 197 0
175 197 0
174 198 0
174 197 0
173 196 0
174 197 0
177 199 0
173 196 0
174 197 0
174 197 0
175 198 0
173 197 0
174 197 0
173 197 0
175 198 0
173 197 0
174 196 0
173 197 0
175 198 0
174 198 0
172 196 0
174 197 0
174 197 0
174 197 0
173 197 0
175 198 0
174 198 0
173 196 0
175 198 0
174 197 0
173 196 0
174 197 0
175 198 0
174 197 0
174 197 0
173 197 0
173 197 0
173 197 0
172 196 0
176 198 0
176 198 0
171 195 0
173 197 0
175 198 0
174 197 0
173 197 0
173 196 0
172 195 0
175 198 0
176 198 0
173 197 0
174 197 0
174 197 0
174 198 0
174 197 0
172 197 0
172 196 0
174 197 0
173 196 0
174 197 0
175 198 0
174 196 0
173 196 0
174 198 0
174 198 0
174 197 0
175 198 0
174 197 0
174 198 0
174 196 0
175 197 0
174 198 0
173 197 0
176 199 0
175 198 0
173 197 0
171 195 0
174 198 0
174 197 0
174 197 0
175 198 0
174 198 0
173 197 0
174 198 0
173 197 0
173 197 0
176 199 0
174 197 0
174 197 0
173 197 0
174 197 0
174 197 11
174 197 19
176 196 32
172 193 28
167 187 28
170 191 36
166 186 30
169 187 41
169 186 47
166 183 45
165 182 41
164 180 52
162 177 51
159 172 52
156 168 56
163 178 52
162 174 57
170 182 63
163 173 64
159 176 47
158 172 47
163 179 44
165 182 41
165 180 49
168 184 51
169 188 36
174 191 42
171 193 22
171 191 36
170 193 25
175 196 19
174 198 0
174 197 0
174 197 0
175 198 0
176 198 0
175 198 0
173 197 0
173 197 0
173 196 0
172 196 0
171 195 0
173 197 0
174 197 0
173 197 0
174 197 0
175 198 0
175 198 0
175 198 0
176 198 0
174 197 0
175 198 0
174 197 0
173 197 0
174 197 0
174 198 0
175 198 0
171 194 0
174 197 0
175 198 0
175 198 0
174 197 0
175 198 0
174 197 0
175 198 0
174 198 0
175 198 0
174 197 0
173 197 0
174 198 0
173 197 0
176 199 0
174 197 0
174 198 0
173 197 0
174 198 0
174 198 0
175 198 0
174 197 0
173 196 0
174 198 0
175 198 0
175 198 0
175 198 0
175 198 0
174 198 0
175 198 0
174 197 0
175 198 0
175 198 0
174 198 0
173 197 0
173 197 0
176 199 0
175 198 0
173 197 0
173 197 0
174 198 0
175 198 0
174 197 0
175 198 0
174 197 0
175 198 0
174 197 0
175 198 0
174 197 0
174 197 0
175 198 0
174 197 0
175 198 0
174 197 0
174 197 0
174 198 0
175 198 0
176 198 0
173 197 0
175 198 0
175 198 0
174 198 0
173 197 0
173 197 0
176 199 0
175 198 0
173 197 0
176 199 0
176 198 0
176 199 0
176 199 0
176 198 0
177 199 0
173 197 0
175 198 0
175 198 0
174 197 0
176 199 0
175 198 0
174 198 0
173 197 0
177 199 0
174 197 0
174 198 0
173 197 0
175 198 0
174 198 0
175 198 0
176 198 0
176 198 0
175 198 0
175 198 0
173 197 0
175 198 0
175 198 0
175 198 0
174 198 0
173 197 0
174 197 0
176 199 0
175 198 0
175 198 0
176 199 0
174 198 0
176 199 0
175 198 0
173 197 0
174 197 0
175 198 0
174 197 0
175 198 0
174 198 0
175 198 0
174 198 0
174 197 0
175 198 0
174 197 0
174 198 0
175 198 0
174 197 0
173 197 0
174 197 0
174 198 0
173 197 0
174 198 0
174 198 0
174 198 0
175 198 0
174 197 0
175 198 0
176 198 0
173 197 0
173 196 0
175 198 0
173 197 0
175 198 0
176 199 0
175 198 0
173 197 0
173 197 0
175 198 0
175 198 0
175 198 0
173 197 0
174 198 0
174 197 0
175 198 0
174 198 0
174 198 0
173 197 0
173 197 0
173 197 0
174 197 0
172 196 0
174 197 0
174 198 0
173 197 0
174 197 0
175 198 0
175 198 0
174 197 0
174 198 0
175 198 0
173 196 0
172 196 0
175 198 0
174 198 0
174 198 0
174 198 0
173 197 0
175 198 0
174 198 0
175 198 0
174 198 0
174 197 0
175 198 0
175 198 0
174 198 0
174 197 0
175 198 0
173 197 0
174 198 0
173 197 0
173 197 0
174 198 0
175 198 0
173 197 0
173 197 0
174 197 0
174 197 0
174 198 0
174 197 0
173 196 0
173 197 0
175 198 0
175 198 0
175 198 0
174 197 0
173 197 0
175 198 0
174 197 0
172 196 0
174 198 0
175 198 0
174 198 0
174 198 0
174 197 0
175 198 0
175 198 0
173 197 0
173 197 0
175 198 0
175 198 0
174 197 0
174 198 0
176 198 0
175 198 0
176 198 0
173 197 0
176 199 0
174 198 0
174 198 0
175 198 0
173 197 0
174 198 0
174 198 0
174 198 0
174 198 0
173 197 0
175 198 0
175 198 0
172 196 0
175 198 0
174 198 0
174 198 0
174 197 0
173 197 0
173 197 0
174 197 0
174 198 0
176 199 0
172 196 0
175 197 0
173 197 0
174 197 0
176 199 0
174 197 0
173 197 0
174 197 0
175 198 0
174 198 0
174 198 0
174 197 0
173 197 0
175 198 0
174 198 0
174 197 0
174 197 0
173 197 0
171 195 0
173 197 0
175 198 0
173 197 0
174 197 0
174 197 0
174 198 0
174 197 0
173 197 0
174 198 0
173 197 0
176 198 0
175 198 0
174 197 0
173 197 0
172 196 0
175 198 0
173 197 0
174 197 0
175 198 0
173 197 0
172 195 0
174 198 0
174 197 0
174 197 0
175 198 0
172 196 0
174 198 0
174 197 0
174 197 0
174 196 0
174 197 0
175 198 0
175 198 0
175 198 0
174 197 0
172 196 0
172 197 0
173 196 0
174 198 0
173 196 0
173 196 0
175 198 0
174 197 0
174 198 0
172 196 0
174 197 0
174 197 0
172 196 0
172 196 0
174 198 0
175 197 0
173 196 0
173 196 0
173 197 0
174 197 0
176 199 0
174 197 0
174 198 0
175 197 0
174 198 0
172 196 0
173 197 0
174 197 0
174 197 0
174 197 0
174 198 0
175 198 0
174 197 0
174 197 0
173 197 0
173 197 0
175 198 0
175 198 0
174 198 0
174 198 0
177 199 0
176 199 0
173 197 0
175 198 0
174 197 0
174 198 0
172 195 16
168 190 11
174 194 30
171 191 25
166 185 34
165 184 32
164 180 42
164 181 44
164 179 51
163 176 54
162 175 57
160 174 56
155 167 57
164 173 69
160 170 64
158 169 60
159 166 69
157 163 73
161 170 68
154 165 59
160 166 73
152 160 68
164 174 64
161 170 67
163 175 60
159 171 58
159 170 60
165 179 53
163 178 52
164 180 47
157 176 36
170 189 34
169 189 37
173 194 22
169 192 11
174 196 11
174 198 0
173 197 0
172 196 0
172 196 0
175 198 0
175 198 0
174 198 0
174 198 0
174 198 0
175 197 0
172 196 0
174 197 0
173 197 0
175 198 0
174 198 0
175 198 0
174 197 0
173 196 0
175 198 0
174 198 0
174 197 0
174 197 0
172 196 0
173 197 0
175 198 0
174 197 0
175 198 0
174 198 0
175 198 0
173 197 0
175 198 0
174 198 0
176 199 0
174 197 0
173 197 0
174 198 0
173 197 0
177 199 0
175 198 0
173 197 0
175 198 0
173 197 0
175 198 0
174 198 0
174 198 0
175 198 0
175 198 0
174 198 0
175 198 0
173 197 0
175 198 0
176 198 0
174 198 0
174 197 0
174 198 0
174 197 0
175 198 0
173 196 0
175 198 0
174 197 0
175 198 0
176 198 0
174 198 0
174 198 0
174 198 0
175 198 0
175 198 0
174 197 0
175 198 0
174 197 0
173 197 0
174 197 0
174 198 0
175 198 0
174 198 0
174 198 0
173 197 0
174 198 0
173 197 0
174 198 0
175 198 0
176 198 0
174 198 0
174 198 0
175 198 0
175 198 0
173 197 0
173 197 0
175 198 0
175 198 0
173 197 0
174 197 0
174 197 0
175 198 0
174 197 0
174 198 0
174 198 0
174 198 0
174 197 0
175 198 0
175 198 0
176 199 0
173 197 0
174 198 0
173 197 0
174 197 0
174 198 0
176 199 0
172 197 0
175 198 0
174 198 0
175 198 0
174 198 0
174 197 0
174 198 0
175 198 0
175 198 0
176 199 0
175 198 0
175 198 0
174 198 0
174 198 0
174 197 0
175 198 0
173 197 0
174 198 0
174 197 0
173 197 0
174 198 0
175 198 0
174 198 0
174 197 0
174 198 0
175 198 0
174 198 0
174 198 0
173 197 0
175 198 0
174 197 0
174 198 0
174 198 0
173 197 0
175 198 0
173 197 0
176 199 0
176 199 0
173 197 0
173 197 0
174 198 0
174 197 0
175 198 0
176 198 0
172 196 0
174 198 0
174 197 0
175 198 0
175 198 0
174 198 0
171 196 0
175 198 0
175 198 0
176 198 0
175 198 0
174 198 0
175 198 0
177 199 0
175 198 0
175 198 0
176 199 0
174 197 0
174 198 0
174 197 0
175 198 0
174 197 0
175 198 0
175 198 0
176 198 0
174 197 0
176 199 0
174 198 0
174 198 0
175 198 0
175 197 0
175 198 0
174 197 0
174 198 0
174 197 0
175 198 0
175 198 0
173 197 0
175 198 0
175 198 0
174 198 0
175 198 0
173 197 0
173 196 0
175 198 0
174 198 0
173 197 0
174 198 0
173 197 0
174 198 0
175 198 0
175 198 0
174 198 0
174 198 0
173 196 0
174 198 0
174 197 0
173 197 0
174 198 0
176 198 0
175 198 0
174 198 0
173 197 0
174 198 0
175 198 0
174 197 0
175 198 0
175 198 0
174 198 0
174 198 0
174 197 0
176 199 0
173 197 0
174 198 0
174 198 0
175 198 0
175 198 0
176 198 0
174 198 0
175 198 0
173 197 0
175 198 0
176 199 0
174 198 0
175 197 0
174 198 0
174 197 0
174 198 0
174 198 0
175 198 0
174 197 0
175 198 0
173 197 0
174 197 0
174 197 0
175 198 0
173 197 0
173 197 0
176 198 0
171 196 0
174 197 0
172 196 0
174 197 0
174 197 0
173 197 0
174 196 0
173 196 0
175 198 0
175 198 0
174 198 0
174 197 0
174 197 0
174 198 0
174 198 0
174 197 0
173 197 0
174 197 0
174 198 0
176 198 0
175 197 0
173 197 0
174 198 0
175 198 0
173 197 0
174 197 0
175 197 0
174 198 0
174 198 0
174 198 0
173 197 0
174 197 0
175 197 0
174 197 0
173 197 0
173 197 0
172 196 0
175 198 0
173 197 0
172 196 0
174 198 0
176 198 0
175 198 0
171 194 0
174 197 0
172 196 0
174 198 0
174 197 0
173 197 0
175 198 0
173 197 0
171 195 0
172 195 0
174 197 0
175 198 0
173 196 0
174 197 0
173 196 0
173 195 0
175 197 0
173 197 0
174 197 0
175 198 0
173 197 0
173 196 0
174 198 0
173 196 0
173 196 0
173 196 0
174 197 0
174 197 0
174 197 0
174 197 0
176 198 0
174 197 0
175 198 0
172 196 0
175 198 0
174 198 0
174 197 0
174 197 0
172 196 0
175 198 0
175 198 0
174 198 0
173 196 0
175 198 0
172 196 0
174 197 0
172 196 0
173 197 0
176 198 0
174 197 0
174 198 0
173 196 0
174 198 0
172 195 0
170 194 0
175 198 0
174 197 0
174 197 0
173 196 0
174 198 0
173 197 0
174 197 0
172 196 0
174 197 0
173 196 0
174 197 0
174 197 0
172 195 0
172 195 11
170 192 19
170 191 19
164 184 25
164 180 47
165 180 52
164 181 45
162 177 44
165 180 53
165 176 58
165 178 58
162 170 69
163 169 75
160 168 67
158 165 73
156 160 78
158 162 78
160 161 84
158 160 85
152 156 78
167 168 88
151 155 74
152 153 80
155 160 75
147 150 71
157 163 74
154 159 72
161 167 73
157 165 67
157 164 71
153 163 60
162 175 58
170 183 59
166 180 52
168 185 48
167 185 42
171 189 36
169 190 19
169 190 16
171 193 19
173 196 0
173 197 0
172 196 0
175 198 0
175 198 0
176 198 0
174 197 0
175 198 0
174 198 0
174 197 0
175 198 0
175 198 0
174 197 0
174 197 0
174 197 0
172 197 0
176 199 0
175 198 0
173 197 0
174 198 0
174 197 0
175 198 0
175 198 0
175 198 0
173 197 0
174 198 0
175 198 0
175 198 0
175 198 0
174 197 0
176 199 0
174 197 0
174 197 0
175 197 0
173 196 0
174 197 0
174 197 0
175 198 0
172 197 0
174 198 0
173 197 0
174 198 0
174 198 0
174 197 0
173 197 0
174 198 0
175 198 0
175 198 0
174 198 0
175 198 0
174 197 0
175 198 0
174 197 0
174 198 0
174 198 0
174 198 0
174 197 0
175 198 0
174 198 0
176 198 0
175 198 0
175 198 0
175 198 0
175 198 0
175 198 0
174 198 0
174 197 0
175 198 0
174 197 0
173 197 0
175 198 0
176 198 0
173 197 0
175 198 0
174 198 0
174 197 0
175 198 0
173 197 0
176 198 0
176 199 0
174 198 0
175 198 0
175 198 0
175 198 0
174 197 0
174 198 0
173 197 0
172 197 0
176 199 0
173 197 0
174 198 0
176 199 0
174 198 0
174 197 0
175 198 0
174 198 0
174 197 0
174 198 0
175 198 0
176 198 0
174 198 0
174 198 0
176 198 0
175 198 0
174 198 0
173 197 0
174 197 0
175 198 0
176 199 0
174 198 0
174 198 0
175 198 0
174 197 0
175 198 0
174 197 0
175 198 0
175 198 0
176 199 0
175 198 0
176 199 0
175 198 0
174 197 0
175 198 0
174 197 0
175 198 0
174 198 0
173 197 0
175 198 0
175 198 0
174 197 0
176 199 0
176 199 0
175 198 0
173 197 0
175 198 0
174 198 0
174 197 0
174 198 0
175 198 0
176 199 0
175 198 0
175 198 0
175 198 0
175 198 0
175 198 0
174 197 0
175 198 0
177 199 0
175 198 0
174 198 0
174 197 0
175 198 0
173 197 0
173 197 0
174 198 0
175 198 0
175 198 0
172 196 0
175 198 0
175 198 0
174 198 0
176 198 0
175 198 0
175 198 0
174 198 0
174 198 0
176 198 0
174 198 0
174 197 0
175 198 0
175 198 0
174 198 0
175 198 0
174 197 0
174 198 0
174 197 0
173 197 0
174 198 0
175 198 0
175 198 0
173 197 0
173 197 0
174 197 0
172 196 0
173 197 0
175 198 0
174 198 0
175 198 0
175 198 0
173 197 0
174 198 0
176 199 0
175 198 0
174 197 0
174 198 0
175 198 0
174 198 0
174 198 0
174 197 0
174 198 0
173 196 0
175 198 0
173 197 0
174 198 0
175 198 0
174 198 0
175 198 0
174 197 0
175 198 0
174 198 0
174 198 0
175 198 0
173 197 0
176 198 0
173 197 0
174 197 0
173 197 0
174 198 0
173 197 0
174 198 0
173 197 0
176 198 0
175 198 0
175 198 0
177 199 0
175 198 0
174 197 0
175 198 0
174 197 0
174 197 0
174 198 0
173 197 0
175 198 0
175 198 0
174 197 0
174 197 0
174 198 0
175 198 0
175 198 0
173 197 0
173 197 0
174 198 0
174 197 0
173 197 0
175 198 0
173 197 0
175 198 0
172 196 0
174 197 0
173 197 0
174 198 0
173 197 0
174 198 0
175 198 0
175 198 0
175 198 0
174 197 0
175 198 0
174 198 0
174 198 0
175 198 0
172 196 0
174 197 0
173 197 0
173 196 0
175 197 0
172 196 0
175 198 0
173 197 0
174 197 0
173 197 0
174 197 0
175 198 0
172 197 0
174 197 0
173 196 0
174 197 0
173 197 0
172 196 0
174 198 0
174 197 0
175 198 0
174 197 0
173 196 0
174 198 0
173 197 0
173 196 0
174 198 0
174 198 0
173 197 0
175 198 0
174 197 0
175 198 0
174 198 0
173 197 0
172 196 0
173 197 0
175 198 0
173 197 0
175 198 0
174 197 0
173 197 0
173 197 0
175 198 0
173 197 0
174 198 0
173 197 0
174 197 0
173 197 0
175 197 0
174 197 0
174 198 0
172 196 0
173 196 0
174 197 0
174 198 0
173 197 0
172 195 0
173 197 0
175 198 0
176 199 0
173 196 0
174 198 0
173 197 0
173 197 0
174 198 0
174 197 0
173 197 0
174 198 0
175 197 0
176 199 0
174 197 0
174 197 0
175 198 0
174 197 0
175 198 0
175 198 0
174 197 0
172 196 0
172 197 0
170 194 0
174 198 0
174 197 0
175 198 0
173 196 0
172 197 0
174 197 0
176 198 0
171 194 0
174 197 0
175 198 0
173 197 0
175 197 0
174 197 0
176 198 0
175 198 0
175 198 0
174 197 11
174 197 16
172 195 11
172 194 25
171 191 32
168 186 39
168 185 42
162 177 45
166 179 56
162 173 63
152 160 61
158 163 72
156 163 72
163 167 79
156 157 84
149 151 76
145 147 77
155 155 84
156 157 84
153 153 87
148 146 86
160 157 95
151 153 84
150 149 86
150 149 83
150 149 87
153 152 87
150 148 89
154 153 90
156 157 85
146 148 75
155 158 79
149 154 72
154 158 74
157 162 76
160 169 70
165 176 62
159 167 65
167 178 64
160 176 41
163 181 41
173 189 45
165 186 19
173 194 30
175 198 0
172 196 0
174 197 0
176 199 0
175 198 0
174 198 0
172 196 0
174 197 0
171 194 0
173 197 0
174 197 0
173 197 0
173 197 0
174 197 0
175 198 0
173 196 0
174 197 0
174 197 0
174 197 0
174 198 0
175 198 0
174 198 0
175 198 0
174 197 0
173 197 0
174 197 0
174 197 0
175 198 0
174 197 0
174 198 0
173 197 0
174 198 0
174 198 0
174 197 0
173 197 0
174 197 0
175 198 0
173 197 0
172 197 0
175 198 0
174 197 0
175 198 0
174 197 0
175 198 0
176 199 0
175 198 0
173 197 0
173 196 0
174 197 0
174 198 0
175 198 0
175 198 0
174 198 0
175 198 0
174 197 0
173 197 0
176 198 0
173 197 0
175 198 0
176 199 0
174 198 0
176 199 0
176 199 0
174 198 0
174 198 0
174 198 0
174 197 0
174 198 0
174 198 0
174 197 0
172 197 0
175 198 0
175 198 0
175 198 0
176 198 0
175 198 0
174 198 0
175 198 0
174 198 0
175 198 0
175 198 0
174 198 0
174 198 0
174 198 0
175 198 0
173 197 0
174 197 0
175 198 0
174 198 0
174 197 0
174 197 0
175 198 0
174 198 0
173 197 0
174 198 0
175 198 0
175 198 0
175 198 0
175 198 0
174 198 0
175 198 0
174 198 0
173 197 0
174 198 0
175 198 0
174 198 0
175 198 0
174 197 0
174 198 0
174 198 0
175 198 0
174 198 0
176 198 0
177 199 0
174 197 0
174 198 0
175 198 0
174 198 0
175 198 0
172 197 0
175 198 0
175 198 0
175 198 0
174 198 0
172 197 0
174 198 0
175 198 0
175 198 0
175 198 0
175 198 0
174 198 0
175 198 0
174 197 0
176 199 0
172 196 0
177 199 0
174 198 0
175 198 0
174 197 0
176 199 0
173 197 0
173 197 0
175 198 0
175 198 0
174 198 0
175 198 0
174 198 0
175 198 0
173 197 0
173 197 0
175 198 0
174 198 0
175 198 0
175 198 0
173 197 0
175 197 0
173 197 0
175 198 0
175 198 0
174 198 0
174 198 0
173 197 0
174 197 0
175 198 0
176 199 0
175 198 0
174 198 0
175 198 0
177 199 0
173 197 0
174 197 0
174 198 0
173 197 0
175 198 0
174 198 0
173 196 0
174 198 0
175 198 0
175 198 0
175 198 0
174 198 0
173 197 0
175 198 0
174 197 0
174 197 0
174 198 0
175 198 0
173 196 0
173 197 0
174 198 0
172 196 0
175 198 0
174 197 0
174 197 0
174 197 0
175 198 0
175 198 0
174 198 0
174 198 0
176 199 0
174 198 0
175 198 0
175 198 0
173 197 0
175 198 0
176 199 0
175 198 0
174 197 0
175 198 0
172 196 0
173 197 0
173 197 0
176 199 0
174 198 0
174 198 0
174 197 0
175 198 0
174 197 0
174 198 0
174 197 0
174 198 0
174 197 0
176 198 0
173 197 0
175 198 0
175 198 0
174 198 0
174 197 0
174 198 0
174 197 0
173 197 0
175 198 0
172 196 0
173 197 0
174 198 0
174 198 0
175 198 0
174 197 0
174 198 0
175 198 0
174 198 0
174 198 0
174 198 0
174 197 0
171 196 0
176 198 0
173 196 0
174 198 0
176 198 0
174 197 0
174 197 0
174 197 0
175 198 0
173 197 0
176 199 0
173 197 0
174 197 0
175 198 0
172 197 0
175 197 0
175 198 0
175 198 0
173 197 0
176 198 0
174 198 0
175 198 0
173 197 0
174 197 0
175 198 0
175 198 0
175 198 0
175 198 0
172 196 0
174 198 0
176 198 0
175 198 0
173 196 0
174 198 0
175 198 0
175 198 0
173 196 0
174 197 0
173 197 0
173 197 0
175 198 0
173 197 0
174 197 0
174 198 0
171 195 0
176 198 0
173 196 0
175 198 0
173 197 0
173 197 0
173 196 0
176 198 0
175 197 0
174 197 0
174 197 0
174 197 0
173 196 0
174 197 0
174 197 0
173 196 0
175 198 0
174 198 0
174 198 0
176 198 0
173 197 0
173 197 0
172 196 0
174 197 0
175 198 0
175 198 0
173 197 0
174 198 0
172 196 0
173 196 0
174 197 0
173 197 0
175 198 0
175 198 0
173 197 0
174 197 0
174 197 0
175 198 0
176 198 0
174 197 0
173 196 0
174 197 0
174 198 0
172 196 0
173 196 0
174 197 0
174 197 0
175 198 0
173 197 0
175 198 0
174 197 0
173 196 0
174 197 0
172 196 0
174 197 0
172 196 0
173 197 0
172 196 0
175 197 0
172 196 0
174 198 0
171 195 0
172 196 0
173 196 0
175 197 0
173 197 0
175 197 0
174 197 0
170 193 11
171 191 25
169 188 36
163 181 36
164 179 45
162 175 52
163 175 56
154 164 57
162 169 68
156 162 75
159 166 71
154 157 79
163 161 90
143 144 80
159 159 88
151 149 87
152 149 90
147 145 87
148 143 89
152 147 95
153 149 93
146 141 93
150 146 95
150 145 95
154 150 99
154 148 95
140 136 86
158 153 98
152 147 96
147 143 92
155 152 93
149 146 92
145 144 81
145 145 80
156 158 82
150 154 75
160 165 74
155 162 68
158 167 63
158 170 59
158 168 59
157 174 39
168 184 45
168 188 32
166 185 32
170 192 11
171 195 0
174 198 0
174 197 0
174 198 0
175 198 0
172 196 0
174 197 0
175 198 0
174 198 0
175 198 0
174 197 0
176 199 0
175 198 0
174 198 0
173 197 0
174 197 0
174 197 0
175 198 0
173 197 0
175 198 0
175 198 0
174 197 0
173 197 0
175 198 0
175 198 0
174 197 0
175 198 0
175 198 0
174 198 0
173 196 0
172 196 0
174 197 0
175 198 0
174 197 0
174 198 0
173 197 0
174 197 0
174 197 0
174 198 0
175 198 0
174 197 0
174 197 0
174 198 0
176 198 0
175 198 0
174 197 0
174 197 0
173 197 0
173 196 0
173 197 0
176 199 0
174 198 0
174 197 0
175 198 0
174 198 0
176 199 0
174 197 0
174 198 0
175 198 0
174 198 0
173 197 0
173 197 0
174 197 0
175 198 0
173 197 0
174 198 0
174 198 0
174 197 0
176 199 0
174 197 0
174 198 0
174 198 0
173 197 0
174 198 0
173 197 0
174 198 0
177 199 0
174 198 0
173 197 0
173 197 0
174 198 0
174 197 0
174 197 0
174 197 0
174 198 0
174 198 0
173 197 0
174 197 0
175 198 0
175 198 0
175 198 0
175 198 0
176 198 0
175 198 0
175 198 0
175 198 0
174 197 0
175 198 0
172 197 0
174 197 0
174 198 0
176 198 0
175 198 0
175 198 0
173 197 0
175 198 0
176 199 0
174 198 0
174 197 0
176 198 0
176 199 0
175 198 0
175 198 0
173 197 0
174 197 0
174 198 0
174 198 0
173 197 0
174 198 0
175 198 0
176 198 0
173 197 0
174 198 0
173 197 0
174 197 0
174 198 0
173 197 0
175 198 0
175 198 0
173 197 0
175 198 0
174 197 0
175 198 0
174 197 0
174 198 0
176 199 0
174 197 0
175 198 0
174 198 0
175 198 0
173 197 0
175 198 0
175 198 0
175 198 0
175 198 0
175 198 0
175 198 0
174 198 0
175 198 0
174 197 0
175 198 0
174 197 0
174 198 0
175 198 0
174 198 0
174 198 0
175 198 0
173 196 0
174 197 0
173 196 0
174 197 0
173 197 0
174 198 0
176 199 0
177 199 0
173 196 0
174 197 0
175 198 0
174 197 0
175 198 0
174 198 0
173 197 0
174 198 0
173 197 0
175 198 0
176 199 0
175 198 0
175 198 0
175 198 0
175 198 0
174 197 0
174 198 0
174 197 0
174 197 0
173 197 0
174 197 0
173 196 0
175 198 0
174 198 0
174 198 0
175 198 0
174 198 0
174 198 0
174 197 0
175 198 0
174 197 0
175 198 0
175 198 0
174 198 0
174 197 0
176 198 0
173 197 0
173 197 0
174 197 0
172 195 0
175 198 0
175 198 0
173 196 0
173 197 0
174 197 0
173 197 0
174 197 0
174 197 0
174 198 0
172 196 0
174 197 0
173 197 0
175 198 0
174 197 0
175 198 0
175 198 0
174 198 0
174 198 0
173 197 0
172 196 0
173 197 0
174 198 0
174 198 0
173 197 0
174 198 0
174 198 0
174 197 0
176 198 0
174 197 0
174 198 0
174 197 0
175 198 0
173 197 0
174 198 0
173 197 0
173 197 0
173 196 0
174 197 0
174 197 0
174 198 0
173 197 0
173 196 0
174 198 0
173 197 0
175 198 0
173 197 0
173 197 0
175 198 0
175 198 0
174 198 0
175 198 0
172 196 0
173 197 0
173 197 0
173 197 0
173 197 0
174 197 0
175 198 0
176 199 0
174 197 0
175 197 0
174 198 0
175 198 0
174 197 0
174 198 0
175 198 0
174 197 0
175 198 0
175 198 0
173 196 0
174 197 0
174 197 0
174 197 0
174 197 0
174 197 0
173 196 0
173 197 0
176 198 0
173 197 0
174 197 0
175 197 0
174 198 0
175 198 0
175 198 0
173 197 0
173 197 0
174 197 0
175 198 0
172 195 0
174 198 0
173 197 0
173 197 0
172 196 0
171 195 0
173 196 0
170 194 0
174 197 0
173 197 0
173 196 0
173 197 0
173 197 0
174 197 0
174 197 0
172 196 0
174 197 0
175 197 0
175 198 0
173 197 0
174 198 0
172 196 0
173 197 0
174 197 0
174 197 0
173 197 0
173 197 0
173 197 0
175 198 0
174 197 0
173 196 0
171 195 0
173 196 0
173 197 0
173 197 0
175 198 0
174 197 0
173 197 0
172 196 0
173 196 0
174 197 0
175 198 0
173 197 0
173 196 0
172 195 0
174 197 0
174 197 0
172 196 0
175 198 0
174 197 0
174 197 0
175 198 0
173 196 0
175 198 0
174 197 0
174 197 0
174 197 0
174 197 0
174 197 0
174 197 0
169 191 19
174 194 30
165 183 36
159 178 30
164 179 47
163 176 56
164 174 61
157 167 63
156 161 70
157 160 77
157 162 79
148 150 76
147 147 84
151 149 91
147 143 88
152 148 92
156 150 96
143 139 90
158 152 99
153 147 96
152 147 97
145 140 92
154 149 98
146 141 93
159 154 102
159 154 101
155 151 99
150 145 95
144 140 92
152 147 97
155 150 98
143 139 92
153 148 97
153 148 95
158 152 97
148 145 90
150 150 83
144 144 81
148 148 80
157 157 84
155 160 70
154 160 70
160 169 60
168 180 59
163 178 47
167 186 34
170 190 22
172 192 30
171 193 11
175 198 0
174 198 0
173 197 0
174 197 0
174 197 0
175 198 0
176 198 0
175 197 0
175 198 0
175 198 0
175 198 0
174 197 0
173 197 0
174 198 0
174 198 0
173 197 0
175 198 0
173 197 0
174 197 0
175 198 0
175 198 0
174 198 0
174 197 0
176 199 0
173 197 0
175 198 0
174 197 0
173 197 0
175 198 0
175 198 0
174 197 0
173 197 0
173 197 0
175 198 0
175 198 0
175 198 0
174 198 0
175 198 0
175 198 0
175 198 0
174 198 0
174 198 0
174 198 0
173 197 0
175 198 0
174 197 0
173 197 0
176 199 0
175 198 0
174 197 0
173 197 0
173 197 0
174 197 0
174 198 0
174 198 0
176 199 0
176 198 0
175 198 0
175 197 0
174 198 0
174 197 0
174 197 0
174 198 0
175 198 0
173 197 0
171 196 0
173 197 0
174 197 0
173 197 0
175 198 0
173 197 0
173 197 0
174 197 0
174 198 0
176 199 0
174 198 0
173 197 0
174 198 0
176 198 0
174 198 0
173 196 0
174 198 0
173 197 0
175 198 0
173 197 0
173 197 0
175 198 0
175 198 0
174 198 0
175 198 0
174 198 0
174 198 0
173 197 0
174 198 0
173 196 0
175 198 0
174 197 0
175 198 0
174 197 0
174 198 0
174 198 0
175 198 0
176 199 0
174 197 0
175 198 0
175 198 0
175 198 0
175 198 0
175 198 0
175 198 0
175 198 0
174 198 0
176 198 0
173 197 0
174 198 0
175 198 0
173 197 0
175 198 0
174 198 0
174 198 0
174 198 0
175 198 0
173 197 0
173 197 0
174 198 0
173 197 0
176 199 0
174 198 0
175 198 0
174 197 0
175 198 0
175 198 0
175 198 0
173 197 0
174 197 0
174 198 0
174 198 0
173 197 0
174 197 0
175 198 0
174 197 0
175 198 0
174 198 0
175 198 0
175 198 0
174 198 0
174 198 0
173 197 0
175 198 0
173 197 0
175 198 0
173 196 0
174 197 0
174 198 0
174 198 0
176 198 0
174 197 0
174 198 0
176 199 0
175 198 0
175 198 0
175 198 0
173 197 0
174 197 0
175 198 0
174 197 0
174 198 0
175 198 0
174 197 0
176 198 0
176 199 0
174 198 0
175 198 0
175 198 0
175 198 0
172 196 0
176 199 0
174 197 0
176 199 0
174 197 0
175 198 0
175 198 0
175 198 0
174 198 0
173 197 0
174 197 0
172 197 0
174 197 0
174 197 0
174 197 0
174 198 0
173 197 0
176 198 0
174 197 0
175 198 0
174 198 0
175 198 0
174 197 0
174 198 0
173 196 0
174 197 0
175 198 0
174 197 0
174 198 0
173 197 0
173 197 0
174 197 0
173 197 0
174 198 0
174 197 0
173 197 0
176 198 0
173 197 0
173 197 0
171 196 0
174 197 0
174 197 0
175 198 0
174 197 0
175 198 0
173 197 0
175 198 0
175 198 0
175 198 0
172 196 0
174 198 0
174 198 0
174 198 0
174 197 0
176 198 0
174 198 0
173 197 0
176 199 0
173 197 0
175 198 0
175 198 0
175 198 0
174 197 0
174 197 0
174 198 0
173 197 0
175 198 0
174 198 0
174 198 0
172 196 0
173 196 0
173 197 0
175 198 0
175 198 0
176 198 0
173 196 0
176 198 0
174 197 0
175 198 0
175 198 0
173 197 0
176 199 0
175 198 0
174 197 0
173 196 0
174 198 0
174 197 0
174 198 0
173 197 0
173 197 0
173 197 0
175 198 0
176 199 0
173 197 0
172 196 0
173 197 0
174 197 0
173 197 0
175 198 0
174 198 0
173 196 0
173 196 0
174 197 0
173 196 0
175 198 0
175 198 0
172 196 0
174 198 0
173 196 0
175 198 0
173 197 0
174 197 0
174 197 0
173 197 0
173 197 0
176 198 0
175 198 0
175 198 0
173 196 0
174 198 0
172 195 0
173 197 0
173 197 0
173 197 0
172 196 0
173 196 0
175 198 0
173 196 0
173 197 0
174 197 0
173 197 0
173 197 0
175 198 0
175 198 0
174 197 0
174 197 0
175 198 0
175 198 0
173 196 0
174 198 0
176 199 0
175 197 0
173 196 0
174 198 0
174 197 0
172 196 0
173 197 0
174 197 0
174 197 0
174 197 0
175 198 0
173 197 0
173 197 0
172 196 0
173 196 0
174 196 0
174 197 0
174 196 0
174 198 0
173 197 0
172 196 0
174 197 0
174 197 0
173 196 0
174 198 0
174 197 0
175 197 0
174 197 0
174 197 0
173 196 0
174 197 0
173 197 0
174 198 0
173 197 0
175 198 11
174 195 19
168 187 34
166 184 32
165 182 44
162 175 54
155 165 62
164 169 74
159 167 69
157 159 77
150 153 74
146 144 82
148 148 82
150 146 91
149 145 90
155 150 98
153 148 97
143 139 91
155 150 99
147 143 94
157 152 100
157 151 99
156 152 101
149 144 95
152 148 97
158 154 101
146 142 93
150 145 96
147 143 94
155 150 99
148 144 95
148 144 95
148 144 95
145 141 93
154 149 97
150 145 95
153 148 97
141 137 90
147 143 94
158 154 96
156 150 93
155 155 87
139 141 73
151 153 78
152 160 69
156 165 64
156 163 68
162 177 45
165 179 47
171 190 36
169 187 39
171 193 11
174 197 0
174 197 0
173 197 0
175 197 0
173 196 0
176 199 0
174 197 0
175 198 0
174 198 0
174 197 0
175 198 0
173 197 0
175 198 0
175 198 0
173 197 0
175 197 0
174 198 0
174 198 0
175 198 0
174 197 0
174 197 0
174 197 0
175 198 0
175 198 0
176 199 0
174 197 0
175 197 0
174 198 0
173 197 0
175 198 0
174 198 0
174 198 0
174 197 0
175 198 0
175 198 0
175 198 0
172 196 0
172 196 0
175 198 0
175 198 0
175 198 0
174 197 0
174 198 0
175 198 0
175 198 0
174 197 0
176 199 0
174 198 0
173 197 0
176 198 0
174 198 0
173 197 0
175 198 0
174 198 0
175 198 0
174 197 0
175 198 0
173 197 0
175 198 0
173 197 0
173 197 0
175 198 0
174 198 0
174 198 0
174 198 0
175 198 0
175 198 0
174 197 0
175 198 0
175 198 0
174 198 0
175 198 0
174 198 0
173 197 0
172 196 0
174 198 0
174 197 0
175 198 0
175 198 0
172 196 0
175 198 0
173 197 0
173 197 0
173 197 0
175 198 0
174 197 0
173 197 0
174 198 0
173 197 0
175 198 0
177 199 0
174 198 0
173 197 0
173 197 0
175 198 0
174 197 0
174 198 0
175 198 0
176 198 0
174 198 0
174 198 0
175 198 0
175 198 0
173 197 0
174 197 0
175 198 0
175 198 0
175 198 0
174 197 0
173 197 0
174 197 0
174 197 0
174 197 0
175 198 0
173 197 0
173 197 0
175 198 0
174 198 0
175 198 0
172 197 0
174 198 0
173 196 0
174 197 0
173 197 0
174 198 0
174 197 0
174 197 0
174 197 0
175 198 0
174 197 0
174 198 0
171 196 0
174 198 0
175 198 0
175 198 0
175 198 0
175 198 0
175 198 0
175 198 0
174 198 0
175 198 0
173 197 0
175 198 0
174 198 0
174 198 0
174 198 0
174 198 0
174 197 0
174 198 0
175 198 0
175 198 0
174 198 0
175 198 0
173 197 0
175 197 0
175 198 0
175 198 0
173 197 0
176 199 0
175 198 0
173 196 0
174 198 0
175 198 0
173 197 0
174 198 0
172 197 0
176 198 0
174 197 0
173 197 0
174 197 0
174 198 0
174 198 0
174 197 0
174 198 0
174 197 0
174 197 0
173 197 0
174 197 0
174 197 0
172 197 0
174 197 0
174 197 0
174 197 0
175 198 0
175 198 0
176 199 0
173 197 0
172 197 0
176 198 0
174 198 0
174 198 0
173 197 0
175 198 0
176 198 0
174 197 0
173 196 0
173 197 0
174 198 0
175 198 0
174 197 0
174 197 0
174 198 0
173 197 0
173 197 0
173 197 0
176 199 0
173 197 0
176 198 0
174 197 0
173 197 0
175 198 0
175 198 0
173 196 0
175 198 0
174 197 0
172 196 0
174 197 0
174 197 0
173 197 0
174 197 0
174 197 0
174 197 0
173 197 0
174 197 0
174 197 0
173 197 0
174 197 0
174 197 0
175 198 0
174 197 0
173 197 0
176 199 0
175 198 0
173 197 0
173 197 0
173 197 0
173 197 0
174 197 0
174 197 0
175 198 0
173 196 0
176 199 0
174 197 0
175 198 0
174 197 0
173 197 0
174 197 0
174 198 0
172 196 0
175 198 0
176 199 0
172 197 0
174 197 0
172 196 0
175 198 0
175 198 0
175 198 0
173 197 0
174 198 0
172 196 0
173 197 0
173 197 0
175 198 0
175 198 0
173 197 0
172 196 0
174 197 0
174 197 0
175 198 0
173 197 0
176 199 0
175 198 0
173 196 0
174 197 0
173 197 0
172 196 0
173 196 0
173 196 0
175 198 0
175 197 0
172 196 0
173 196 0
174 198 0
174 197 0
176 198 0
173 197 0
173 197 0
174 198 0
176 199 0
175 198 0
173 196 0
173 197 0
175 198 0
173 196 0
173 197 0
175 198 0
172 196 0
173 197 0
171 195 0
174 198 0
174 197 0
175 198 0
171 195 0
174 197 0
172 196 0
174 197 0
172 195 0
176 199 0
173 197 0
174 197 0
172 196 0
174 197 0
174 197 0
174 198 0
172 196 0
175 198 0
174 198 0
173 197 0
174 197 0
173 196 0
173 196 0
171 195 0
174 197 0
175 198 0
174 198 0
174 197 0
174 196 0
175 198 0
173 196 0
174 197 0
174 197 0
173 196 0
174 197 0
173 197 0
174 198 0
172 196 0
174 197 0
175 198 0
174 197 0
173 196 0
174 197 0
171 195 0
172 196 0
173 196 0
175 198 0
174 197 0
174 197 11
173 194 16
169 191 16
170 189 37
155 172 22
163 176 47
161 171 59
155 169 53
158 163 72
147 151 72
162 163 83
150 149 84
147 146 83
149 144 90
152 148 95
151 146 94
150 146 95
149 143 93
162 157 103
151 147 97
153 149 97
161 156 102
152 147 97
161 157 104
156 152 101
158 153 101
164 160 106
149 146 97
151 146 96
159 154 101
148 145 96
149 146 97
155 152 101
149 144 95
151 147 97
157 152 101
156 151 99
157 152 101
153 148 98
153 149 98
156 151 99
161 155 102
152 147 96
150 145 93
152 148 91
143 141 82
159 158 88
155 159 74
158 164 72
163 172 66
165 178 52
160 174 45
171 190 30
167 188 30
171 193 19
174 196 16
175 198 0
174 197 0
171 196 0
175 198 0
173 197 0
175 198 0
175 198 0
176 199 0
174 198 0
175 198 0
174 197 0
173 197 0
173 197 0
176 199 0
174 197 0
175 198 0
174 198 0
174 198 0
174 197 0
175 198 0
173 197 0
173 196 0
175 198 0
172 195 0
173 196 0
173 197 0
173 197 0
175 198 0
174 198 0
174 197 0
174 197 0
175 198 0
173 196 0
174 198 0
174 198 0
173 197 0
175 198 0
173 196 0
175 198 0
174 198 0
175 198 0
175 198 0
176 199 0
175 198 0
172 197 0
174 198 0
171 195 0
176 199 0
174 197 0
174 198 0
173 197 0
174 198 0
173 197 0
174 197 0
174 198 0
174 197 0
175 198 0
175 198 0
175 198 0
174 198 0
176 198 0
175 198 0
174 197 0
173 197 0
175 198 0
174 197 0
173 197 0
173 197 0
175 198 0
174 198 0
174 198 0
173 197 0
175 198 0
174 198 0
172 197 0
175 198 0
174 197 0
173 197 0
174 197 0
175 198 0
174 198 0
173 197 0
174 198 0
174 198 0
174 198 0
173 197 0
175 198 0
174 197 0
174 198 0
176 198 0
174 198 0
176 198 0
175 198 0
175 198 0
174 198 0
175 198 0
174 198 0
175 198 0
174 198 0
174 197 0
175 198 0
174 197 0
174 198 0
174 198 0
173 197 0
175 198 0
174 197 0
174 197 0
174 198 0
173 197 0
175 198 0
174 198 0
175 198 0
176 199 0
173 197 0
174 198 0
174 198 0
175 198 0
174 198 0
174 198 0
174 197 0
175 198 0
174 197 0
175 198 0
174 197 0
173 197 0
174 197 0
175 198 0
175 198 0
173 197 0
174 197 0
174 198 0
174 198 0
174 197 0
174 198 0
175 198 0
173 197 0
174 198 0
175 198 0
175 198 0
174 198 0
174 198 0
174 197 0
175 198 0
175 198 0
173 197 0
174 197 0
174 197 0
174 197 0
174 198 0
174 198 0
174 197 0
172 197 0
174 197 0
173 197 0
176 198 0
174 197 0
173 197 0
173 197 0
175 197 0
174 197 0
175 198 0
174 197 0
173 197 0
175 198 0
174 198 0
174 198 0
174 198 0
173 197 0
174 198 0
173 197 0
175 198 0
175 198 0
173 197 0
172 196 0
175 198 0
173 197 0
175 198 0
173 197 0
176 199 0
172 196 0
174 197 0
174 198 0
172 196 0
173 197 0
174 198 0
175 198 0
174 198 0
174 197 0
177 199 0
173 197 0
175 198 0
174 198 0
175 198 0
174 198 0
174 198 0
175 198 0
174 197 0
174 197 0
173 197 0
174 197 0
174 198 0
176 198 0
177 199 0
175 198 0
176 198 0
175 198 0
174 198 0
176 199 0
173 197 0
174 197 0
175 198 0
174 197 0
174 197 0
175 198 0
174 197 0
174 198 0
176 199 0
174 198 0
173 197 0
173 197 0
175 198 0
175 198 0
175 198 0
173 197 0
175 198 0
174 197 0
173 197 0
174 197 0
173 196 0
174 197 0
174 197 0
174 198 0
174 198 0
174 197 0
173 197 0
174 198 0
173 196 0
176 199 0
173 197 0
175 198 0
174 198 0
176 199 0
174 198 0
175 198 0
174 198 0
176 198 0
173 196 0
174 198 0
174 198 0
175 197 0
174 197 0
174 198 0
173 197 0
175 198 0
173 197 0
173 197 0
173 196 0
173 197 0
174 198 0
172 196 0
174 197 0
174 197 0
175 198 0
175 198 0
175 198 0
174 197 0
174 197 0
174 197 0
174 198 0
173 196 0
175 198 0
174 197 0
174 198 0
174 197 0
173 196 0
176 199 0
174 197 0
173 196 0
174 197 0
174 197 0
173 197 0
173 197 0
174 197 0
173 196 0
175 198 0
176 199 0
174 197 0
175 198 0
174 197 0
175 198 0
174 197 0
174 198 0
173 197 0
174 197 0
173 196 0
174 198 0
174 197 0
172 196 0
173 197 0
174 198 0
173 196 0
174 198 0
175 198 0
172 196 0
174 197 0
172 196 0
173 196 0
172 195 0
173 197 0
173 197 0
174 197 0
174 197 0
174 198 0
170 194 0
172 196 0
174 197 0
174 197 0
173 196 0
173 195 0
175 198 0
174 198 0
173 195 0
172 195 0
172 196 0
175 198 0
173 196 0
174 198 0
175 198 0
173 196 0
173 197 0
174 197 0
174 197 0
174 196 0
174 198 0
172 196 0
173 196 0
174 197 0
174 197 0
172 196 0
174 198 0
175 197 0
176 198 0
173 195 19
169 191 11
165 184 34
165 184 34
165 182 34
157 168 56
159 171 53
158 168 57
160 164 77
155 159 75
145 144 77
155 152 91
148 144 89
159 153 97
149 144 91
150 145 94
148 144 93
149 145 95
158 153 99
160 155 101
145 141 93
151 147 97
161 157 103
155 151 100
157 153 101
157 154 102
154 151 101
156 152 101
159 155 103
155 152 101
157 153 101
152 149 99
160 157 104
155 152 101
154 151 100
154 151 100
151 148 98
152 149 99
158 155 103
156 152 100
154 150 99
146 143 95
158 153 101
155 150 98
147 142 93
155 150 97
149 144 90
153 148 89
154 153 82
154 155 82
150 156 66
155 160 72
159 169 64
159 173 53
165 183 32
167 184 42
169 192 19
173 196 11
173 197 0
174 198 0
172 196 0
174 197 0
174 197 0
173 197 0
172 196 0
176 197 0
173 197 0
173 197 0
174 198 0
174 198 0
175 198 0
175 198 0
173 197 0
174 198 0
173 197 0
174 197 0
176 199 0
174 197 0
174 198 0
176 198 0
175 198 0
174 198 0
173 196 0
174 197 0
175 198 0
175 198 0
175 197 0
174 197 0
175 198 0
173 197 0
174 198 0
174 197 0
174 198 0
174 198 0
174 197 0
174 198 0
174 198 0
175 198 0
173 197 0
174 198 0
175 198 0
172 196 0
173 197 0
174 198 0
174 197 0
175 198 0
173 197 0
173 197 0
174 198 0
174 197 0
174 198 0
175 198 0
176 198 0
175 198 0
174 197 0
173 197 0
174 197 0
174 197 0
175 198 0
172 196 0
176 199 0
173 197 0
175 198 0
173 197 0
175 198 0
174 198 0
175 197 0
173 197 0
174 197 0
174 198 0
176 199 0
174 197 0
175 198 0
174 198 0
175 198 0
173 197 0
175 198 0
174 197 0
174 197 0
174 198 0
175 198 0
174 198 0
175 198 0
175 198 0
173 197 0
175 198 0
175 198 0
175 198 0
174 198 0
176 198 0
173 197 0
174 198 0
174 197 0
175 198 0
173 197 0
174 197 0
174 198 0
174 198 0
175 198 0
174 198 0
176 199 0
173 197 0
175 198 0
175 198 0
173 197 0
175 198 0
173 197 0
174 198 0
174 197 0
173 197 0
175 198 0
174 198 0
174 198 0
174 198 0
173 197 0
175 198 0
174 197 0
174 198 0
175 198 0
176 198 0
175 198 0
173 197 0
175 198 0
174 198 0
174 198 0
174 198 0
174 198 0
174 198 0
175 198 0
174 198 0
174 198 0
172 196 0
174 198 0
174 198 0
175 198 0
175 198 0
175 198 0
175 198 0
174 197 0
175 198 0
174 198 0
172 196 0
173 197 0
175 198 0
176 198 0
173 196 0
174 198 0
173 197 0
174 198 0
175 198 0
174 198 0
174 197 0
173 197 0
176 198 0
173 197 0
176 199 0
174 197 0
174 197 0
176 199 0
175 198 0
174 198 0
174 197 0
175 198 0
174 198 0
173 197 0
174 197 0
174 198 0
176 198 0
174 197 0
175 198 0
174 197 0
173 197 0
175 198 0
173 197 0
174 198 0
174 197 0
175 198 0
174 198 0
174 197 0
176 199 0
174 197 0
174 198 0
176 198 0
175 198 0
173 197 0
174 197 0
176 198 0
174 197 0
173 196 0
175 198 0
174 198 0
175 198 0
176 199 0
174 198 0
174 198 0
174 198 0
174 198 0
174 198 0
173 197 0
174 197 0
175 198 0
175 198 0
174 197 0
174 197 0
173 197 0
174 197 0
173 197 0
174 198 0
175 198 0
174 197 0
173 196 0
174 198 0
173 197 0
175 198 0
174 197 0
175 198 0
173 197 0
171 195 0
175 198 0
176 199 0
175 198 0
173 196 0
174 198 0
173 197 0
175 198 0
173 196 0
174 197 0
174 197 0
173 197 0
174 197 0
174 197 0
176 198 0
174 198 0
173 197 0
174 197 0
175 198 0
172 196 0
174 197 0
175 197 0
173 197 0
174 197 0
174 197 0
175 198 0
172 196 0
173 196 0
173 197 0
175 198 0
175 198 0
175 198 0
172 196 0
173 196 0
173 197 0
173 197 0
174 198 0
174 197 0
172 195 0
174 197 0
172 197 0
174 198 0
173 197 0
174 197 0
172 195 0
174 197 0
174 197 0
173 197 0
173 197 0
174 198 0
175 198 0
173 196 0
173 197 0
174 197 0
173 197 0
174 197 0
175 198 0
172 196 0
175 198 0
172 196 0
173 197 0
174 198 0
173 197 0
174 197 0
175 198 0
174 197 0
174 197 0
174 197 0
172 195 0
172 196 0
173 196 0
175 198 0
174 197 0
173 197 0
174 197 0
173 197 0
176 199 0
172 196 0
174 196 0
174 197 0
173 196 0
174 198 0
175 198 0
171 195 0
174 197 0
172 196 0
175 198 0
172 195 0
175 198 0
174 197 0
174 197 0
174 197 0
170 194 0
172 195 0
173 197 0
175 198 0
175 198 0
174 197 0
173 197 0
173 196 0
173 196 0
172 195 0
172 195 0
173 196 0
175 198 0
172 195 0
174 198 0
176 198 0
172 195 0
174 197 0
174 197 0
174 198 0
172 196 0
174 198 0
174 197 0
176 199 0
171 195 0
173 196 0
174 197 0
174 197 0
173 196 0
175 198 0
173 196 11
172 192 19
168 189 25
161 179 30
163 180 36
162 173 59
161 170 66
154 165 57
155 155 80
146 146 80
143 143 77
154 150 92
142 137 87
148 143 92
157 152 97
161 156 102
149 144 91
158 153 100
150 146 95
158 153 99
160 156 103
155 150 98
160 156 104
151 147 97
155 151 100
161 158 105
154 152 101
159 156 104
152 149 99
160 157 104
158 155 104
149 147 99
159 155 103
161 158 105
157 154 103
154 152 101
155 152 101
157 153 101
161 157 104
151 147 97
160 155 102
155 152 101
156 151 99
156 152 100
157 152 101
152 148 97
153 148 97
155 149 97
154 148 94
151 147 92
148 145 85
157 155 84
146 152 68
154 161 63
154 163 61
153 166 51
168 185 48
170 188 41
171 194 16
172 195 11
172 196 0
175 197 0
174 197 0
174 197 0
175 198 0
173 197 0
175 198 0
177 199 0
173 197 0
174 198 0
174 198 0
173 196 0
174 198 0
173 197 0
173 196 0
175 198 0
174 198 0
175 198 0
175 198 0
173 197 0
176 198 0
173 196 0
174 197 0
175 198 0
174 197 0
174 198 0
174 198 0
175 198 0
173 197 0
175 198 0
175 198 0
175 198 0
175 198 0
175 198 0
172 196 0
174 198 0
175 197 0
176 199 0
174 198 0
173 197 0
174 198 0
174 197 0
174 197 0
172 197 0
174 198 0
175 198 0
175 198 0
175 198 0
176 199 0
173 197 0
175 198 0
174 198 0
174 198 0
176 199 0
174 198 0
173 197 0
174 198 0
173 197 0
174 198 0
173 197 0
173 197 0
175 198 0
175 198 0
175 198 0
174 197 0
175 198 0
176 199 0
177 199 0
174 197 0
175 198 0
174 198 0
173 196 0
175 198 0
174 198 0
174 198 0
176 198 0
174 197 0
173 197 0
174 198 0
175 198 0
173 197 0
175 198 0
174 198 0
175 198 0
175 198 0
175 198 0
175 198 0
174 197 0
176 199 0
174 198 0
175 198 0
175 198 0
173 197 0
174 198 0
174 197 0
175 198 0
175 198 0
175 198 0
175 198 0
175 198 0
174 198 0
175 198 0
173 197 0
176 198 0
175 198 0
174 198 0
174 198 0
175 198 0
174 197 0
175 198 0
174 198 0
174 198 0
176 199 0
175 198 0
176 198 0
174 198 0
174 198 0
174 198 0
174 198 0
175 198 0
174 197 0
175 198 0
173 197 0
175 198 0
174 198 0
173 197 0
173 197 0
175 198 0
174 198 0
174 198 0
172 196 0
176 198 0
173 197 0
176 198 0
173 197 0
174 197 0
174 198 0
173 197 0
174 197 0
175 198 0
172 196 0
173 197 0
175 198 0
175 198 0
175 198 0
175 198 0
173 197 0
176 198 0
173 197 0
174 198 0
173 197 0
173 197 0
174 198 0
174 198 0
172 197 0
174 197 0
175 198 0
174 197 0
174 197 0
174 197 0
175 198 0
175 198 0
177 199 0
175 198 0
174 197 0
174 198 0
175 198 0
175 198 0
173 197 0
176 199 0
174 197 0
174 198 0
176 198 0
174 198 0
173 197 0
174 197 0
175 198 0
174 198 0
173 197 0
173 197 0
174 197 0
175 198 0
175 197 0
173 197 0
176 199 0
172 197 0
173 197 0
173 197 0
174 198 0
174 198 0
173 197 0
175 198 0
174 198 0
174 198 0
174 197 0
173 197 0
174 197 0
174 197 0
174 197 0
176 198 0
173 197 0
177 199 0
175 198 0
173 197 0
176 199 0
174 198 0
174 198 0
174 197 0
174 198 0
174 197 0
174 197 0
173 196 0
173 196 0
175 198 0
175 198 0
174 197 0
174 198 0
174 197 0
174 197 0
173 197 0
175 198 0
173 196 0
174 197 0
174 197 0
173 197 0
173 197 0
174 197 0
175 198 0
175 198 0
174 198 0
174 197 0
174 198 0
172 196 0
175 198 0
172 195 0
174 197 0
174 198 0
175 198 0
174 197 0
173 197 0
172 197 0
173 197 0
174 197 0
172 196 0
176 198 0
172 197 0
174 197 0
174 197 0
174 197 0
174 197 0
176 199 0
173 196 0
173 195 0
173 197 0
173 197 0
175 198 0
174 197 0
172 196 0
173 197 0
173 195 0
175 198 0
175 198 0
175 198 0
173 197 0
175 198 0
174 198 0
174 197 0
175 198 0
173 197 0
172 196 0
174 198 0
175 198 0
173 197 0
173 197 0
175 198 0
174 197 0
172 196 0
174 198 0
175 198 0
174 198 0
173 197 0
177 199 0
174 197 0
174 197 0
172 196 0
174 197 0
175 198 0
176 198 0
173 196 0
175 198 0
173 196 0
173 195 0
174 197 0
175 198 0
173 197 0
173 197 0
173 196 0
172 195 0
174 197 0
175 198 0
174 197 0
174 197 0
174 196 0
173 196 0
174 197 0
174 197 0
174 197 0
173 197 0
170 194 0
175 198 0
174 197 0
175 198 0
175 198 0
170 194 0
175 198 0
174 197 0
173 196 0
172 195 0
172 195 0
174 197 0
173 197 0
175 198 0
174 198 0
172 196 0
172 195 0
175 198 0
172 196 0
173 197 0
172 196 0
174 197 0
171 194 0
173 197 0
173 196 0
175 198 0
174 197 0
172 196 0
174 198 0
174 197 0
172 195 11
172 196 0
170 192 0
168 190 19
168 185 42
167 184 45
159 171 52
160 170 58
160 165 75
153 157 70
150 149 83
153 151 88
151 148 90
151 146 90
156 151 97
151 146 93
154 148 94
156 152 98
156 152 99
157 153 101
150 147 96
147 143 94
156 151 99
163 160 106
160 157 104
156 153 102
164 160 106
162 159 106
163 160 107
152 149 99
154 152 101
155 152 101
155 152 101
159 156 104
150 148 99
159 156 104
157 154 102
155 153 102
158 156 104
155 152 101
156 152 101
151 148 98
156 153 101
165 159 104
163 159 105
156 152 99
154 150 99
144 139 90
159 154 101
148 143 93
150 145 93
138 132 86
143 138 87
156 152 92
157 154 91
153 156 73
153 158 68
163 172 67
163 173 62
161 175 48
167 186 34
171 192 22
174 195 16
173 197 0
173 196 0
176 198 0
176 199 0
173 196 0
174 198 0
175 198 0
173 197 0
174 197 0
172 196 0
174 198 0
174 197 0
175 198 0
175 198 0
175 198 0
174 198 0
174 197 0
174 197 0
174 197 0
175 198 0
174 198 0
173 197 0
175 198 0
173 197 0
173 197 0
171 195 0
174 198 0
174 197 0
174 198 0
173 197 0
176 198 0
174 198 0
174 197 0
176 198 0
173 197 0
174 197 0
175 198 0
174 197 0
174 197 0
175 197 0
173 196 0
174 197 0
176 198 0
173 197 0
175 198 0
174 197 0
174 197 0
175 198 0
174 198 0
174 198 0
173 197 0
173 197 0
174 197 0
176 198 0
175 198 0
174 198 0
175 198 0
174 198 0
175 198 0
174 198 0
175 198 0
175 198 0
175 198 0
174 197 0
174 197 0
174 197 0
173 197 0
174 197 0
173 197 0
173 197 0
175 198 0
175 198 0
176 198 0
174 198 0
173 197 0
174 197 0
174 198 0
174 197 0
175 198 0
176 198 0
175 198 0
174 198 0
173 197 0
174 198 0
173 197 0
175 198 0
175 198 0
175 198 0
174 198 0
174 198 0
175 198 0
174 198 0
175 198 0
173 197 0
175 197 0
173 197 0
173 197 0
175 198 0
175 198 0
173 197 0
176 199 0
176 198 0
174 197 0
176 199 0
175 198 0
175 198 0
174 197 0
175 198 0
173 197 0
174 197 0
174 197 0
176 199 0
174 197 0
174 198 0
174 198 0
175 198 0
175 198 0
173 197 0
174 198 0
175 198 0
173 197 0
175 198 0
174 197 0
175 198 0
174 198 0
175 198 0
174 197 0
176 199 0
176 199 0
174 198 0
174 198 0
175 198 0
175 198 0
175 198 0
175 198 0
174 197 0
176 198 0
173 197 0
175 198 0
176 198 0
176 198 0
173 197 0
173 197 0
173 196 0
175 198 0
176 199 0
173 197 0
174 198 0
173 197 0
174 197 0
174 198 0
174 198 0
174 197 0
174 197 0
174 198 0
175 198 0
175 198 0
174 197 0
173 197 0
174 197 0
175 198 0
175 197 0
173 197 0
175 198 0
174 197 0
174 197 0
173 197 0
175 198 0
174 198 0
172 197 0
174 197 0
174 197 0
175 198 0
173 197 0
174 198 0
174 197 0
175 198 0
173 197 0
174 198 0
174 197 0
175 198 0
175 198 0
174 198 0
173 197 0
173 197 0
174 198 0
175 198 0
174 198 0
174 198 0
175 198 0
174 197 0
174 197 0
172 196 0
174 196 0
175 198 0
174 198 0
172 196 0
173 196 0
175 198 0
176 199 0
174 198 0
174 198 0
174 197 0
175 198 0
173 197 0
173 196 0
173 197 0
173 197 0
176 198 0
174 197 0
175 198 0
175 198 0
174 198 0
174 198 0
173 196 0
175 198 0
175 198 0
172 196 0
176 198 0
173 197 0
174 197 0
174 197 0
174 198 0
174 197 0
173 197 0
175 198 0
173 196 0
174 198 0
173 197 0
174 197 0
175 197 0
174 198 0
174 197 0
173 197 0
175 197 0
173 197 0
171 195 0
173 197 0
175 198 0
173 197 0
174 197 0
174 197 0
172 196 0
175 198 0
174 196 0
172 196 0
174 197 0
175 198 0
174 197 0
172 197 0
174 197 0
176 199 0
174 197 0
174 198 0
173 197 0
172 196 0
175 198 0
174 198 0
173 197 0
173 196 0
175 198 0
175 197 0
175 198 0
172 196 0
173 197 0
172 196 0
174 197 0
174 198 0
173 196 0
176 198 0
174 197 0
174 198 0
175 198 0
173 197 0
174 197 0
175 198 0
169 192 0
173 197 0
174 197 0
173 197 0
174 197 0
174 196 0
172 195 0
175 198 0
173 196 0
172 196 0
174 198 0
173 197 0
172 195 0
175 198 0
175 198 0
173 197 0
174 197 0
174 198 0
174 197 0
175 198 0
173 197 0
175 198 0
174 198 0
173 196 0
173 196 0
172 195 0
173 196 0
173 197 0
171 195 0
172 196 0
174 197 0
174 197 0
173 196 0
174 198 0
173 197 0
174 197 0
172 196 0
174 198 0
174 197 0
173 195 0
173 196 0
173 197 0
172 195 0
173 197 0
173 197 0
170 194 0
174 197 0
175 197 0
174 196 0
174 197 0
172 196 0
173 197 0
174 197 0
173 197 0
172 195 0
175 198 0
174 197 0
174 197 0
175 197 0
174 197 0
173 196 0
176 198 11
168 188 16
162 180 25
156 172 39
164 180 41
162 173 60
156 168 56
144 151 63
146 146 74
153 154 78
146 142 86
156 150 93
154 149 94
144 139 90
154 150 97
156 151 99
154 151 98
151 147 96
149 145 96
147 144 95
152 149 99
165 161 106
160 157 104
158 156 104
156 153 101
158 155 103
155 153 102
161 158 105
159 157 104
161 158 106
157 155 103
154 151 101
157 154 103
160 157 104
164 161 107
155 153 102
160 157 105
161 158 106
160 157 105
155 152 101
155 152 101
159 156 104
160 157 105
162 158 105
158 156 104
155 151 99
155 151 100
154 149 98
154 151 99
155 151 99
155 149 97
158 152 99
152 146 95
154 148 95
152 146 92
151 149 84
139 139 74
156 162 68
155 164 66
160 171 57
166 182 37
165 182 36
174 195 25
174 197 19
176 198 0
173 196 0
175 198 0
175 198 0
175 198 0
173 196 0
174 198 0
173 196 0
175 198 0
173 196 0
175 198 0
174 197 0
173 197 0
173 197 0
174 197 0
172 197 0
175 198 0
173 197 0
174 197 0
173 197 0
174 198 0
175 198 0
174 198 0
175 198 0
176 198 0
174 198 0
174 197 0
175 198 0
174 197 0
173 197 0
175 198 0
176 199 0
174 197 0
175 198 0
174 197 0
173 197 0
174 198 0
176 198 0
176 199 0
172 196 0
175 198 0
174 198 0
174 198 0
172 196 0
173 197 0
175 198 0
173 197 0
175 198 0
175 198 0
173 197 0
175 198 0
175 198 0
175 198 0
173 197 0
175 198 0
175 198 0
174 198 0
174 197 0
176 199 0
176 198 0
175 198 0
174 197 0
174 197 0
174 197 0
176 199 0
174 198 0
176 198 0
174 197 0
174 197 0
173 197 0
174 198 0
174 198 0
174 197 0
173 197 0
176 198 0
175 198 0
175 198 0
176 199 0
175 198 0
175 198 0
174 197 0
174 198 0
173 197 0
175 198 0
174 198 0
175 198 0
175 198 0
175 198 0
175 198 0
175 198 0
177 199 0
173 196 0
174 198 0
176 198 0
176 199 0
173 197 0
174 197 0
175 198 0
174 197 0
176 198 0
174 197 0
174 198 0
175 198 0
174 198 0
175 198 0
174 197 0
173 197 0
176 199 0
173 196 0
175 198 0
175 198 0
173 197 0
175 198 0
175 198 0
175 198 0
175 198 0
175 198 0
174 198 0
175 198 0
174 197 0
175 198 0
176 199 0
176 199 0
175 198 0
175 198 0
174 198 0
175 198 0
174 198 0
174 197 0
173 197 0
175 198 0
175 198 0
173 197 0
174 198 0
175 198 0
174 197 0
174 198 0
173 197 0
175 198 0
175 198 0
176 198 0
175 198 0
174 198 0
174 198 0
174 198 0
174 197 0
173 197 0
174 197 0
175 198 0
174 197 0
174 198 0
174 198 0
173 197 0
175 198 0
174 197 0
173 197 0
173 197 0
172 196 0
173 197 0
174 197 0
175 198 0
175 198 0
175 198 0
172 196 0
173 197 0
176 198 0
173 197 0
175 198 0
174 197 0
174 197 0
174 197 0
173 197 0
174 198 0
173 197 0
174 197 0
174 197 0
175 198 0
174 197 0
174 198 0
173 197 0
175 198 0
174 197 0
174 198 0
175 198 0
175 198 0
176 199 0
174 198 0
173 197 0
173 197 0
174 197 0
175 198 0
175 198 0
175 198 0
174 198 0
175 198 0
173 197 0
173 197 0
176 198 0
174 198 0
173 197 0
172 196 0
174 198 0
175 198 0
175 197 0
174 197 0
175 198 0
176 198 0
174 197 0
174 197 0
174 197 0
175 198 0
173 197 0
175 198 0
174 197 0
174 198 0
174 197 0
172 196 0
173 196 0
174 198 0
172 196 0
176 199 0
172 196 0
174 198 0
175 198 0
175 198 0
173 197 0
173 197 0
173 197 0
174 198 0
173 197 0
174 197 0
175 198 0
174 197 0
174 198 0
174 197 0
175 198 0
172 196 0
174 197 0
174 197 0
174 197 0
173 196 0
173 197 0
173 197 0
173 197 0
173 197 0
173 196 0
174 198 0
173 196 0
173 197 0
173 197 0
172 196 0
173 196 0
173 197 0
173 196 0
174 197 0
173 196 0
174 197 0
172 196 0
175 198 0
175 198 0
175 198 0
174 197 0
174 198 0
174 197 0
173 196 0
174 198 0
173 197 0
175 198 0
174 198 0
174 197 0
172 196 0
173 197 0
172 196 0
172 196 0
174 197 0
173 196 0
175 198 0
174 197 0
173 197 0
174 197 0
174 197 0
174 198 0
172 195 0
174 197 0
175 198 0
173 197 0
174 197 0
173 196 0
173 197 0
175 198 0
175 198 0
174 198 0
174 197 0
172 196 0
176 199 0
173 197 0
174 197 0
174 198 0
174 196 0
172 195 0
174 197 0
175 198 0
175 198 0
172 196 0
173 196 0
173 197 0
171 195 0
169 193 0
173 196 0
174 197 0
172 196 0
172 196 0
173 196 0
172 195 0
171 194 0
174 197 0
174 197 0
173 196 0
174 198 0
174 196 0
174 197 0
174 197 0
173 197 0
173 196 0
173 197 0
173 197 0
174 197 0
173 197 0
173 196 0
173 196 0
173 195 0
173 196 0
174 198 0
172 196 0
175 197 0
170 193 0
169 191 16
165 185 22
164 181 37
158 173 42
163 176 54
159 169 61
163 169 69
153 157 74
143 141 78
150 146 84
150 146 93
154 149 93
145 140 85
158 153 98
158 153 100
150 146 94
153 149 98
152 148 97
155 151 97
165 161 106
159 156 103
162 159 105
159 156 103
160 157 105
157 154 103
160 157 104
154 152 102
163 160 107
160 157 104
159 157 105
161 158 105
163 161 108
164 162 108
159 156 104
156 154 103
153 151 101
156 153 102
161 158 105
150 148 99
161 158 105
158 155 104
163 159 106
158 156 104
160 157 103
160 157 104
153 148 97
154 151 99
157 154 101
160 156 103
154 150 98
154 149 98
159 153 99
157 152 99
158 151 97
145 140 90
160 154 96
145 142 84
158 157 80
154 159 65
152 160 62
162 175 57
166 181 48
168 188 22
173 195 25
174 197 11
175 198 0
174 197 0
173 197 0
174 197 0
175 198 0
174 197 0
172 195 0
173 197 0
174 197 0
174 197 0
174 198 0
173 197 0
172 196 0
174 197 0
174 197 0
173 197 0
174 198 0
174 198 0
174 197 0
173 197 0
174 198 0
173 197 0
175 197 0
175 198 0
174 197 0
174 197 0
175 198 0
172 197 0
175 198 0
173 197 0
175 198 0
174 198 0
174 197 0
173 197 0
174 197 0
174 198 0
174 197 0
174 197 0
175 198 0
175 198 0
175 198 0
173 197 0
173 197 0
174 198 0
174 197 0
176 198 0
175 198 0
174 198 0
174 197 0
172 197 0
175 198 0
174 198 0
174 198 0
175 198 0
173 197 0
174 197 0
177 199 0
174 198 0
173 197 0
174 197 0
175 198 0
173 197 0
175 198 0
173 197 0
175 198 0
175 198 0
177 199 0
174 198 0
172 196 0
174 197 0
174 197 0
175 198 0
174 197 0
174 198 0
175 198 0
175 198 0
174 197 0
176 198 0
175 198 0
175 198 0
174 197 0
173 197 0
175 198 0
175 198 0
173 197 0
175 198 0
175 198 0
174 197 0
176 199 0
174 198 0
174 197 0
174 197 0
175 198 0
175 198 0
175 198 0
174 197 0
173 197 0
174 198 0
176 199 0
174 198 0
175 198 0
175 198 0
173 197 0
174 197 0
174 198 0
173 197 0
175 198 0
173 197 0
175 198 0
176 199 0
174 198 0
175 198 0
174 198 0
175 198 0
173 197 0
173 197 0
175 198 0
174 197 0
173 197 0
174 198 0
175 198 0
175 198 0
175 198 0
175 198 0
175 198 0
172 196 0
174 198 0
175 198 0
173 197 0
174 198 0
175 198 0
174 198 0
174 198 0
177 199 0
174 197 0
174 197 0
175 198 0
174 198 0
174 197 0
173 197 0
173 197 0
174 197 0
175 198 0
174 198 0
173 197 0
173 197 0
175 198 0
176 198 0
174 198 0
174 197 0
174 198 0
174 197 0
174 198 0
174 197 0
172 196 0
174 198 0
173 196 0
173 197 0
174 197 0
176 199 0
174 198 0
174 197 0
173 197 0
172 196 0
172 196 0
172 195 0
175 198 0
174 198 0
175 198 0
175 198 0
175 198 0
174 198 0
175 198 0
174 198 0
173 196 0
175 198 0
174 197 0
171 196 0
176 198 0
172 196 0
175 198 0
175 198 0
173 197 0
174 197 0
173 197 0
174 198 0
175 198 0
173 197 0
174 197 0
174 198 0
175 198 0
174 197 0
172 196 0
173 196 0
174 197 0
173 197 0
172 197 0
174 198 0
173 196 0
174 198 0
173 197 0
174 198 0
172 196 0
174 197 0
173 197 0
175 198 0
175 198 0
175 198 0
174 197 0
174 198 0
174 197 0
172 196 0
174 198 0
174 198 0
173 197 0
174 197 0
173 197 0
176 199 0
174 197 0
173 197 0
174 197 0
175 198 0
175 198 0
176 199 0
172 196 0
173 196 0
175 198 0
173 197 0
175 198 0
175 198 0
173 197 0
173 197 0
174 197 0
174 198 0
174 197 0
174 198 0
174 198 0
173 196 0
174 198 0
174 197 0
176 199 0
174 197 0
174 197 0
172 196 0
174 198 0
173 197 0
172 196 0
174 197 0
174 197 0
174 196 0
173 196 0
173 197 0
174 197 0
176 198 0
173 197 0
171 194 0
174 198 0
172 197 0
175 198 0
174 196 0
173 196 0
174 197 0
173 197 0
174 197 0
174 198 0
173 196 0
173 197 0
174 197 0
171 195 0
174 197 0
173 196 0
172 196 0
174 197 0
173 196 0
172 195 0
173 196 0
174 197 0
174 197 0
172 196 0
174 197 0
172 195 0
172 196 0
174 197 0
174 197 0
173 196 0
173 197 0
173 195 0
173 197 0
174 198 0
175 198 0
175 198 0
171 195 0
173 196 0
174 197 0
173 196 0
174 198 0
174 197 0
172 196 0
173 197 0
172 196 0
173 196 0
173 196 0
175 198 0
173 196 0
172 195 0
173 197 0
173 196 0
172 196 0
174 198 0
174 197 0
176 198 0
173 196 0
172 195 0
175 198 0
173 196 0
176 198 0
174 196 0
175 197 0
174 197 0
173 197 0
172 196 0
174 197 0
172 196 0
177 199 0
175 198 0
174 197 0
175 197 0
175 198 0
173 196 0
171 195 0
174 197 0
170 193 0
173 195 0
173 196 0
167 189 11
167 188 25
169 185 44
163 180 41
157 171 48
158 165 67
155 159 71
157 156 82
146 143 76
150 146 87
146 142 85
152 147 90
150 146 91
157 152 97
159 154 97
155 151 97
150 146 95
159 155 101
163 158 103
160 156 103
154 150 98
157 154 102
159 156 103
160 159 106
165 162 108
160 156 104
162 159 106
162 159 106
162 159 106
158 156 104
162 159 106
158 157 105
155 152 101
163 161 108
165 163 109
165 163 109
155 153 103
156 155 104
161 159 106
159 157 105
158 155 104
161 159 106
164 161 107
163 160 107
156 154 102
165 161 106
160 157 104
151 148 97
155 152 101
159 155 101
148 144 95
157 151 99
154 150 97
145 140 89
154 149 95
147 142 90
151 146 92
132 127 80
156 152 88
151 148 80
153 156 71
156 167 57
161 176 45
158 172 41
167 186 36
171 193 19
173 196 11
174 198 0
175 197 0
174 197 0
174 198 0
174 196 0
173 197 0
176 198 0
173 197 0
175 198 0
173 196 0
173 196 0
174 198 0
174 198 0
172 195 0
174 198 0
173 197 0
176 198 0
174 197 0
175 198 0
174 198 0
175 198 0
175 198 0
175 197 0
174 197 0
173 197 0
175 198 0
175 197 0
174 198 0
173 195 0
173 197 0
174 198 0
175 198 0
175 198 0
174 197 0
174 197 0
173 197 0
174 197 0
174 197 0
175 198 0
175 198 0
174 197 0
174 198 0
175 198 0
175 198 0
175 198 0
174 197 0
173 197 0
173 197 0
173 197 0
174 198 0
174 197 0
175 198 0
173 196 0
174 196 0
175 198 0
175 198 0
174 197 0
173 197 0
175 198 0
173 197 0
174 198 0
175 198 0
174 198 0
171 196 0
174 197 0
173 197 0
175 198 0
173 197 0
175 198 0
174 197 0
173 197 0
175 198 0
174 197 0
173 197 0
174 198 0
174 197 0
173 197 0
173 197 0
175 198 0
175 198 0
174 198 0
174 197 0
172 196 0
174 197 0
174 198 0
176 199 0
175 198 0
175 198 0
175 198 0
173 197 0
175 198 0
175 198 0
175 198 0
173 197 0
174 197 0
175 198 0
175 198 0
174 198 0
175 198 0
174 197 0
174 198 0
174 196 0
173 197 0
175 198 0
175 198 0
174 198 0
174 198 0
174 198 0
174 197 0
175 198 0
176 198 0
173 197 0
175 198 0
174 198 0
173 197 0
173 197 0
174 198 0
173 197 0
175 198 0
176 198 0
174 197 0
175 198 0
173 197 0
173 197 0
174 198 0
174 197 0
174 198 0
176 198 0
174 198 0
172 196 0
173 197 0
176 198 0
174 198 0
174 198 0
174 198 0
174 198 0
175 198 0
174 197 0
175 198 0
174 197 0
174 198 0
174 198 0
174 198 0
174 198 0
173 197 0
175 198 0
174 198 0
175 198 0
175 198 0
175 198 0
175 198 0
175 198 0
175 198 0
176 199 0
173 197 0
173 197 0
174 197 0
175 198 0
173 197 0
174 198 0
173 197 0
175 198 0
175 198 0
174 198 0
174 197 0
172 196 0
174 198 0
173 197 0
174 197 0
174 197 0
175 198 0
173 197 0
172 196 0
176 199 0
174 197 0
175 198 0
172 196 0
174 197 0
174 197 0
174 198 0
175 198 0
175 198 0
174 198 0
174 198 0
174 198 0
175 198 0
175 198 0
174 197 0
173 197 0
175 198 0
175 198 0
175 198 0
175 198 0
174 198 0
173 197 0
174 197 0
174 197 0
175 198 0
172 196 0
174 198 0
173 197 0
176 198 0
175 198 0
175 198 0
174 197 0
177 199 0
173 197 0
173 197 0
174 197 0
173 197 0
172 196 0
174 198 0
174 197 0
175 198 0
173 196 0
173 197 0
174 197 0
174 198 0
174 197 0
172 196 0
172 196 0
174 197 0
173 196 0
172 195 0
174 197 0
175 197 0
173 197 0
172 197 0
173 197 0
174 197 0
174 197 0
173 197 0
173 197 0
174 198 0
172 195 0
175 198 0
174 198 0
173 197 0
173 196 0
174 198 0
173 196 0
175 198 0
175 198 0
173 197 0
174 198 0
173 196 0
174 197 0
176 199 0
173 197 0
173 197 0
171 194 0
172 196 0
172 196 0
174 197 0
175 198 0
176 199 0
174 198 0
173 196 0
175 198 0
173 197 0
174 197 0
173 196 0
174 197 0
171 195 0
174 197 0
173 196 0
174 197 0
175 198 0
174 198 0
173 196 0
175 198 0
173 196 0
173 197 0
171 195 0
172 195 0
174 197 0
174 197 0
175 197 0
174 197 0
174 197 0
174 197 0
173 196 0
172 195 0
171 195 0
174 197 0
174 198 0
171 195 0
173 196 0
174 198 0
173 197 0
175 198 0
174 197 0
173 197 0
174 197 0
173 195 0
174 198 0
174 197 0
171 195 0
171 196 0
172 196 0
174 196 0
173 196 0
172 196 0
173 196 0
173 196 0
174 196 0
173 196 0
171 195 0
174 197 0
174 197 0
172 195 0
173 197 0
173 197 0
176 198 0
172 195 0
174 198 0
173 196 0
174 198 0
172 195 0
174 197 0
173 196 0
169 192 0
173 196 0
173 196 0
175 198 0
173 197 0
174 196 0
173 197 0
172 195 0
173 197 0
173 196 0
175 198 0
171 194 11
168 189 22
168 183 44
160 173 41
155 168 47
160 170 59
155 161 67
159 159 83
158 157 82
149 144 82
156 151 93
156 150 95
154 149 91
148 143 91
157 153 100
149 145 93
154 149 95
155 151 99
159 155 101
161 157 103
152 149 99
165 161 106
160 157 104
162 159 105
164 161 107
163 160 107
163 160 107
160 158 105
166 163 109
162 159 106
163 160 106
163 160 106
161 159 106
164 161 108
157 155 104
156 153 103
161 158 105
158 155 104
159 156 104
160 158 106
163 160 106
159 157 105
161 158 106
160 158 106
159 156 104
160 158 105
159 157 104
154 151 101
162 158 104
161 157 103
163 159 104
153 149 98
164 160 104
156 151 98
165 160 104
154 150 97
156 150 96
146 141 87
152 146 89
152 147 90
151 148 84
154 153 83
148 151 70
164 169 67
157 169 52
160 178 37
170 189 28
173 194 22
174 198 0
174 197 0
173 196 0
175 197 0
175 198 0
174 197 0
174 198 0
175 198 0
173 197 0
174 197 0
174 197 0
174 197 0
173 196 0
173 197 0
175 198 0
173 197 0
173 197 0
174 197 0
175 198 0
174 198 0
172 195 0
174 197 0
174 197 0
175 198 0
175 198 0
173 197 0
174 198 0
174 197 0
175 198 0
173 197 0
173 197 0
173 197 0
173 197 0
175 198 0
174 197 0
175 198 0
174 197 0
174 198 0
173 197 0
174 198 0
173 196 0
174 198 0
175 198 0
172 196 0
174 197 0
175 198 0
175 198 0
174 198 0
174 198 0
173 197 0
175 198 0
175 198 0
173 197 0
174 197 0
175 198 0
175 198 0
174 197 0
174 197 0
173 196 0
175 198 0
173 196 0
174 198 0
175 197 0
173 197 0
174 198 0
175 198 0
174 198 0
173 196 0
175 198 0
175 198 0
175 198 0
176 198 0
175 198 0
173 197 0
175 198 0
177 199 0
176 199 0
174 198 0
174 197 0
175 198 0
172 196 0
177 199 0
174 198 0
175 198 0
174 198 0
175 198 0
173 196 0
175 198 0
172 197 0
173 197 0
175 198 0
174 198 0
173 197 0
177 199 0
175 198 0
175 198 0
174 198 0
175 198 0
173 197 0
174 198 0
174 197 0
173 197 0
174 198 0
175 198 0
175 198 0
174 198 0
175 197 0
176 198 0
175 198 0
176 199 0
174 197 0
174 197 0
175 198 0
174 197 0
174 198 0
176 198 0
174 198 0
175 198 0
173 197 0
175 198 0
175 198 0
175 198 0
172 196 0
175 198 0
175 198 0
174 197 0
174 198 0
174 197 0
174 197 0
174 198 0
173 197 0
174 197 0
174 198 0
175 198 0
174 198 0
174 197 0
175 198 0
174 198 0
174 197 0
174 197 0
172 196 0
175 198 0
174 198 0
176 198 0
174 197 0
174 197 0
175 198 0
174 198 0
175 198 0
175 198 0
173 197 0
175 198 0
174 198 0
173 197 0
174 197 0
172 196 0
174 198 0
174 197 0
175 198 0
172 197 0
174 198 0
176 199 0
176 198 0
173 197 0
173 196 0
174 198 0
174 198 0
177 199 0
175 198 0
174 197 0
176 198 0
174 198 0
175 198 0
176 199 0
174 198 0
175 198 0
174 198 0
174 197 0
173 197 0
174 198 0
173 197 0
173 197 0
173 197 0
175 198 0
175 198 0
174 198 0
174 198 0
173 197 0
174 198 0
175 198 0
177 199 0
173 197 0
170 195 0
175 198 0
174 198 0
173 197 0
174 197 0
175 198 0
176 199 0
174 197 0
174 197 0
173 196 0
173 197 0
172 196 0
173 197 0
173 197 0
175 198 0
174 197 0
172 196 0
174 197 0
176 198 0
174 198 0
173 196 0
174 198 0
175 198 0
172 197 0
174 198 0
174 198 0
173 197 0
173 196 0
173 197 0
175 198 0
174 197 0
174 198 0
174 198 0
174 198 0
176 199 0
175 198 0
175 197 0
174 197 0
174 198 0
174 197 0
174 198 0
177 199 0
172 196 0
173 196 0
173 197 0
173 197 0
174 197 0
174 198 0
173 197 0
172 195 0
173 196 0
173 196 0
172 195 0
175 198 0
172 195 0
171 195 0
173 197 0
174 198 0
173 197 0
172 196 0
173 197 0
174 198 0
173 197 0
172 196 0
175 198 0
175 198 0
174 197 0
174 197 0
174 197 0
171 196 0
174 198 0
173 197 0
174 198 0
174 197 0
174 197 0
173 196 0
171 195 0
174 197 0
174 198 0
172 196 0
175 198 0
171 194 0
174 197 0
173 197 0
173 196 0
172 195 0
171 195 0
173 196 0
171 195 0
175 198 0
174 197 0
174 198 0
173 197 0
171 195 0
174 197 0
174 197 0
174 196 0
174 197 0
174 197 0
174 197 0
176 198 0
173 197 0
174 197 0
173 196 0
171 194 0
173 196 0
172 195 0
175 197 0
173 197 0
173 196 0
174 197 0
173 196 0
172 197 0
173 197 0
174 197 0
173 197 0
171 193 0
174 198 0
174 197 0
175 198 0
173 196 0
174 196 0
175 198 0
174 196 0
173 197 0
173 196 0
174 197 0
174 196 0
175 198 0
171 195 0
172 195 0
175 197 0
170 194 0
174 196 0
173 196 0
174 197 0
175 197 0
173 197 0
173 196 0
172 194 19
171 191 28
166 182 36
156 172 37
165 173 60
156 166 58
155 160 66
151 152 74
149 148 77
149 146 87
147 142 84
146 141 87
157 152 97
148 144 91
154 150 96
157 152 96
157 151 94
154 151 99
160 157 102
158 154 101
166 162 106
157 154 101
167 163 107
166 162 106
158 155 103
162 159 105
166 163 108
162 160 106
165 163 108
160 157 105
166 163 108
167 164 110
161 159 106
165 163 109
162 160 107
163 161 108
163 161 108
167 165 110
160 158 106
163 161 108
163 160 107
165 162 108
160 158 104
164 161 107
162 160 106
159 156 104
164 161 108
165 162 108
164 161 108
160 157 104
161 157 104
158 154 102
162 158 104
163 158 104
162 156 101
155 151 98
159 154 100
154 149 96
148 143 90
152 147 92
147 142 88
140 135 84
153 150 87
151 149 74
154 159 68
158 169 59
165 180 47
170 186 42
170 191 11
172 194 11
172 196 0
175 197 0
175 198 0
176 198 0
173 197 0
172 196 0
174 197 0
174 198 0
176 198 0
173 196 0
175 198 0
172 196 0
174 198 0
173 197 0
172 196 0
176 198 0
175 198 0
174 197 0
174 198 0
176 199 0
174 197 0
174 197 0
175 198 0
174 197 0
175 197 0
174 198 0
175 198 0
175 198 0
173 196 0
174 197 0
174 198 0
175 198 0
173 197 0
174 198 0
174 198 0
177 199 0
174 197 0
173 197 0
175 198 0
174 197 0
173 196 0
175 198 0
174 198 0
174 197 0
174 198 0
175 198 0
173 197 0
174 197 0
174 198 0
175 198 0
174 197 0
173 197 0
174 198 0
176 198 0
174 197 0
174 197 0
175 198 0
175 198 0
175 197 0
175 197 0
173 196 0
174 197 0
174 197 0
176 198 0
175 198 0
175 198 0
174 198 0
174 197 0
174 197 0
175 198 0
174 198 0
174 198 0
173 197 0
175 198 0
174 198 0
174 197 0
174 198 0
174 197 0
174 197 0
173 197 0
173 197 0
174 197 0
175 198 0
175 198 0
173 196 0
175 198 0
176 198 0
174 198 0
174 198 0
174 197 0
174 198 0
174 197 0
174 197 0
174 198 0
174 197 0
175 198 0
174 198 0
175 198 0
175 198 0
175 198 0
174 198 0
173 197 0
174 198 0
176 199 0
175 198 0
174 198 0
174 197 0
174 198 0
175 198 0
173 197 0
175 198 0
174 197 0
174 198 0
173 197 0
174 198 0
174 198 0
174 197 0
174 198 0
174 198 0
174 198 0
172 196 0
175 198 0
175 198 0
173 197 0
174 197 0
173 197 0
174 198 0
174 198 0
175 198 0
174 198 0
174 197 0
174 197 0
174 198 0
176 198 0
175 198 0
174 197 0
174 197 0
173 197 0
173 197 0
175 198 0
175 198 0
174 197 0
174 198 0
173 196 0
174 198 0
174 197 0
172 197 0
174 198 0
174 197 0
174 197 0
176 199 0
174 197 0
175 198 0
175 198 0
174 198 0
173 197 0
175 198 0
173 196 0
174 197 0
175 198 0
175 198 0
174 198 0
176 198 0
174 197 0
175 198 0
175 198 0
174 197 0
173 197 0
174 197 0
174 198 0
176 198 0
171 195 0
174 197 0
175 198 0
173 197 0
174 197 0
173 197 0
173 197 0
175 198 0
172 196 0
173 197 0
173 197 0
174 198 0
173 197 0
174 197 0
173 197 0
173 196 0
175 198 0
172 196 0
172 196 0
174 197 0
174 197 0
173 197 0
175 198 0
173 197 0
172 196 0
175 198 0
174 198 0
175 198 0
175 198 0
175 198 0
174 197 0
175 198 0
174 197 0
175 198 0
173 197 0
172 196 0
173 197 0
173 197 0
173 197 0
172 196 0
174 198 0
175 198 0
174 198 0
173 197 0
174 198 0
173 197 0
174 197 0
173 197 0
174 197 0
176 199 0
173 197 0
174 197 0
175 198 0
174 197 0
175 198 0
174 197 0
173 197 0
172 196 0
174 198 0
175 198 0
174 198 0
173 197 0
174 197 0
174 197 0
175 198 0
174 197 0
174 197 0
173 197 0
174 197 0
173 197 0
174 198 0
171 196 0
175 198 0
174 197 0
174 198 0
174 197 0
173 197 0
171 196 0
174 197 0
174 198 0
173 196 0
173 197 0
175 198 0
171 195 0
174 198 0
172 196 0
172 195 0
171 195 0
172 195 0
174 198 0
176 199 0
175 198 0
175 198 0
175 198 0
172 195 0
174 196 0
173 196 0
174 197 0
175 198 0
172 196 0
171 194 0
174 197 0
173 197 0
175 198 0
171 196 0
172 196 0
173 197 0
175 198 0
174 197 0
173 196 0
172 195 0
173 197 0
173 197 0
174 198 0
172 196 0
173 196 0
173 197 0
173 196 0
173 196 0
172 195 0
174 197 0
174 198 0
173 196 0
176 198 0
173 196 0
173 197 0
173 197 0
174 197 0
171 195 0
170 194 0
171 195 0
172 195 0
173 195 0
175 198 0
173 197 0
173 197 0
173 196 0
174 197 0
171 195 0
174 197 0
173 197 0
173 196 0
174 197 0
173 196 0
172 196 0
174 197 0
175 198 0
170 193 0
173 197 0
171 195 0
172 195 0
174 197 0
174 197 0
175 198 0
174 197 0
174 197 0
175 198 0
174 197 0
172 195 11
170 192 16
164 182 34
165 181 44
153 167 47
149 157 54
160 165 66
151 154 71
140 139 70
153 150 80
146 141 84
155 148 93
147 142 90
149 146 95
153 150 96
159 153 98
160 155 101
159 154 100
157 153 100
154 151 100
159 156 102
165 160 105
164 160 105
161 158 103
162 159 106
159 156 104
163 160 106
163 160 107
160 157 104
158 155 103
158 156 104
161 160 107
169 165 110
158 156 104
164 161 107
168 165 109
166 163 109
166 164 109
160 158 106
161 159 106
164 162 108
163 161 108
161 159 106
165 163 109
163 161 108
159 157 104
160 157 105
162 160 106
159 156 103
161 158 104
157 154 103
156 153 101
157 154 101
158 154 102
160 156 101
163 160 104
154 150 97
163 158 104
155 151 97
160 155 95
148 144 93
165 158 97
155 148 92
160 154 93
143 142 72
147 148 77
152 158 67
151 160 57
166 181 45
171 189 37
167 188 16
173 196 0
173 196 0
174 198 0
174 197 0
172 196 0
173 197 0
173 196 0
175 198 0
175 198 0
174 197 0
172 196 0
174 197 0
174 197 0
174 198 0
172 196 0
173 196 0
175 198 0
175 198 0
173 197 0
175 198 0
174 197 0
175 197 0
174 198 0
174 197 0
175 198 0
174 197 0
174 198 0
174 198 0
174 198 0
173 197 0
172 196 0
173 197 0
175 198 0
175 198 0
174 197 0
173 197 0
174 197 0
173 196 0
176 199 0
173 197 0
174 198 0
175 197 0
173 197 0
175 198 0
175 198 0
174 198 0
175 198 0
173 196 0
173 197 0
175 198 0
174 197 0
173 197 0
174 197 0
173 197 0
174 197 0
175 198 0
174 197 0
175 198 0
173 196 0
174 198 0
174 197 0
175 198 0
174 198 0
175 198 0
174 197 0
173 197 0
174 198 0
173 197 0
174 197 0
174 197 0
172 197 0
174 197 0
175 198 0
175 198 0
174 197 0
174 198 0
174 198 0
176 198 0
173 197 0
174 198 0
175 198 0
173 197 0
175 198 0
175 198 0
173 197 0
174 197 0
175 198 0
174 198 0
174 197 0
174 198 0
173 197 0
175 198 0
174 198 0
174 198 0
175 198 0
175 198 0
175 198 0
173 197 0
175 197 0
174 198 0
174 198 0
175 198 0
175 198 0
175 198 0
174 197 0
176 199 0
173 197 0
174 198 0
174 198 0
174 197 0
173 197 0
174 198 0
174 197 0
175 198 0
174 198 0
174 198 0
175 198 0
175 198 0
175 198 0
174 198 0
173 197 0
173 197 0
175 198 0
174 198 0
175 198 0
173 197 0
174 197 0
174 198 0
175 198 0
174 198 0
176 198 0
174 198 0
174 198 0
173 197 0
174 198 0
176 199 0
174 198 0
174 198 0
174 197 0
174 198 0
174 198 0
173 197 0
175 198 0
175 198 0
174 198 0
174 197 0
174 197 0
175 198 0
174 197 0
175 198 0
173 197 0
176 199 0
174 197 0
175 198 0
174 198 0
173 197 0
172 196 0
173 196 0
174 197 0
173 196 0
174 197 0
175 198 0
172 196 0
176 199 0
172 196 0
175 198 0
174 198 0
174 198 0
174 198 0
174 198 0
173 197 0
173 196 0
173 197 0
174 197 0
176 199 0
174 197 0
173 196 0
174 197 0
172 196 0
175 198 0
175 198 0
175 198 0
173 197 0
174 198 0
173 197 0
174 197 0
174 197 0
173 197 0
174 198 0
174 198 0
175 198 0
173 197 0
171 195 0
173 196 0
174 198 0
175 198 0
174 197 0
174 197 0
174 197 0
175 198 0
173 197 0
174 197 0
173 197 0
172 195 0
177 199 0
173 196 0
173 196 0
172 196 0
173 197 0
174 197 0
174 197 0
174 198 0
175 198 0
174 197 0
174 197 0
173 197 0
174 197 0
174 197 0
173 196 0
173 197 0
177 199 0
173 196 0
174 197 0
173 197 0
173 197 0
174 197 0
172 195 0
173 197 0
175 198 0
173 197 0
172 196 0
173 197 0
174 198 0
174 197 0
175 198 0
173 197 0
174 197 0
173 196 0
171 194 0
175 198 0
175 198 0
171 195 0
172 195 0
174 197 0
172 196 0
172 196 0
175 198 0
173 197 0
172 197 0
175 198 0
173 197 0
172 195 0
172 196 0
175 198 0
172 196 0
174 197 0
173 197 0
173 196 0
173 196 0
175 198 0
174 196 0
175 198 0
172 196 0
174 198 0
175 198 0
172 196 0
173 196 0
172 196 0
172 196 0
173 197 0
174 197 0
173 196 0
173 196 0
175 198 0
175 197 0
173 197 0
172 195 0
174 198 0
170 195 0
173 197 0
171 195 0
176 198 0
174 197 0
173 196 0
173 196 0
174 198 0
174 197 0
175 198 0
173 196 0
173 196 0
173 196 0
172 195 0
173 196 0
175 197 0
176 199 0
174 197 0
174 197 0
173 196 0
174 196 0
172 196 0
171 195 0
174 197 0
173 196 0
171 195 0
173 196 0
172 196 0
173 196 0
175 197 0
173 197 0
172 194 0
172 195 0
174 198 0
171 195 0
174 198 0
173 196 0
174 197 0
173 197 0
173 197 0
174 197 0
171 194 0
175 197 0
173 197 0
174 197 0
173 196 0
171 195 0
173 196 0
172 195 0
174 198 0
173 197 11
166 189 0
169 188 30
165 180 37
162 175 49
166 177 54
155 163 63
150 155 64
144 143 77
151 148 83
153 147 88
151 146 90
151 146 90
151 146 92
151 147 93
160 156 100
154 148 94
161 157 100
149 145 94
159 155 102
152 149 96
159 157 103
164 160 106
162 158 105
160 157 105
168 164 109
161 159 106
163 160 106
163 159 105
167 164 109
164 162 108
165 163 109
165 162 108
168 166 111
163 161 108
165 163 109
160 158 106
160 158 106
161 159 106
166 163 109
160 159 107
165 163 109
157 155 104
166 164 109
165 162 108
167 164 109
162 159 106
162 160 107
164 161 107
156 154 103
163 160 106
157 154 102
160 156 103
160 157 104
162 158 104
163 159 104
161 156 102
161 155 99
165 159 103
162 156 100
158 153 97
151 146 90
153 147 90
147 142 90
152 146 90
135 131 75
148 147 75
153 156 70
158 166 61
167 180 54
165 181 44
161 180 28
171 193 19
175 198 0
174 197 0
173 196 0
175 198 0
175 198 0
171 194 0
176 199 0
172 195 0
172 196 0
174 197 0
175 198 0
175 198 0
174 198 0
174 197 0
176 198 0
174 198 0
174 197 0
173 197 0
174 197 0
174 197 0
175 198 0
176 199 0
174 198 0
174 198 0
174 197 0
174 198 0
173 197 0
175 197 0
175 198 0
174 197 0
175 197 0
174 197 0
175 197 0
174 198 0
175 198 0
175 198 0
175 198 0
175 197 0
174 197 0
172 196 0
175 198 0
173 197 0
173 197 0
175 198 0
174 197 0
175 198 0
174 197 0
175 197 0
175 198 0
176 199 0
176 199 0
174 198 0
174 197 0
176 199 0
174 198 0
175 198 0
175 198 0
174 198 0
174 198 0
174 197 0
175 198 0
173 195 0
172 197 0
175 198 0
174 197 0
174 197 0
176 198 0
174 197 0
175 198 0
176 199 0
175 198 0
176 198 0
174 197 0
177 199 0
174 197 0
174 198 0
174 198 0
174 198 0
173 197 0
175 198 0
173 197 0
173 197 0
173 197 0
174 198 0
174 198 0
173 197 0
173 197 0
175 197 0
174 198 0
174 198 0
176 199 0
174 197 0
173 197 0
174 198 0
175 198 0
174 197 0
175 198 0
174 198 0
176 199 0
174 197 0
174 198 0
175 198 0
174 198 0
173 197 0
174 198 0
173 197 0
174 198 0
175 198 0
172 196 0
175 198 0
176 199 0
173 197 0
174 197 0
174 197 0
174 197 0
174 198 0
175 198 0
175 198 0
175 198 0
176 199 0
174 198 0
174 198 0
174 198 0
173 197 0
174 198 0
175 198 0
174 198 0
176 199 0
176 199 0
175 197 0
176 199 0
175 198 0
174 197 0
174 197 0
174 198 0
175 198 0
174 197 0
174 198 0
174 198 0
174 197 0
174 198 0
175 198 0
174 198 0
173 197 0
174 197 0
173 197 0
175 198 0
174 197 0
173 197 0
173 197 0
176 199 0
173 197 0
175 198 0
174 198 0
174 197 0
174 198 0
174 198 0
175 198 0
173 197 0
173 197 0
175 198 0
174 198 0
173 196 0
175 198 0
175 198 0
174 198 0
174 197 0
176 198 0
175 198 0
174 197 0
175 198 0
176 199 0
173 196 0
174 198 0
173 197 0
173 197 0
174 197 0
173 196 0
175 198 0
172 196 0
174 197 0
175 198 0
174 198 0
173 196 0
174 198 0
175 198 0
173 197 0
172 196 0
174 198 0
174 197 0
174 197 0
175 198 0
172 196 0
173 197 0
175 198 0
173 196 0
174 197 0
173 196 0
173 196 0
172 196 0
174 197 0
174 198 0
173 197 0
175 197 0
175 198 0
174 196 0
174 197 0
174 197 0
174 198 0
173 197 0
174 198 0
174 198 0
173 197 0
173 197 0
175 198 0
172 196 0
174 198 0
172 197 0
172 196 0
174 197 0
171 194 0
173 196 0
174 198 0
173 197 0
175 198 0
172 196 0
174 197 0
174 197 0
170 194 0
175 198 0
173 197 0
174 197 0
174 197 0
173 197 0
174 197 0
175 198 0
171 195 0
173 196 0
176 198 0
174 198 0
176 199 0
173 196 0
174 197 0
173 197 0
173 197 0
174 197 0
174 197 0
175 198 0
174 197 0
172 196 0
172 196 0
174 197 0
175 198 0
174 198 0
173 197 0
173 196 0
176 199 0
174 196 0
174 196 0
174 197 0
170 194 0
170 194 0
175 198 0
173 197 0
174 198 0
171 194 0
174 197 0
172 196 0
174 197 0
175 198 0
173 197 0
175 198 0
173 196 0
175 198 0
172 196 0
173 196 0
172 194 0
173 196 0
172 195 0
171 195 0
174 197 0
174 197 0
175 197 0
173 196 0
175 198 0
174 198 0
174 197 0
172 196 0
174 197 0
173 194 0
173 196 0
172 195 0
173 197 0
173 196 0
176 199 0
174 197 0
171 195 0
173 196 0
171 195 0
172 195 0
172 196 0
174 197 0
174 197 0
173 196 0
173 196 0
173 196 0
172 195 0
173 196 0
170 194 0
172 196 0
173 196 0
172 196 0
172 196 0
174 197 0
171 195 0
173 196 0
174 198 0
172 195 0
173 197 0
170 193 0
175 197 0
172 196 0
172 196 0
173 197 0
173 196 0
175 197 0
173 196 0
169 191 11
167 188 19
169 186 36
164 178 45
163 175 54
150 159 56
146 150 65
149 150 72
144 140 77
145 140 81
145 140 88
163 157 99
156 151 92
150 146 93
154 149 95
150 146 94
156 152 97
157 152 98
156 151 99
153 151 101
158 154 100
156 154 103
161 158 105
157 155 102
166 164 109
161 158 106
161 158 105
166 163 109
157 155 104
163 162 108
167 165 110
167 164 109
167 164 109
168 165 110
165 162 108
163 161 108
167 164 110
168 165 110
161 159 106
166 164 109
162 161 108
168 166 111
163 161 108
166 163 109
165 162 108
165 161 106
167 165 110
165 163 109
168 165 109
159 156 104
158 155 103
168 164 108
164 161 107
160 156 102
166 162 106
169 165 107
165 160 104
156 152 100
158 153 101
161 157 100
159 154 97
153 148 95
155 149 94
155 151 93
152 148 91
139 134 78
148 143 86
149 147 75
152 156 65
161 170 59
157 171 41
165 180 42
168 189 19
172 195 11
174 198 0
173 197 0
173 197 0
175 198 0
175 197 0
176 198 0
172 196 0
173 197 0
174 198 0
173 197 0
174 197 0
174 197 0
175 198 0
171 195 0
173 197 0
174 197 0
173 197 0
174 197 0
173 197 0
177 199 0
174 198 0
173 197 0
175 198 0
174 198 0
175 198 0
175 198 0
174 197 0
174 197 0
174 196 0
174 197 0
175 198 0
174 197 0
175 198 0
174 197 0
175 198 0
175 197 0
173 197 0
173 197 0
175 198 0
173 197 0
175 198 0
173 196 0
174 197 0
173 197 0
174 197 0
173 196 0
176 199 0
176 198 0
174 197 0
173 197 0
176 199 0
175 198 0
173 197 0
175 198 0
175 198 0
173 197 0
174 198 0
175 198 0
175 198 0
175 198 0
173 197 0
172 196 0
176 199 0
173 197 0
174 198 0
175 198 0
174 198 0
173 196 0
175 198 0
174 197 0
173 197 0
174 197 0
175 198 0
173 196 0
176 198 0
174 197 0
172 196 0
173 197 0
174 198 0
174 197 0
175 198 0
175 198 0
173 197 0
173 197 0
174 198 0
174 197 0
175 198 0
176 199 0
176 199 0
176 198 0
173 196 0
174 197 0
175 198 0
175 198 0
174 197 0
174 197 0
174 197 0
176 198 0
174 197 0
174 198 0
175 198 0
175 198 0
175 198 0
172 196 0
174 198 0
175 198 0
174 198 0
175 198 0
174 198 0
175 198 0
174 197 0
174 197 0
173 197 0
175 198 0
173 197 0
176 198 0
174 198 0
175 198 0
175 198 0
175 198 0
175 198 0
174 197 0
176 199 0
174 198 0
174 198 0
175 198 0
174 197 0
175 198 0
173 197 0
176 198 0
175 198 0
175 198 0
174 198 0
174 198 0
174 197 0
176 199 0
174 198 0
174 197 0
176 199 0
176 199 0
174 197 0
175 198 0
173 197 0
173 196 0
174 197 0
175 198 0
174 198 0
174 198 0
174 197 0
174 198 0
175 198 0
174 198 0
173 197 0
173 197 0
172 197 0
175 198 0
175 198 0
174 197 0
173 197 0
174 197 0
175 198 0
173 197 0
174 197 0
175 197 0
174 197 0
173 196 0
173 197 0
173 197 0
175 198 0
173 197 0
176 199 0
174 197 0
175 198 0
174 198 0
175 198 0
174 198 0
175 198 0
174 198 0
174 197 0
173 197 0
173 197 0
174 198 0
171 195 0
174 198 0
173 197 0
175 198 0
175 198 0
174 198 0
172 197 0
174 197 0
174 197 0
171 195 0
174 197 0
173 197 0
175 198 0
174 197 0
174 198 0
174 198 0
174 197 0
174 198 0
175 198 0
173 196 0
173 197 0
174 197 0
173 197 0
174 198 0
173 196 0
174 197 0
173 197 0
173 197 0
174 198 0
173 197 0
172 196 0
174 197 0
173 197 0
172 195 0
174 198 0
174 197 0
175 198 0
171 196 0
174 197 0
173 197 0
173 196 0
174 197 0
173 197 0
172 196 0
174 197 0
174 198 0
172 196 0
172 196 0
175 198 0
174 197 0
173 197 0
173 197 0
173 197 0
173 196 0
173 197 0
172 195 0
176 198 0
172 196 0
174 197 0
175 198 0
174 197 0
175 198 0
171 195 0
172 196 0
174 197 0
175 198 0
170 194 0
174 198 0
174 197 0
174 197 0
171 195 0
173 196 0
174 198 0
170 195 0
174 198 0
174 197 0
173 197 0
174 197 0
174 197 0
174 198 0
174 197 0
173 196 0
173 197 0
173 196 0
173 197 0
175 197 0
172 195 0
173 196 0
173 196 0
174 197 0
175 198 0
173 196 0
175 198 0
173 196 0
172 195 0
174 198 0
170 194 0
174 197 0
173 195 0
174 197 0
171 194 0
171 195 0
175 197 0
171 195 0
171 194 0
173 196 0
175 198 0
172 196 0
170 193 0
171 195 0
172 195 0
173 196 0
172 196 18
174 198 0
172 195 0
170 194 0
173 196 0
174 196 0
171 194 0
172 195 0
173 195 0
173 197 0
172 195 0
172 196 0
174 197 0
173 196 0
173 197 0
172 195 0
174 197 0
174 197 0
173 196 0
171 195 0
171 195 0
171 194 0
173 197 0
172 195 0
173 196 0
174 197 0
174 197 0
172 195 0
175 198 0
172 195 0
171 193 0
174 197 11
172 193 25
165 184 28
164 180 41
154 165 50
158 164 63
150 153 68
146 148 68
149 146 78
154 148 86
149 144 88
145 139 86
147 142 89
150 145 90
150 146 96
162 158 101
153 149 97
156 153 101
160 154 98
155 151 100
158 155 100
159 156 103
166 162 106
158 154 103
162 158 105
158 154 102
162 159 106
168 164 108
168 165 109
163 160 106
169 166 111
167 164 110
166 162 108
167 164 109
165 162 108
167 164 109
166 164 110
166 164 110
167 165 110
162 160 107
166 164 110
167 164 109
167 165 110
166 164 110
170 168 112
169 166 110
168 166 110
164 161 108
165 162 107
164 160 106
169 166 110
162 159 106
162 160 107
165 161 106
164 160 105
159 155 103
156 152 100
158 154 101
163 158 101
160 156 102
157 153 100
158 154 98
164 158 99
147 142 87
157 151 95
150 145 91
140 135 80
137 131 82
154 150 87
158 158 79
154 156 75
159 167 68
160 172 47
167 186 30
170 192 19
174 196 11
174 197 0
174 197 0
174 196 0
172 196 0
176 198 0
175 198 0
174 198 0
173 196 0
175 198 0
174 198 0
173 197 0
173 197 0
174 197 0
175 198 0
172 196 0
175 198 0
174 198 0
174 196 0
173 197 0
175 198 0
172 196 0
176 199 0
172 196 0
175 198 0
176 199 0
175 198 0
173 196 0
171 196 0
174 198 0
174 197 0
174 198 0
175 197 0
174 198 0
175 198 0
174 197 0
174 198 0
175 198 0
175 198 0
175 198 0
174 198 0
174 197 0
173 197 0
174 197 0
176 198 0
176 198 0
174 197 0
175 198 0
175 198 0
175 198 0
176 198 0
175 198 0
175 198 0
176 199 0
173 197 0
174 198 0
173 197 0
174 197 0
174 197 0
173 197 0
175 198 0
176 198 0
173 197 0
174 197 0
175 197 0
174 198 0
175 198 0
175 198 0
175 198 0
173 197 0
175 198 0
174 198 0
174 197 0
174 198 0
173 197 0
175 198 0
173 197 0
173 197 0
174 198 0
174 198 0
175 198 0
173 197 0
175 198 0
174 197 0
175 198 0
175 198 0
174 197 0
174 198 0
174 197 0
174 198 0
176 199 0
174 198 0
175 198 0
173 197 0
175 198 0
173 197 0
173 197 0
174 198 0
176 199 0
174 198 0
175 198 0
175 198 0
174 197 0
176 199 0
172 196 0
174 197 0
174 198 0
173 197 0
173 197 0
175 198 0
174 197 0
174 197 0
176 198 0
174 198 0
173 197 0
175 198 0
175 198 0
175 198 0
173 197 0
173 197 0
174 197 0
175 198 0
174 198 0
174 198 0
174 197 0
175 198 0
174 198 0
175 198 0
176 199 0
174 198 0
174 198 0
174 198 0
173 197 0
175 198 0
175 198 0
174 197 0
174 197 0
174 198 0
175 198 0
173 197 0
174 198 0
174 198 0
175 198 0
173 197 0
176 199 0
174 198 0
175 198 0
173 197 0
173 196 0
175 198 0
175 198 0
173 197 0
176 199 0
174 198 0
173 197 0
174 197 0
173 197 0
175 198 0
176 199 0
173 197 0
175 198 0
173 197 0
174 198 0
175 198 0
175 198 0
175 198 0
173 197 0
174 198 0
172 196 0
175 198 0
173 197 0
174 198 0
175 198 0
176 199 0
173 196 0
175 198 0
174 198 0
174 198 0
174 197 0
174 197 0
175 198 0
174 197 0
171 195 0
173 197 0
174 197 0
174 197 0
173 197 0
175 197 0
173 197 0
175 198 0
173 196 0
174 198 0
175 198 0
174 197 0
172 196 0
174 198 0
174 198 0
173 196 0
175 198 0
173 197 0
176 199 0
173 197 0
174 197 0
174 197 0
173 197 0
175 198 0
175 198 0
173 197 0
173 197 0
175 198 0
174 197 0
174 198 0
172 195 0
174 197 0
174 197 0
173 196 0
173 197 0
171 195 0
171 195 0
174 197 0
173 196 0
173 196 0
172 195 0
172 196 0
171 196 0
171 195 0
174 197 0
174 197 0
172 196 0
174 198 0
174 197 0
174 198 0
174 198 0
172 196 0
175 198 0
173 196 0
174 198 0
173 196 0
171 195 0
173 197 0
175 198 0
173 196 0
173 197 0
173 197 0
174 197 0
174 197 0
173 197 0
171 195 0
173 197 0
173 196 0
175 197 0
174 197 0
173 196 0
175 198 0
175 198 0
173 196 0
173 196 0
174 197 0
173 197 0
172 195 0
171 195 0
174 197 0
171 195 0
173 197 0
174 198 0
173 196 0
176 198 0
172 195 0
173 197 0
173 197 0
174 196 0
173 196 0
171 195 0
174 196 0
173 196 0
173 196 0
172 196 0
174 197 0
172 196 0
176 198 0
171 195 0
173 196 0
173 196 0
173 196 0
173 197 0
172 195 0
170 194 31
170 194 31
163 187 62
161 185 62
159 183 78
157 180 82
150 174 97
150 175 90
145 170 102
145 169 102
135 160 121
149 172 96
147 170 97
155 178 90
157 181 74
164 187 47
162 186 70
171 194 36
171 195 18
171 195 18
172 195 0
173 196 0
173 196 0
173 196 0
173 195 0
173 196 0
173 196 0
173 196 0
172 195 0
173 196 0
174 197 0
171 194 0
173 197 0
173 196 0
173 195 0
172 196 0
170 194 0
173 196 0
170 193 0
168 190 16
165 182 34
169 185 39
157 169 48
154 164 51
156 161 68
155 157 75
159 158 78
139 137 77
149 144 84
157 150 93
152 147 93
150 145 90
149 144 92
156 152 96
160 155 99
153 150 97
151 148 99
151 148 96
157 154 103
156 153 101
153 151 99
166 161 106
158 155 104
166 162 108
160 158 105
161 158 105
165 163 108
160 158 106
169 166 110
163 160 107
165 163 108
165 162 108
162 160 108
165 163 109
172 169 112
168 165 110
168 165 110
165 163 109
169 166 110
165 162 108
166 163 109
166 164 109
164 161 107
168 166 110
171 168 112
167 165 110
162 159 106
166 163 108
162 160 106
158 156 104
162 159 105
161 159 105
164 161 104
169 164 106
166 162 104
161 158 104
169 164 108
165 160 103
161 157 100
163 158 103
157 152 95
154 150 94
158 152 95
151 147 90
146 142 90
143 138 87
143 138 81
153 147 88
146 145 76
151 155 67
164 171 62
157 168 53
161 174 48
170 191 19
175 198 0
175 197 0
174 197 0
175 198 0
175 198 0
174 197 0
173 197 0
174 197 0
175 197 0
174 198 0
174 197 0
175 198 0
172 196 0
172 196 0
174 197 0
174 197 0
175 198 0
173 197 0
175 198 0
177 198 0
174 197 0
173 197 0
173 197 0
173 197 0
173 197 0
172 196 0
175 197 0
174 197 0
174 197 0
172 196 0
174 197 0
174 197 0
174 198 0
174 197 0
174 198 0
173 197 0
174 197 0
175 198 0
176 199 0
175 198 0
176 199 0
176 198 0
174 197 0
176 198 0
173 197 0
173 197 0
174 197 0
174 198 0
175 198 0
174 197 0
175 198 0
174 197 0
176 199 0
175 198 0
175 198 0
173 196 0
176 199 0
173 196 0
174 197 0
174 198 0
174 198 0
174 197 0
175 198 0
173 197 0
176 198 0
174 197 0
174 198 0
175 198 0
174 197 0
171 196 0
174 197 0
173 197 0
174 197 0
175 198 0
175 198 0
174 198 0
174 198 0
174 197 0
175 198 0
175 197 0
173 197 0
175 198 0
173 196 0
175 198 0
174 198 0
174 198 0
175 198 0
174 198 0
172 196 0
175 198 0
173 197 0
174 198 0
174 197 0
176 199 0
173 197 0
174 198 0
174 198 0
174 198 0
175 198 0
174 198 0
174 197 0
175 198 0
173 197 0
176 198 0
174 198 0
174 198 0
175 198 0
176 198 0
173 197 0
173 197 0
176 198 0
173 197 0
175 198 0
174 198 0
174 198 0
174 198 0
174 197 0
177 199 0
173 196 0
174 197 0
175 198 0
175 198 0
174 197 0
174 198 0
174 198 0
175 198 0
175 198 0
175 198 0
174 198 0
173 197 0
175 198 0
174 198 0
173 197 0
174 198 0
173 197 0
177 199 0
175 198 0
176 198 0
173 197 0
173 197 0
175 198 0
175 198 0
176 198 0
174 197 0
175 198 0
173 197 0
174 198 0
174 197 0
174 197 0
174 198 0
173 197 0
173 197 0
176 199 0
174 197 0
175 198 0
174 198 0
174 197 0
175 198 0
174 197 0
173 196 0
175 198 0
174 197 0
174 198 0
175 198 0
174 198 0
174 198 0
175 198 0
173 197 0
175 198 0
173 196 0
175 198 0
175 198 0
175 198 0
173 197 0
173 196 0
175 198 0
174 197 0
175 198 0
174 198 0
174 198 0
174 197 0
175 198 0
175 198 0
173 197 0
176 198 0
174 197 0
175 198 0
173 196 0
174 197 0
173 196 0
173 196 0
174 196 0
172 196 0
175 198 0
175 198 0
175 198 0
174 198 0
174 197 0
174 197 0
175 198 0
175 197 0
172 196 0
175 198 0
172 197 0
173 197 0
174 197 0
174 197 0
172 196 0
173 197 0
173 197 0
175 198 0
175 198 0
174 197 0
174 197 0
172 195 0
173 196 0
174 197 0
173 196 0
175 198 0
172 197 0
174 198 0
174 197 0
174 197 0
174 198 0
173 197 0
175 197 0
174 197 0
174 198 0
174 197 0
174 196 0
175 198 0
173 197 0
173 197 0
174 197 0
172 195 0
173 196 0
172 196 0
175 198 0
172 196 0
172 195 0
171 194 0
173 197 0
170 195 0
175 198 0
172 196 0
173 197 0
174 198 0
175 198 0
175 198 0
173 197 0
174 197 0
173 196 0
174 198 0
172 195 0
174 198 0
173 196 0
172 196 0
174 197 0
171 195 0
171 195 0
175 198 0
174 197 0
174 197 0
172 196 0
174 197 0
172 194 0
172 196 0
173 196 0
173 197 0
174 197 0
171 195 0
172 195 0
172 195 0
173 197 0
173 197 0
172 196 0
175 198 0
174 197 0
172 196 0
174 198 0
174 197 0
172 195 0
172 195 0
172 195 31
163 186 62
148 172 102
144 169 105
120 146 135
104 131 152
103 131 155
88 118 167
68 103 176
79 111 171
72 106 176
73 107 175
68 103 177
68 103 177
68 103 178
76 109 169
86 117 167
89 119 164
110 138 150
107 134 150
115 142 145
142 166 107
150 174 92
164 187 60
168 191 41
174 197 0
174 197 0
172 195 0
172 196 0
173 195 0
175 198 0
173 196 0
172 194 0
173 195 0
172 195 0
171 194 0
171 194 0
174 197 0
173 196 0
173 196 0
174 197 0
172 195 0
170 191 30
164 182 32
162 176 42
153 165 44
155 164 61
154 157 72
148 150 67
151 147 76
140 135 80
152 146 89
157 151 92
143 139 87
148 144 90
141 136 87
159 154 99
156 152 99
159 155 97
149 146 95
159 154 101
163 159 104
156 154 103
157 153 102
155 152 101
160 157 104
156 153 102
166 163 108
166 163 108
165 162 107
167 164 109
166 163 109
162 160 107
165 162 108
163 161 108
164 161 108
173 170 113
167 164 109
165 162 108
168 165 109
172 168 112
168 165 110
171 167 111
168 165 110
170 167 111
169 166 111
167 165 110
169 165 110
170 166 110
167 164 109
160 158 105
170 167 110
165 162 106
164 161 106
168 164 108
167 164 108
168 164 106
160 156 103
163 160 104
168 164 107
163 159 104
169 164 106
170 164 106
158 154 97
161 155 99
152 147 89
155 150 95
159 153 97
161 155 95
153 148 89
141 136 80
142 138 80
148 150 72
153 158 67
160 167 61
162 177 42
169 189 32
171 192 11
174 196 11
173 197 0
174 197 0
174 198 0
175 198 0
173 196 0
175 197 0
174 197 0
175 198 0
175 198 0
174 198 0
171 195 0
173 196 0
174 197 0
175 198 0
175 198 0
175 198 0
175 197 0
174 198 0
175 198 0
174 198 0
171 196 0
173 196 0
175 198 0
174 197 0
173 195 0
174 197 0
174 197 0
174 197 0
175 198 0
174 198 0
175 198 0
176 199 0
175 198 0
174 198 0
173 197 0
174 197 0
175 197 0
173 197 0
172 197 0
174 197 0
175 197 0
174 197 0
176 198 0
175 198 0
174 197 0
174 197 0
173 197 0
174 197 0
174 197 0
174 197 0
174 197 0
173 197 0
174 197 0
174 198 0
173 197 0
173 197 0
174 197 0
174 197 0
177 199 0
173 197 0
173 196 0
174 196 0
173 197 0
174 197 0
175 198 0
176 198 0
172 197 0
174 198 0
174 197 0
175 198 0
174 198 0
175 198 0
175 198 0
175 198 0
173 197 0
173 197 0
174 198 0
174 197 0
175 198 0
175 198 0
174 198 0
175 198 0
175 198 0
173 196 0
174 197 0
175 198 0
175 198 0
174 198 0
176 199 0
174 198 0
175 198 0
174 197 0
174 197 0
174 198 0
173 197 0
174 197 0
173 197 0
174 197 0
174 198 0
173 197 0
173 196 0
174 198 0
175 198 0
174 197 0
174 198 0
175 198 0
175 198 0
175 198 0
176 199 0
176 199 0
173 197 0
175 198 0
174 198 0
176 199 0
174 198 0
174 198 0
176 199 0
174 198 0
174 197 0
175 198 0
172 196 0
175 198 0
174 197 0
175 198 0
174 197 0
175 198 0
174 197 0
175 198 0
174 198 0
174 198 0
175 198 0
175 198 0
176 198 0
175 198 0
174 198 0
173 196 0
174 197 0
175 198 0
174 197 0
173 197 0
174 198 0
173 197 0
173 197 0
175 198 0
173 196 0
174 198 0
172 196 0
174 197 0
173 197 0
175 198 0
172 196 0
174 198 0
174 197 0
174 198 0
173 196 0
174 197 0
174 197 0
176 198 0
173 197 0
171 196 0
174 197 0
174 197 0
175 198 0
176 199 0
174 198 0
175 198 0
171 195 0
173 197 0
172 196 0
175 198 0
174 198 0
173 197 0
173 197 0
175 198 0
175 198 0
175 198 0
175 198 0
174 198 0
174 197 0
173 196 0
173 196 0
174 197 0
174 197 0
173 196 0
173 196 0
173 197 0
174 198 0
172 195 0
174 197 0
172 196 0
173 196 0
173 196 0
173 197 0
173 197 0
174 197 0
174 198 0
172 196 0
173 196 0
172 196 0
172 196 0
174 197 0
174 197 0
175 197 0
174 198 0
174 197 0
174 197 0
175 197 0
173 197 0
174 197 0
173 197 0
172 197 0
174 198 0
172 196 0
174 197 0
174 197 0
175 198 0
175 198 0
175 198 0
172 196 0
174 197 0
175 198 0
173 197 0
175 197 0
174 196 0
174 197 0
171 194 0
173 197 0
173 196 0
174 198 0
175 198 0
173 196 0
173 197 0
170 195 0
174 197 0
174 198 0
171 195 0
174 197 0
170 193 0
174 197 0
173 196 0
172 195 0
172 196 0
171 195 0
173 195 0
173 196 0
172 196 0
173 196 0
173 197 0
173 196 0
174 197 0
173 196 0
173 197 0
173 196 0
172 196 0
172 196 0
173 196 0
173 197 0
173 196 0
175 198 0
173 197 0
173 196 0
173 197 0
173 196 0
173 196 0
174 197 0
175 197 0
172 195 0
173 197 0
173 196 0
172 196 0
173 196 0
172 195 0
174 197 0
171 195 0
172 195 0
173 196 0
172 195 0
172 196 0
169 192 40
166 189 54
139 164 113
123 150 133
104 132 152
74 108 173
69 104 176
61 99 181
62 99 181
62 99 181
61 99 181
61 99 181
61 99 180
62 99 181
62 99 181
62 99 181
61 99 181
61 98 180
61 98 180
61 99 180
62 99 180
61 99 181
62 99 179
61 99 181
66 101 177
77 110 172
92 122 163
119 146 139
140 165 107
158 182 78
167 190 44
173 197 18
173 195 0
173 195 0
172 196 0
173 196 0
173 196 0
175 197 0
171 194 0
171 194 0
173 195 0
174 196 0
174 196 0
173 196 11
168 188 19
164 185 22
164 181 34
159 171 49
155 164 56
143 150 51
147 150 62
156 155 82
145 142 80
145 139 84
160 153 98
153 149 89
145 142 89
149 144 91
144 141 90
154 151 97
157 153 98
160 156 102
151 148 98
156 153 100
157 153 100
148 145 96
155 153 101
163 160 107
157 154 103
157 155 104
158 156 105
162 159 106
165 162 109
165 162 108
168 165 110
166 163 109
170 166 111
163 160 107
165 162 108
168 166 112
165 162 108
168 166 111
169 167 111
164 162 108
173 170 112
167 165 110
171 168 112
171 168 112
170 168 112
169 166 110
166 163 108
168 164 109
168 165 110
169 167 111
166 162 106
170 166 110
163 160 107
161 158 104
169 165 109
164 160 104
164 161 105
164 161 104
161 157 103
163 159 103
160 154 97
161 155 99
162 156 101
153 149 93
162 155 97
156 151 90
157 150 92
157 150 93
161 154 95
159 152 90
149 143 85
152 151 76
154 155 69
148 154 64
164 176 52
173 189 47
171 191 32
172 195 0
173 197 0
173 197 0
171 195 0
174 197 0
175 198 0
174 196 0
172 195 0
174 197 0
175 198 0
174 198 0
175 198 0
175 197 0
172 195 0
175 197 0
173 197 0
174 197 0
173 197 0
174 198 0
175 198 0
174 197 0
174 197 0
174 197 0
176 198 0
174 197 0
174 198 0
175 198 0
172 195 0
174 197 0
172 196 0
173 197 0
175 198 0
173 197 0
173 197 0
174 198 0
173 197 0
174 197 0
174 197 0
174 197 0
172 196 0
174 198 0
173 196 0
174 197 0
172 197 0
173 197 0
173 197 0
175 198 0
173 197 0
174 198 0
174 197 0
174 197 0
173 197 0
175 198 0
175 197 0
173 197 0
174 197 0
174 197 0
173 197 0
172 196 0
174 197 0
174 198 0
173 197 0
176 198 0
173 197 0
174 197 0
175 198 0
174 196 0
174 198 0
176 198 0
174 198 0
175 198 0
175 198 0
174 198 0
173 196 0
173 197 0
175 198 0
174 198 0
174 198 0
171 194 0
174 197 0
174 197 0
174 198 0
174 198 0
173 197 0
174 198 0
173 197 0
175 198 0
175 198 0
174 197 0
176 199 0
175 198 0
173 197 0
174 197 0
175 198 0
175 198 0
175 198 0
173 197 0
175 198 0
174 198 0
174 197 0
175 198 0
175 198 0
174 197 0
174 197 0
173 197 0
174 197 0
175 198 0
174 197 0
174 197 0
173 197 0
173 197 0
174 198 0
172 196 0
175 198 0
175 198 0
174 198 0
174 197 0
175 198 0
174 197 0
175 198 0
173 197 0
173 197 0
174 197 0
174 197 0
175 198 0
175 198 0
174 198 0
174 198 0
175 198 0
175 198 0
173 197 0
173 196 0
173 197 0
174 198 0
176 199 0
174 198 0
176 198 0
173 197 0
175 198 0
175 198 0
175 198 0
174 198 0
174 197 0
176 199 0
173 197 0
174 198 0
175 198 0
174 197 0
174 197 0
174 198 0
174 197 0
175 198 0
173 196 0
175 198 0
174 197 0
175 198 0
174 198 0
175 198 0
175 198 0
173 197 0
173 197 0
174 197 0
175 198 0
175 198 0
174 197 0
173 197 0
173 197 0
171 196 0
174 198 0
174 197 0
174 197 0
174 197 0
173 196 0
173 196 0
175 198 0
173 197 0
174 198 0
173 197 0
174 198 0
173 197 0
174 198 0
172 196 0
174 197 0
175 198 0
176 198 0
172 196 0
173 197 0
173 197 0
175 198 0
174 197 0
173 197 0
175 198 0
174 197 0
174 198 0
173 197 0
174 197 0
174 198 0
175 198 0
175 198 0
174 197 0
174 197 0
175 198 0
174 197 0
175 198 0
174 198 0
173 197 0
173 197 0
174 198 0
175 198 0
173 197 0
175 198 0
173 197 0
173 196 0
173 196 0
175 198 0
173 197 0
170 195 0
175 198 0
174 197 0
173 197 0
173 197 0
172 195 0
175 198 0
173 196 0
174 198 0
173 197 0
174 198 0
174 197 0
172 195 0
174 197 0
173 197 0
173 197 0
174 198 0
174 197 0
174 197 0
175 198 0
174 197 0
173 197 0
172 196 0
172 196 0
174 197 0
173 197 0
173 197 0
172 196 0
172 196 0
175 197 0
173 196 0
174 197 0
173 196 0
173 197 0
175 198 0
171 195 0
173 196 0
174 197 0
172 195 0
174 197 0
172 196 0
172 195 0
173 196 0
171 194 0
174 197 0
175 197 0
172 195 0
174 197 0
173 197 0
173 197 0
173 196 0
171 195 0
174 197 0
173 195 0
173 196 0
173 196 0
171 195 0
173 197 0
173 197 0
172 196 0
171 194 31
161 185 70
142 166 107
122 148 134
87 118 166
64 100 180
61 99 181
61 99 181
61 99 181
61 99 181
61 99 181
60 98 181
62 99 181
61 99 181
62 99 181
61 99 181
61 98 181
61 99 181
61 99 181
61 98 181
62 99 181
62 99 181
61 99 181
61 99 181
61 98 181
61 98 179
61 98 180
61 98 181
61 99 181
61 99 181
64 100 179
75 108 173
84 115 166
116 142 141
138 164 113
161 184 70
171 193 25
173 196 0
173 196 0
173 196 0
171 194 0
172 195 0
173 196 0
170 193 0
170 194 0
173 196 0
172 193 0
171 192 19
166 185 30
166 181 48
150 161 50
160 166 65
150 156 64
137 140 63
135 132 73
138 133 80
145 140 86
148 143 86
151 147 94
154 151 95
151 148 98
151 147 94
144 141 94
149 144 93
150 148 97
158 155 101
151 147 97
159 155 102
157 155 102
153 151 102
160 157 105
160 157 104
152 150 101
159 157 107
162 159 105
163 160 107
165 163 109
160 159 107
163 160 108
168 165 110
168 166 111
163 160 107
168 164 110
166 164 109
166 164 109
168 165 110
170 167 112
173 170 113
164 162 108
171 167 111
171 168 112
170 167 111
171 168 112
173 169 112
171 166 109
169 165 109
169 166 110
166 164 108
166 163 108
166 163 107
166 162 107
169 165 108
166 162 104
166 161 105
165 160 103
165 159 104
162 158 101
165 161 105
160 156 100
161 155 97
159 155 100
166 161 101
153 148 93
163 156 98
152 146 87
166 160 101
154 148 88
148 143 85
142 137 78
147 145 78
150 153 69
158 167 62
158 171 47
166 184 30
171 191 25
173 196 0
170 193 0
173 196 0
174 198 0
175 198 0
173 197 0
175 197 0
175 197 0
174 197 0
172 195 0
174 197 0
175 198 0
175 198 0
174 198 0
174 197 0
174 197 0
174 196 0
174 197 0
174 197 0
172 196 0
177 199 0
173 197 0
173 197 0
173 197 0
175 198 0
173 197 0
176 199 0
174 196 0
173 197 0
174 198 0
174 197 0
174 197 0
174 198 0
172 196 0
173 196 0
174 198 0
174 197 0
174 197 0
174 197 0
175 198 0
174 198 0
174 197 0
172 196 0
175 198 0
174 197 0
173 197 0
173 197 0
172 196 0
173 197 0
175 198 0
176 198 0
175 198 0
173 196 0
173 196 0
174 198 0
173 197 0
175 198 0
175 198 0
176 198 0
174 197 0
174 198 0
175 198 0
173 197 0
172 197 0
173 197 0
172 196 0
174 197 0
175 197 0
174 197 0
174 197 0
174 197 0
173 197 0
175 198 0
175 197 0
176 198 0
174 197 0
176 198 0
174 198 0
174 197 0
174 197 0
172 197 0
173 197 0
175 198 0
174 197 0
174 197 0
176 198 0
174 198 0
175 198 0
173 197 0
174 197 0
175 198 0
175 198 0
175 198 0
175 198 0
175 198 0
174 198 0
174 198 0
175 198 0
174 198 0
173 197 0
176 198 0
173 197 0
176 199 0
175 198 0
173 197 0
174 198 0
174 198 0
175 198 0
176 198 0
175 198 0
173 197 0
172 196 0
174 198 0
175 198 0
174 198 0
176 198 0
173 197 0
174 197 0
175 198 0
174 198 0
174 197 0
174 197 0
172 196 0
172 196 0
175 198 0
175 198 0
173 196 0
175 198 0
174 197 0
173 197 0
172 196 0
173 197 0
175 198 0
174 197 0
174 197 0
174 197 0
175 198 0
173 197 0
175 198 0
176 199 0
172 196 0
173 197 0
175 198 0
175 198 0
174 198 0
174 198 0
175 198 0
174 197 0
175 198 0
173 197 0
173 197 0
175 198 0
173 197 0
172 195 0
175 198 0
174 197 0
172 197 0
173 197 0
174 198 0
173 197 0
174 198 0
173 197 0
174 198 0
173 196 0
175 198 0
172 197 0
174 198 0
174 197 0
172 196 0
174 198 0
173 197 0
174 198 0
172 196 0
175 198 0
173 197 0
174 197 0
174 197 0
174 197 0
174 198 0
173 196 0
173 197 0
174 197 0
175 198 0
174 198 0
173 197 0
174 197 0
172 196 0
173 196 0
173 197 0
174 198 0
174 197 0
173 196 0
174 197 0
173 197 0
173 197 0
174 198 0
173 197 0
174 198 0
174 197 0
174 198 0
174 197 0
175 198 0
174 197 0
175 198 0
173 197 0
175 198 0
173 197 0
174 198 0
174 197 0
174 197 0
174 197 0
174 197 0
173 197 0
174 197 0
170 194 0
175 198 0
173 197 0
172 196 0
173 197 0
174 198 0
172 196 0
175 198 0
175 198 0
175 197 0
175 198 0
171 195 0
173 197 0
173 196 0
174 197 0
173 197 0
175 197 0
174 197 0
173 196 0
173 196 0
172 195 0
172 196 0
173 196 0
173 197 0
174 197 0
173 197 0
172 196 0
175 198 0
174 197 0
172 195 0
173 196 0
174 197 0
172 195 0
173 196 0
173 196 0
175 198 0
175 198 0
174 197 0
172 195 0
173 196 0
174 197 0
174 197 0
173 197 0
173 197 0
172 196 0
173 196 0
175 198 0
173 197 0
175 198 0
172 195 0
172 196 0
173 197 0
173 196 0
172 196 0
173 197 0
174 197 0
174 197 0
172 195 0
175 198 0
168 192 25
159 183 74
138 163 113
97 126 158
79 111 172
63 100 180
61 99 180
62 99 181
61 99 181
62 99 181
61 99 181
62 99 181
62 99 181
61 99 181
61 99 181
61 99 181
62 99 181
61 99 181
61 99 181
62 99 181
61 98 181
61 98 180
61 99 181
61 98 181
61 99 181
61 98 181
61 99 181
61 98 180
61 98 181
61 98 181
62 99 180
61 98 179
61 98 180
62 99 180
62 99 181
62 98 178
77 110 172
101 130 154
132 158 117
159 182 68
169 192 25
171 194 0
173 195 0
171 194 0
173 195 0
173 195 0
171 194 0
173 196 0
171 193 16
170 192 19
164 182 30
161 175 46
156 167 50
151 157 64
140 143 62
152 153 74
137 132 76
141 137 81
147 142 87
145 141 86
141 137 83
155 150 93
154 150 97
147 145 96
149 146 96
153 150 98
149 147 95
150 146 97
152 149 101
160 157 104
153 151 103
154 152 103
165 161 107
158 155 103
163 159 106
162 160 108
161 159 107
164 162 108
161 159 106
165 163 109
165 163 110
168 166 111
170 167 111
165 162 108
169 166 109
170 168 112
169 166 111
170 167 112
173 169 112
172 168 112
170 166 111
168 165 110
168 165 110
165 162 108
169 166 110
172 169 112
169 166 109
169 166 109
170 166 110
167 163 108
168 165 109
172 167 109
164 161 106
168 164 108
170 166 108
168 164 107
167 163 106
170 166 105
162 158 103
165 159 98
166 161 103
158 154 101
164 158 99
163 157 97
155 149 93
157 152 93
158 153 97
152 147 91
155 148 88
151 144 87
149 144 84
144 142 72
147 153 62
153 163 56
156 171 37
165 182 36
168 187 28
174 196 11
173 197 0
172 195 0
173 196 0
174 197 0
174 197 0
173 195 0
174 197 0
173 197 0
171 195 0
174 197 0
173 197 0
175 198 0
175 197 0
175 198 0
173 196 0
175 198 0
176 198 0
174 198 0
172 196 0
174 198 0
176 199 0
174 198 0
174 197 0
173 195 0
174 197 0
174 197 0
175 197 0
174 198 0
175 198 0
174 197 0
173 197 0
173 197 0
174 197 0
173 196 0
173 197 0
174 197 0
175 198 0
174 198 0
176 199 0
174 198 0
174 198 0
173 197 0
172 196 0
173 197 0
172 197 0
173 197 0
174 198 0
172 196 0
173 196 0
174 197 0
176 199 0
174 198 0
175 198 0
175 198 0
174 198 0
174 197 0
172 197 0
175 198 0
175 198 0
173 197 0
175 198 0
174 197 0
174 197 0
177 199 0
172 196 0
173 196 0
174 198 0
173 197 0
176 198 0
175 198 0
174 197 0
174 198 0
174 198 0
175 198 0
173 197 0
174 197 0
174 198 0
174 198 0
174 198 0
174 198 0
175 198 0
174 198 0
175 198 0
173 197 0
175 198 0
172 196 0
174 198 0
173 197 0
175 198 0
173 197 0
174 197 0
174 198 0
174 198 0
174 197 0
174 198 0
175 198 0
174 197 0
174 198 0
175 198 0
175 198 0
175 198 0
177 199 0
175 198 0
175 198 0
176 198 0
175 198 0
172 196 0
174 198 0
176 198 0
174 198 0
176 199 0
174 197 0
173 197 0
175 198 0
174 198 0
174 198 0
175 198 0
175 198 0
173 197 0
175 198 0
175 198 0
174 197 0
173 197 0
175 198 0
176 199 0
174 198 0
175 198 0
174 197 0
174 197 0
174 198 0
174 197 0
174 198 0
173 196 0
175 198 0
175 198 0
174 197 0
174 197 0
174 198 0
174 197 0
175 198 0
174 198 0
174 197 0
174 197 0
174 198 0
175 198 0
173 197 0
173 197 0
173 196 0
174 197 0
174 198 0
175 198 0
173 197 0
174 197 0
174 197 0
173 196 0
175 198 0
175 198 0
173 197 0
174 197 0
174 197 0
175 198 0
173 197 0
175 198 0
175 198 0
173 197 0
173 197 0
174 198 0
174 197 0
174 197 0
174 197 0
173 196 0
174 197 0
174 197 0
170 194 0
174 197 0
173 196 0
173 197 0
176 199 0
174 197 0
174 198 0
172 196 0
173 197 0
175 198 0
173 197 0
173 196 0
174 198 0
172 196 0
174 197 0
174 197 0
174 197 0
175 198 0
172 196 0
173 197 0
174 197 0
173 197 0
173 196 0
173 196 0
174 198 0
174 197 0
174 198 0
175 198 0
173 196 0
174 197 0
174 197 0
174 197 0
173 197 0
175 198 0
171 195 0
174 197 0
176 198 0
174 197 0
171 195 0
174 197 0
173 196 0
173 196 0
173 196 0
174 198 0
174 198 0
171 195 0
174 198 0
173 196 0
171 195 0
173 196 0
170 194 0
173 196 0
175 198 0
174 197 0
174 197 0
174 197 0
174 197 0
172 195 0
174 197 0
172 196 0
172 195 0
173 196 0
174 197 0
175 198 0
173 197 0
174 197 0
169 193 0
174 197 0
172 197 0
174 197 0
173 196 0
174 197 0
172 196 0
172 196 0
176 198 0
171 194 0
174 197 0
173 196 0
171 195 0
173 196 0
171 193 0
171 195 0
172 196 0
172 196 0
173 197 0
170 194 0
174 197 0
174 197 0
174 197 0
174 197 0
173 197 0
174 198 0
172 195 0
168 193 0
172 196 0
173 196 0
172 195 0
171 193 25
163 186 70
130 156 124
101 129 153
68 103 177
62 99 180
61 99 181
61 99 179
62 99 181
62 99 181
62 99 180
62 99 181
62 99 181
62 99 181
62 99 181
61 99 181
61 99 181
61 99 181
61 99 181
61 98 181
61 98 181
61 99 181
61 99 181
62 99 181
61 99 181
61 99 181
61 99 181
61 99 181
61 99 181
62 99 181
62 99 181
62 99 181
61 98 180
61 99 180
61 98 180
62 99 180
61 98 179
61 98 177
62 99 180
62 99 179
69 103 173
99 127 149
131 156 125
161 185 57
173 196 0
173 196 0
174 197 0
172 195 0
175 198 0
171 193 0
168 188 16
166 185 30
165 181 39
159 169 58
162 168 65
145 150 55
150 150 71
144 143 73
139 135 82
142 138 83
149 144 89
134 131 82
152 148 95
145 142 90
142 140 93
158 154 101
156 152 100
144 141 93
153 150 100
141 139 93
152 150 100
155 152 99
155 153 103
156 154 104
158 157 105
159 156 104
160 157 105
166 163 109
163 160 106
167 163 109
167 165 110
167 164 109
163 161 108
166 163 108
166 163 108
170 166 110
165 162 108
167 164 109
168 165 110
172 170 113
170 167 111
174 170 113
171 168 113
171 168 110
172 168 111
169 165 110
169 166 110
167 165 110
168 166 109
170 166 110
165 162 108
168 164 105
168 165 108
168 164 107
170 167 110
171 167 108
172 167 109
167 163 105
168 164 106
163 159 101
162 157 103
167 162 101
165 160 102
162 157 97
160 154 95
149 145 91
164 158 97
154 148 90
162 156 97
158 152 90
154 148 89
154 146 88
140 134 75
156 150 84
148 146 72
153 159 57
151 162 44
159 177 28
166 186 30
172 194 16
174 198 0
173 195 0
175 198 0
174 197 0
173 195 0
174 197 0
175 197 0
174 196 0
170 194 0
174 197 0
174 197 0
174 197 0
176 197 0
174 197 0
176 198 0
173 197 0
172 197 0
173 196 0
175 198 0
173 197 0
174 197 0
173 196 0
174 198 0
176 198 0
174 197 0
173 196 0
174 197 0
173 197 0
173 196 0
173 197 0
175 198 0
173 197 0
173 197 0
174 197 0
174 198 0
175 198 0
173 197 0
173 197 0
174 198 0
174 197 0
174 197 0
174 196 0
174 197 0
174 198 0
174 197 0
175 198 0
177 199 0
174 197 0
173 196 0
175 198 0
173 197 0
173 197 0
175 198 0
172 196 0
173 197 0
173 197 0
175 198 0
174 197 0
174 198 0
176 199 0
173 197 0
173 197 0
175 198 0
174 198 0
174 197 0
174 198 0
174 198 0
174 197 0
175 198 0
175 198 0
174 198 0
174 197 0
173 197 0
173 197 0
174 198 0
175 198 0
174 197 0
174 197 0
174 198 0
175 198 0
174 198 0
174 197 0
175 198 0
173 196 0
175 198 0
175 198 0
175 198 0
175 198 0
172 196 0
174 198 0
175 198 0
172 196 0
174 197 0
174 198 0
174 197 0
175 198 0
172 196 0
175 198 0
174 198 0
174 198 0
174 197 0
174 198 0
174 198 0
174 198 0
175 198 0
174 197 0
174 198 0
172 196 0
172 196 0
174 197 0
175 198 0
174 198 0
172 197 0
174 198 0
174 198 0
174 197 0
174 197 0
173 197 0
173 197 0
175 198 0
176 198 0
175 198 0
174 198 0
174 198 0
174 198 0
174 197 0
175 198 0
174 198 0
174 197 0
174 198 0
175 198 0
175 198 0
175 198 0
174 198 0
174 198 0
175 198 0
175 198 0
174 197 0
173 196 0
173 197 0
175 198 0
174 198 0
175 198 0
176 199 0
173 197 0
175 198 0
176 199 0
171 196 0
175 198 0
173 197 0
174 198 0
172 196 0
173 197 0
173 197 0
173 197 0
174 198 0
174 198 0
175 198 0
173 197 0
174 197 0
175 198 0
175 198 0
173 196 0
175 198 0
174 198 0
172 196 0
175 198 0
175 198 0
175 198 0
175 198 0
172 197 0
174 198 0
173 197 0
173 196 0
173 197 0
175 198 0
174 197 0
174 198 0
174 197 0
174 198 0
172 196 0
177 199 0
174 197 0
173 197 0
175 198 0
173 196 0
175 198 0
175 198 0
175 198 0
175 198 0
175 198 0
175 197 0
172 196 0
174 197 0
172 196 0
173 196 0
173 197 0
172 195 0
175 198 0
172 196 0
173 197 0
173 197 0
173 197 0
173 197 0
173 197 0
174 196 0
174 197 0
175 198 0
174 197 0
172 196 0
174 198 0
169 194 0
175 198 0
173 197 0
174 197 0
173 197 0
175 198 0
173 197 0
173 197 0
173 197 0
173 196 0
173 196 0
172 196 0
174 197 0
175 198 0
175 198 0
173 197 0
173 196 0
173 197 0
173 196 0
173 197 0
172 195 0
172 196 0
174 197 0
173 197 0
171 196 0
176 198 0
174 197 0
172 196 0
175 198 0
173 197 0
173 196 0
172 195 0
174 197 0
172 195 0
170 194 0
173 196 0
172 195 0
172 196 0
174 198 0
172 194 0
174 197 0
174 198 0
174 197 0
172 196 0
175 198 0
173 196 0
173 197 0
172 196 0
171 195 0
175 198 0
168 192 0
173 197 0
169 192 0
173 196 0
170 194 0
171 195 0
173 196 0
171 195 18
165 189 57
139 165 111
95 125 158
66 102 176
63 100 181
62 99 178
62 99 181
62 99 180
62 99 179
62 99 181
62 99 181
62 99 181
61 99 181
62 99 181
61 99 181
62 99 181
62 99 181
61 99 181
61 99 181
61 98 181
61 99 181
62 99 181
61 99 181
62 99 181
61 98 181
61 99 181
62 99 181
62 99 181
61 99 181
62 99 181
62 99 181
61 99 181
62 99 181
61 98 180
60 98 177
62 99 181
61 99 181
62 99 178
61 98 181
62 99 179
62 99 181
62 98 179
62 98 176
67 102 174
103 130 151
136 161 110
162 185 60
171 193 0
170 194 0
169 192 0
170 192 0
166 187 16
167 186 36
152 165 42
164 179 39
142 149 58
138 143 62
135 135 67
140 135 80
143 139 82
145 140 86
145 140 86
139 135 85
151 147 90
142 138 88
142 140 89
142 140 93
152 148 97
152 149 97
145 143 97
154 151 100
152 149 100
155 152 101
153 151 102
154 151 101
159 156 104
153 152 104
160 157 105
159 157 104
165 162 108
166 163 109
162 160 107
162 160 107
169 167 112
163 160 106
167 164 110
170 167 111
165 162 107
171 168 111
171 168 112
169 166 111
171 168 112
173 170 112
172 169 110
171 167 111
167 164 107
173 170 112
172 168 110
172 168 112
170 166 110
171 168 111
175 170 112
170 166 109
172 167 108
168 164 108
169 165 106
171 167 109
164 160 103
166 161 104
172 167 107
171 167 109
169 164 105
168 162 104
169 163 102
160 156 99
162 158 97
171 164 100
162 158 101
161 155 93
146 141 84
158 152 95
149 143 83
136 130 75
152 145 86
149 144 78
140 140 65
152 155 64
159 168 60
166 178 47
167 185 36
170 191 25
174 197 0
173 197 0
175 198 0
175 198 0
171 194 0
174 197 0
173 196 0
171 195 0
174 197 0
173 197 0
174 198 0
174 197 0
174 197 0
173 196 0
173 196 0
172 196 0
174 197 0
174 197 0
174 197 0
173 196 0
176 198 0
173 197 0
174 197 0
172 196 0
172 196 0
175 198 0
173 196 0
173 197 0
175 198 0
175 198 0
176 198 0
174 197 0
173 197 0
176 198 0
172 196 0
174 197 0
174 197 0
175 198 0
174 197 0
173 197 0
174 197 0
172 197 0
174 198 0
174 197 0
174 197 0
175 198 0
176 198 0
175 198 0
174 197 0
175 198 0
173 197 0
175 197 0
175 198 0
174 197 0
174 196 0
174 198 0
174 197 0
175 198 0
173 197 0
174 198 0
174 197 0
176 199 0
174 197 0
174 197 0
173 197 0
174 198 0
174 198 0
171 196 0
173 197 0
173 197 0
175 198 0
174 197 0
174 197 0
173 197 0
175 198 0
174 198 0
174 198 0
175 198 0
175 198 0
174 197 0
175 198 0
174 198 0
173 197 0
175 198 0
173 197 0
173 197 0
174 198 0
173 197 0
174 198 0
174 198 0
173 197 0
175 198 0
174 198 0
174 197 0
175 198 0
172 195 0
175 198 0
174 198 0
174 198 0
174 198 0
174 198 0
175 198 0
174 198 0
174 198 0
174 197 0
175 198 0
172 196 0
174 198 0
173 197 0
173 197 0
175 198 0
173 197 0
174 198 0
173 197 0
175 198 0
174 198 0
174 198 0
174 197 0
174 198 0
174 198 0
174 197 0
174 197 0
176 199 0
175 198 0
175 198 0
175 198 0
174 198 0
174 197 0
172 196 0
175 198 0
175 198 0
174 197 0
174 198 0
175 198 0
174 197 0
174 198 0
175 198 0
174 197 0
174 198 0
173 197 0
173 197 0
175 198 0
174 197 0
175 198 0
173 197 0
174 198 0
175 198 0
173 197 0
173 197 0
173 197 0
176 198 0
174 198 0
174 198 0
173 197 0
173 197 0
174 197 0
174 198 0
174 197 0
172 196 0
172 195 0
173 197 0
172 195 0
174 197 0
173 197 0
174 198 0
175 198 0
175 198 0
174 197 0
174 197 0
172 196 0
172 196 0
174 198 0
173 197 0
173 196 0
173 197 0
172 195 0
175 198 0
173 197 0
175 198 0
175 198 0
173 197 0
173 197 0
174 198 0
173 196 0
175 198 0
172 196 0
175 198 0
173 197 0
175 198 0
172 196 0
172 195 0
174 198 0
175 198 0
174 197 0
174 198 0
173 197 0
172 196 0
174 197 0
174 197 0
173 196 0
176 198 0
173 196 0
174 198 0
175 198 0
174 197 0
170 194 0
171 195 0
174 196 0
173 196 0
173 196 0
173 196 0
174 197 0
173 197 0
173 196 0
174 197 0
174 196 0
174 197 0
173 197 0
173 196 0
172 196 0
174 198 0
171 195 0
174 196 0
175 198 0
173 196 0
174 197 0
171 194 0
172 196 0
174 198 0
172 194 0
174 196 0
172 196 0
175 198 0
172 196 0
173 196 0
174 198 0
173 196 0
173 196 0
171 194 0
170 194 0
171 194 0
174 196 0
173 196 0
174 197 0
174 197 0
170 194 0
174 197 0
173 196 0
173 197 0
170 193 0
172 196 0
171 195 0
174 197 0
171 195 0
173 196 0
173 197 0
173 196 0
173 196 0
174 197 0
171 194 0
172 196 0
175 198 0
173 196 0
170 193 0
174 196 0
172 195 0
168 192 0
171 195 25
153 178 82
112 138 143
70 104 172
62 99 178
61 99 180
62 99 178
61 99 180
62 99 179
61 99 181
62 99 180
62 99 181
62 99 181
61 98 181
61 99 181
62 99 181
61 99 181
61 98 181
61 98 181
61 99 181
61 98 181
61 99 181
62 99 181
62 99 181
61 99 181
62 99 181
62 99 181
61 99 181
61 98 181
61 99 181
62 99 181
62 99 181
62 99 181
61 99 181
62 99 181
62 99 181
62 99 181
62 99 181
62 99 181
62 99 179
61 98 177
62 99 181
62 99 180
61 97 177
62 98 177
61 97 175
61 97 177
74 107 167
110 137 141
157 181 68
167 191 37
171 194 0
170 191 16
165 183 30
164 180 38
159 169 53
158 168 51
146 152 60
149 149 67
138 137 70
148 143 83
136 133 77
146 142 87
134 131 81
147 143 89
142 139 88
145 142 93
149 146 94
141 139 93
141 139 94
141 139 94
144 142 95
151 148 99
148 146 99
157 155 104
154 152 103
152 151 103
151 150 102
157 155 104
159 157 105
159 156 105
161 158 106
169 166 110
158 156 103
165 162 108
164 161 108
166 163 109
166 163 107
164 161 108
170 166 110
172 169 111
171 167 111
168 165 110
171 168 112
171 168 111
174 170 110
172 168 112
172 169 113
171 168 109
174 170 111
170 166 109
175 170 110
174 170 111
175 170 111
172 169 111
172 167 108
172 167 109
174 169 110
172 167 108
167 164 105
164 161 105
172 167 109
170 165 104
168 162 104
166 161 104
166 160 103
165 159 99
161 157 98
162 157 96
162 157 95
166 160 98
160 155 95
157 151 90
153 147 85
156 150 94
149 143 84
148 142 83
146 143 74
155 156 75
162 167 67
161 172 52
163 181 30
171 192 16
174 197 11
173 197 0
174 197 0
172 196 0
174 196 0
173 197 0
172 196 0
173 197 0
173 196 0
172 195 0
175 198 0
175 198 0
174 198 0
173 197 0
174 198 0
173 197 0
173 196 0
174 197 0
175 198 0
173 197 0
175 198 0
174 197 0
174 197 0
173 196 0
176 199 0
174 197 0
174 198 0
174 198 0
174 197 0
171 195 0
174 197 0
173 196 0
173 197 0
174 197 0
174 198 0
173 196 0
173 196 0
174 197 0
174 197 0
175 198 0
174 198 0
175 197 0
174 197 0
174 197 0
174 197 0
173 196 0
173 197 0
173 196 0
172 196 0
175 198 0
175 198 0
175 198 0
175 198 0
174 197 0
174 198 0
174 197 0
174 197 0
174 197 0
174 197 0
175 198 0
175 198 0
172 196 0
175 198 0
173 196 0
174 198 0
175 198 0
174 197 0
175 198 0
176 198 0
174 198 0
173 197 0
175 198 0
175 198 0
174 198 0
175 198 0
173 197 0
174 198 0
174 197 0
174 198 0
174 198 0
174 197 0
173 197 0
175 198 0
176 199 0
174 198 0
174 197 0
174 197 0
174 197 0
174 197 0
174 198 0
173 197 0
175 197 0
174 198 0
175 198 0
174 198 0
175 198 0
176 199 0
175 198 0
176 199 0
174 197 0
176 198 0
174 198 0
175 198 0
172 197 0
173 196 0
175 198 0
173 197 0
174 197 0
174 197 0
173 197 0
174 198 0
174 197 0
177 199 0
175 198 0
174 198 0
174 198 0
174 198 0
175 198 0
174 197 0
175 198 0
173 197 0
174 198 0
175 198 0
175 198 0
175 198 0
173 197 0
175 198 0
174 197 0
173 197 0
175 198 0
175 198 0
174 197 0
172 196 0
174 198 0
173 197 0
177 199 0
175 198 0
175 198 0
174 197 0
171 195 0
175 198 0
172 196 0
173 197 0
175 198 0
173 197 0
177 199 0
173 197 0
176 198 0
173 196 0
174 198 0
175 198 0
175 198 0
174 197 0
173 197 0
173 197 0
174 197 0
173 196 0
175 198 0
173 197 0
173 197 0
173 197 0
174 198 0
174 198 0
172 196 0
174 198 0
176 199 0
173 196 0
175 198 0
173 197 0
175 198 0
173 197 0
174 197 0
174 198 0
175 198 0
174 197 0
175 198 0
173 196 0
173 197 0
175 198 0
175 198 0
174 197 0
174 197 0
173 197 0
173 197 0
173 197 0
173 196 0
174 197 0
174 197 0
175 198 0
172 196 0
172 196 0
173 197 0
172 196 0
171 195 0
172 196 0
172 196 0
173 196 0
176 198 0
173 197 0
171 196 0
175 198 0
175 198 0
173 197 0
174 197 0
173 197 0
174 197 0
174 197 0
175 198 0
172 196 0
174 197 0
174 198 0
174 197 0
174 197 0
174 197 0
174 197 0
174 197 0
172 195 0
173 197 0
174 197 0
172 196 0
174 197 0
173 197 0
174 197 0
174 197 0
173 197 0
175 198 0
175 197 0
172 196 0
173 197 0
174 197 0
171 195 0
174 197 0
174 197 0
171 194 0
176 198 0
172 195 0
170 194 0
173 197 0
173 197 0
173 196 0
173 196 0
173 197 0
175 198 0
171 195 0
171 194 0
173 197 0
171 195 0
173 196 0
172 196 0
172 196 0
172 196 0
175 198 0
175 197 0
175 197 0
172 195 0
171 194 0
174 197 0
171 195 0
172 195 0
172 195 0
169 193 0
173 196 0
171 194 0
172 195 0
172 196 0
172 195 0
165 188 54
136 160 113
78 110 168
62 99 175
62 99 179
62 99 177
62 99 180
62 99 179
62 99 180
62 99 179
61 99 180
62 99 181
61 98 180
61 99 181
61 98 181
62 99 181
62 99 181
62 99 181
62 99 181
61 99 181
62 99 181
62 99 181
61 99 181
62 99 181
62 99 181
62 99 181
61 99 181
61 99 181
61 99 181
62 99 181
61 98 181
62 99 181
61 99 181
62 99 181
61 99 181
61 99 180
62 99 179
62 99 180
62 99 180
61 98 180
62 99 180
61 98 180
62 99 180
61 98 177
62 99 177
62 99 178
62 98 176
63 99 179
62 98 176
62 98 177
91 121 160
134 158 118
157 180 72
163 183 37
166 184 16
161 177 41
158 171 42
145 150 62
150 156 64
140 140 68
142 138 70
135 130 76
142 138 84
141 137 87
138 135 85
140 136 86
137 135 89
145 142 91
135 133 83
141 139 92
138 136 91
138 137 92
142 139 93
157 154 102
157 155 104
144 143 95
141 140 98
153 150 102
156 154 104
161 159 107
161 159 106
163 160 108
163 160 108
163 160 108
161 159 108
170 166 110
164 162 108
172 168 111
170 167 112
174 170 112
169 166 109
165 162 108
167 164 110
173 170 112
170 167 110
172 167 110
174 169 110
173 169 111
176 172 113
169 166 109
169 166 110
173 168 110
174 169 110
175 169 110
168 164 106
170 167 108
169 165 107
167 162 101
173 169 109
173 168 109
173 168 108
173 168 106
168 163 106
168 163 105
168 163 103
167 161 99
168 163 101
168 164 100
167 161 99
163 157 99
162 158 98
164 157 95
162 156 93
159 153 92
163 157 95
156 150 87
149 144 81
142 137 80
152 145 82
138 139 56
152 156 63
157 169 47
164 180 37
166 185 32
166 189 11
174 197 0
173 197 0
172 195 0
174 197 0
174 197 0
175 197 0
171 195 0
170 193 0
175 198 0
174 196 0
172 196 0
171 195 0
174 197 0
176 199 0
172 195 0
175 197 0
174 197 0
173 197 0
171 195 0
174 197 0
174 197 0
177 199 0
175 198 0
172 196 0
175 198 0
174 197 0
174 197 0
174 198 0
175 197 0
174 196 0
174 197 0
175 198 0
174 197 0
175 198 0
175 198 0
173 196 0
172 197 0
174 197 0
172 197 0
174 197 0
175 197 0
174 198 0
172 195 0
175 198 0
174 197 0
175 198 0
174 198 0
174 197 0
175 198 0
174 197 0
172 197 0
174 197 0
172 196 0
174 197 0
175 198 0
175 198 0
174 197 0
173 196 0
174 198 0
175 198 0
174 197 0
173 197 0
175 198 0
174 197 0
173 197 0
175 198 0
173 197 0
176 199 0
174 197 0
174 197 0
174 197 0
173 197 0
174 197 0
174 198 0
175 198 0
175 198 0
174 197 0
174 198 0
174 197 0
174 197 0
175 198 0
176 199 0
175 198 0
173 197 0
172 196 0
174 198 0
175 198 0
175 198 0
174 197 0
175 198 0
174 198 0
174 198 0
175 198 0
174 197 0
175 197 0
173 197 0
174 198 0
173 197 0
174 198 0
176 198 0
175 198 0
175 198 0
175 198 0
175 198 0
173 197 0
175 198 0
174 198 0
172 196 0
174 198 0
173 196 0
173 196 0
175 198 0
177 199 0
176 198 0
172 196 0
176 198 0
175 198 0
174 198 0
174 198 0
175 198 0
173 197 0
171 196 0
174 198 0
175 198 0
175 198 0
173 197 0
172 196 0
176 199 0
175 198 0
173 197 0
175 198 0
175 198 0
174 197 0
174 198 0
174 198 0
172 196 0
173 196 0
175 198 0
174 198 0
172 196 0
173 196 0
173 197 0
173 197 0
175 198 0
173 197 0
175 198 0
176 199 0
174 198 0
174 198 0
173 197 0
173 197 0
175 198 0
173 197 0
174 197 0
174 197 0
174 198 0
173 197 0
173 197 0
174 197 0
174 197 0
174 198 0
174 197 0
173 197 0
171 195 0
175 198 0
172 196 0
172 196 0
174 198 0
173 197 0
175 198 0
172 195 0
174 197 0
173 197 0
174 197 0
174 198 0
174 197 0
174 198 0
175 198 0
175 198 0
173 197 0
173 197 0
173 197 0
173 196 0
176 199 0
175 198 0
174 198 0
174 197 0
175 198 0
172 196 0
174 197 0
173 197 0
173 196 0
173 196 0
170 193 0
174 198 0
174 198 0
174 197 0
173 196 0
175 198 0
173 197 0
173 197 0
173 196 0
172 196 0
172 196 0
175 198 0
172 196 0
173 197 0
174 197 0
172 196 0
171 195 0
173 196 0
172 196 0
174 197 0
174 196 0
173 196 0
174 198 0
174 197 0
174 197 0
172 196 0
173 197 0
174 198 0
171 194 0
173 196 0
176 198 0
174 197 0
174 197 0
175 198 0
172 196 0
173 197 0
173 197 0
171 195 0
172 196 0
174 197 0
173 196 0
174 197 0
174 197 0
173 196 0
173 197 0
173 197 0
172 196 0
173 197 0
172 196 0
172 196 0
174 198 0
175 197 0
175 198 0
170 195 0
168 192 0
173 197 0
172 196 0
168 191 0
173 195 0
172 194 0
170 194 0
171 195 0
172 195 0
173 197 0
175 197 0
172 195 0
173 197 0
173 196 0
172 195 0
169 193 0
172 196 18
159 182 78
110 138 142
64 101 175
61 98 175
62 99 176
61 98 179
62 99 178
62 99 181
62 99 180
62 99 181
62 99 181
62 99 181
62 99 181
62 99 181
61 99 181
62 99 181
61 98 180
61 99 181
62 99 181
61 99 181
61 99 181
61 99 181
62 99 181
62 99 181
62 99 181
61 98 181
62 99 181
62 99 181
62 99 181
61 98 181
62 99 181
62 99 181
62 99 181
62 99 181
62 99 181
62 99 181
62 99 181
61 98 180
61 98 179
61 98 179
62 99 179
62 99 181
61 98 179
62 99 180
61 99 181
61 98 177
61 98 178
62 99 179
62 99 179
61 98 176
61 98 177
61 98 176
69 102 167
110 135 136
150 170 85
163 180 37
155 170 34
158 170 45
156 161 66
140 142 64
131 128 67
131 128 75
136 132 77
130 127 75
136 132 74
127 125 81
141 137 85
132 130 85
148 144 94
153 149 97
143 141 95
150 147 98
137 135 89
142 140 95
143 141 94
143 142 96
146 144 97
140 140 96
150 148 101
154 152 102
157 155 105
157 154 104
157 155 105
164 161 107
160 157 104
162 160 107
166 163 109
168 165 109
166 162 108
170 167 109
167 165 111
169 166 110
173 168 110
171 168 110
168 164 108
170 166 108
172 168 110
172 169 111
175 170 108
174 170 111
172 168 109
175 171 111
174 170 111
175 171 110
176 170 110
174 169 111
172 168 110
166 163 104
173 168 109
173 168 107
171 167 110
170 165 106
170 164 103
171 166 107
170 165 104
167 162 104
171 167 108
160 155 93
165 159 97
167 161 101
165 160 99
155 150 93
162 156 93
161 155 92
165 159 97
157 152 86
154 148 87
153 147 88
147 142 77
150 143 82
152 150 77
153 155 72
152 163 42
164 180 37
164 182 37
173 194 19
174 196 0
174 197 0
172 195 0
172 195 0
174 197 0
175 197 0
174 197 0
174 197 0
174 198 0
174 197 0
175 198 0
173 196 0
173 196 0
174 197 0
174 197 0
173 196 0
174 197 0
174 197 0
175 198 0
174 197 0
173 197 0
172 196 0
174 198 0
176 199 0
173 197 0
173 197 0
174 197 0
176 198 0
173 196 0
175 198 0
174 197 0
175 198 0
174 197 0
175 197 0
173 196 0
176 198 0
173 197 0
173 197 0
173 195 0
174 197 0
175 198 0
173 197 0
175 198 0
173 197 0
174 197 0
174 198 0
174 197 0
173 197 0
173 197 0
175 198 0
173 196 0
175 198 0
175 197 0
174 197 0
174 197 0
173 196 0
173 196 0
174 197 0
175 198 0
175 198 0
176 198 0
174 197 0
173 197 0
174 197 0
175 198 0
174 197 0
173 197 0
174 197 0
175 198 0
175 198 0
176 199 0
176 198 0
175 198 0
175 198 0
174 198 0
174 198 0
174 198 0
173 197 0
174 197 0
173 197 0
174 197 0
173 197 0
173 196 0
176 199 0
174 198 0
175 198 0
174 198 0
174 198 0
174 198 0
174 198 0
174 198 0
175 198 0
174 198 0
172 196 0
174 197 0
175 198 0
174 197 0
175 198 0
173 197 0
174 198 0
176 199 0
175 198 0
173 197 0
173 197 0
172 196 0
174 198 0
175 198 0
173 197 0
175 198 0
175 198 0
174 198 0
172 195 0
173 197 0
174 197 0
174 198 0
174 198 0
174 198 0
174 198 0
174 198 0
173 197 0
174 198 0
174 198 0
175 198 0
174 197 0
174 198 0
174 197 0
173 197 0
174 197 0
175 198 0
175 198 0
174 198 0
174 198 0
174 197 0
174 197 0
174 197 0
174 198 0
174 198 0
175 198 0
174 198 0
176 198 0
173 197 0
173 196 0
174 197 0
172 196 0
174 197 0
174 197 0
174 197 0
175 198 0
174 198 0
174 198 0
173 197 0
173 197 0
174 197 0
173 197 0
173 197 0
172 196 0
173 197 0
173 196 0
174 197 0
176 199 0
174 198 0
173 196 0
176 198 0
174 198 0
173 197 0
174 197 0
173 197 0
174 197 0
174 198 0
172 196 0
176 198 0
175 198 0
173 197 0
174 197 0
173 197 0
172 196 0
174 197 0
175 198 0
174 197 0
174 198 0
174 198 0
174 198 0
174 197 0
175 198 0
173 196 0
175 197 0
174 197 0
176 198 0
174 198 0
172 195 0
173 197 0
174 197 0
174 198 0
174 197 0
175 198 0
174 197 0
173 196 0
174 198 0
172 196 0
173 197 0
174 197 0
174 197 0
174 197 0
170 193 0
174 197 0
174 196 0
171 194 0
175 198 0
174 197 0
172 196 0
173 197 0
175 198 0
175 198 0
174 197 0
173 196 0
172 195 0
173 197 0
173 196 0
173 197 0
174 197 0
176 198 0
173 196 0
174 196 0
173 197 0
175 198 0
174 198 0
175 198 0
174 197 0
174 197 0
175 197 0
174 198 0
172 196 0
173 196 0
172 196 0
168 192 0
173 197 0
174 197 0
173 196 0
171 195 0
170 194 0
172 196 0
174 197 0
172 196 0
174 197 0
173 197 0
173 197 0
175 196 0
172 195 0
172 196 0
173 196 0
174 197 0
172 195 0
171 194 0
173 196 0
175 197 0
170 193 0
172 195 0
172 195 0
174 196 0
173 196 0
171 194 0
170 193 0
168 191 18
156 179 82
99 128 156
62 99 178
63 100 179
62 99 179
62 99 177
62 99 179
62 99 180
62 99 180
62 99 179
62 99 180
62 99 180
63 100 181
62 99 179
62 99 181
61 99 180
62 99 181
62 99 181
62 99 181
61 99 181
61 99 181
62 99 181
61 99 180
62 99 181
61 98 181
61 98 181
62 99 181
61 99 181
62 99 181
62 99 181
61 99 181
62 99 181
61 99 181
61 99 181
61 99 181
61 98 180
62 99 181
62 99 181
61 98 179
61 99 179
62 99 180
62 99 181
62 99 180
62 99 178
62 99 178
62 99 179
62 99 179
62 99 178
61 97 175
61 98 176
62 99 177
62 99 179
61 97 176
61 98 175
67 101 174
100 126 146
132 151 111
157 172 57
145 152 54
144 150 54
135 136 65
139 137 69
133 127 76
122 119 72
126 123 80
131 129 80
137 133 84
135 133 86
139 136 84
123 122 80
143 141 93
137 136 93
140 138 93
146 143 97
147 144 95
151 149 100
151 149 101
148 146 100
154 152 104
149 148 100
153 150 101
148 147 101
155 153 103
158 155 104
160 158 106
159 156 104
167 163 108
161 159 105
160 158 106
161 159 106
168 164 108
173 168 110
166 163 108
172 168 111
169 165 109
173 169 108
169 166 108
173 169 111
170 166 108
170 166 108
173 169 109
171 168 109
170 167 107
176 170 110
173 169 108
173 168 109
172 168 107
172 168 106
172 167 110
167 163 105
175 170 109
173 168 106
172 167 104
169 164 103
165 160 102
174 169 107
173 168 108
164 159 99
168 164 103
164 159 99
165 159 96
164 159 100
168 161 97
155 150 94
155 150 88
154 149 91
152 147 84
158 153 90
148 142 81
145 140 75
143 137 74
150 147 75
154 152 73
149 157 47
163 177 45
166 184 36
170 191 25
171 194 11
174 197 0
174 197 0
172 195 0
174 197 0
173 196 0
174 197 0
176 199 0
175 198 0
173 196 0
175 198 0
174 196 0
172 196 0
174 197 0
173 197 0
173 196 0
172 195 0
175 198 0
172 197 0
175 198 0
174 197 0
174 197 0
172 195 0
174 198 0
172 195 0
174 197 0
172 196 0
176 198 0
175 198 0
173 197 0
174 198 0
172 195 0
175 198 0
175 197 0
174 197 0
174 197 0
174 197 0
175 198 0
173 197 0
174 197 0
174 197 0
174 197 0
172 196 0
175 198 0
175 198 0
173 197 0
175 197 0
173 197 0
175 198 0
175 198 0
175 198 0
173 197 0
174 197 0
172 196 0
173 197 0
174 197 0
173 197 0
174 198 0
175 198 0
174 198 0
174 197 0
175 198 0
173 197 0
174 198 0
173 197 0
175 198 0
173 196 0
174 197 0
173 197 0
177 199 0
175 197 0
173 197 0
174 198 0
176 199 0
173 197 0
173 197 0
174 198 0
174 197 0
174 198 0
176 198 0
173 197 0
173 197 0
174 198 0
175 198 0
175 198 0
175 198 0
175 198 0
173 197 0
176 198 0
173 196 0
174 197 0
174 198 0
175 197 0
175 198 0
176 199 0
177 199 0
176 198 0
175 198 0
175 198 0
175 198 0
174 198 0
174 197 0
174 198 0
177 199 0
173 197 0
175 198 0
173 197 0
174 197 0
173 197 0
174 198 0
174 198 0
174 198 0
175 198 0
173 196 0
175 198 0
172 196 0
176 198 0
174 198 0
175 198 0
173 197 0
175 198 0
176 198 0
174 198 0
175 198 0
174 198 0
174 197 0
173 197 0
173 196 0
175 198 0
175 198 0
173 197 0
174 197 0
175 198 0
175 198 0
174 197 0
176 198 0
173 197 0
174 198 0
172 196 0
173 197 0
175 198 0
174 198 0
176 198 0
173 197 0
173 197 0
174 198 0
173 197 0
176 199 0
176 199 0
174 197 0
175 198 0
175 198 0
175 198 0
174 197 0
174 198 0
173 197 0
174 197 0
174 198 0
173 197 0
174 198 0
173 197 0
174 198 0
175 198 0
174 198 0
175 198 0
172 196 0
174 197 0
173 197 0
174 197 0
175 198 0
172 196 0
175 198 0
173 197 0
174 197 0
173 195 0
173 196 0
173 197 0
173 196 0
174 197 0
173 197 0
173 197 0
172 195 0
174 197 0
173 197 0
174 198 0
173 196 0
175 197 0
175 198 0
174 198 0
173 197 0
172 196 0
171 196 0
172 197 0
173 197 0
174 197 0
173 196 0
172 196 0
173 196 0
174 198 0
175 198 0
174 198 0
173 196 0
172 196 0
175 197 0
173 196 0
173 196 0
174 198 0
173 196 0
173 196 0
173 196 0
172 196 0
174 197 0
173 197 0
173 196 0
174 197 0
174 197 0
174 197 0
173 196 0
174 197 0
175 197 0
172 196 0
173 197 0
173 196 0
174 196 0
174 197 0
173 196 0
173 197 0
174 197 0
171 194 0
173 197 0
171 194 0
171 194 0
172 195 0
174 197 0
172 196 0
175 198 0
175 198 0
172 197 0
172 196 0
172 196 0
173 196 0
172 196 0
172 196 0
169 193 0
171 194 0
173 196 0
173 197 0
174 197 0
174 197 0
170 194 0
172 196 0
173 197 0
172 196 0
172 194 0
174 198 0
173 197 0
170 193 0
172 195 0
169 193 0
172 195 0
174 197 0
171 194 18
142 166 108
84 115 165
63 100 180
63 99 179
62 99 179
62 99 179
62 99 180
62 99 180
61 99 180
62 99 180
62 99 180
62 99 179
61 99 180
62 99 179
62 99 180
62 99 181
62 99 181
61 99 181
62 99 180
61 99 181
61 99 181
61 99 181
62 99 181
61 98 181
62 99 181
61 99 181
61 99 181
61 99 181
61 99 181
61 98 181
61 98 181
61 99 181
62 99 181
62 99 181
62 99 181
62 99 181
61 99 180
61 99 181
62 99 181
61 99 180
63 100 181
62 99 179
61 99 181
62 99 181
61 99 179
62 99 179
61 99 180
62 99 180
62 99 179
62 99 178
61 99 179
62 99 179
61 98 177
62 98 176
62 98 177
61 98 175
64 99 172
91 117 152
118 134 125
138 150 59
141 146 64
132 134 65
142 137 74
136 131 78
132 129 77
136 132 82
141 138 86
135 131 85
125 124 80
131 131 87
140 138 92
139 137 91
123 123 85
135 134 92
131 131 91
147 144 96
133 132 90
139 138 92
148 146 99
143 142 98
155 152 102
146 144 97
152 150 102
161 158 106
157 155 104
166 162 108
159 156 103
165 163 108
158 154 103
159 157 103
169 165 108
165 162 106
167 165 108
173 168 109
167 164 108
170 167 110
168 165 109
173 169 110
170 167 108
171 168 108
173 169 110
172 168 110
172 168 107
174 170 111
172 167 106
173 169 108
171 167 108
173 168 107
171 167 108
175 170 110
172 168 107
170 165 103
172 168 106
175 170 107
169 165 104
166 161 100
174 168 107
171 165 103
171 165 102
167 163 96
164 160 98
162 156 98
165 157 95
167 161 96
158 152 90
155 149 86
153 148 88
159 153 87
157 152 87
152 146 79
149 144 82
141 136 75
124 122 53
139 139 52
144 149 57
162 175 53
160 175 32
166 186 25
174 197 0
175 198 0
174 196 0
174 197 0
175 198 0
173 196 0
174 197 0
174 197 0
173 196 0
174 197 0
173 196 0
176 198 0
174 198 0
173 196 0
172 195 0
174 197 0
176 199 0
174 196 0
173 197 0
174 197 0
173 197 0
173 196 0
174 197 0
175 198 0
175 197 0
174 197 0
172 195 0
174 197 0
175 198 0
174 197 0
174 197 0
174 197 0
174 197 0
172 197 0
173 197 0
173 196 0
176 198 0
173 196 0
173 197 0
176 198 0
174 198 0
171 195 0
174 197 0
174 197 0
174 197 0
175 198 0
173 196 0
173 196 0
174 197 0
174 197 0
175 197 0
174 197 0
175 198 0
175 198 0
174 198 0
173 197 0
173 196 0
173 197 0
175 198 0
173 196 0
173 196 0
175 198 0
174 197 0
173 197 0
174 198 0
173 196 0
174 198 0
174 198 0
174 197 0
175 198 0
173 197 0
175 198 0
173 197 0
171 195 0
175 198 0
173 197 0
175 197 0
175 198 0
174 197 0
175 197 0
173 196 0
173 197 0
174 197 0
174 197 0
175 198 0
174 197 0
174 197 0
175 198 0
174 197 0
174 198 0
175 198 0
174 198 0
175 198 0
173 197 0
174 198 0
174 197 0
175 198 0
172 196 0
174 198 0
174 197 0
174 198 0
175 198 0
174 198 0
174 198 0
175 198 0
173 196 0
174 197 0
173 197 0
174 198 0
175 198 0
174 198 0
174 197 0
175 198 0
174 198 0
172 197 0
176 199 0
176 199 0
174 197 0
173 197 0
174 198 0
175 198 0
177 199 0
174 197 0
173 197 0
174 198 0
173 197 0
173 197 0
175 198 0
174 197 0
173 197 0
175 198 0
173 197 0
174 198 0
174 198 0
177 199 0
173 197 0
174 198 0
175 198 0
174 197 0
173 197 0
173 197 0
174 197 0
173 197 0
176 199 0
175 198 0
172 196 0
171 195 0
175 198 0
172 196 0
172 196 0
175 198 0
173 197 0
174 198 0
172 196 0
175 198 0
172 196 0
174 198 0
174 197 0
174 198 0
175 198 0
174 197 0
173 197 0
174 197 0
173 197 0
172 196 0
173 197 0
175 198 0
171 195 0
173 196 0
172 195 0
174 197 0
173 196 0
176 198 0
175 198 0
173 197 0
171 195 0
175 198 0
175 198 0
172 196 0
172 196 0
174 198 0
173 196 0
172 196 0
172 195 0
175 198 0
175 198 0
174 197 0
172 195 0
173 197 0
175 198 0
173 197 0
174 197 0
174 197 0
173 197 0
173 196 0
172 195 0
172 196 0
173 197 0
174 197 0
174 196 0
174 198 0
174 197 0
176 198 0
171 195 0
173 196 0
175 197 0
174 198 0
173 197 0
174 197 0
173 196 0
174 197 0
173 197 0
172 196 0
174 197 0
172 196 0
173 197 0
173 197 0
174 197 0
173 196 0
172 196 0
174 197 0
173 196 0
176 199 0
172 195 0
172 195 0
175 198 0
172 196 0
173 196 0
172 195 0
173 197 0
171 195 0
172 195 0
173 196 0
172 196 0
172 195 0
174 197 0
172 195 0
173 196 0
172 196 0
174 197 0
172 196 0
170 193 0
172 195 0
167 191 0
173 196 0
173 196 0
172 195 0
174 197 0
171 194 0
174 197 0
172 195 0
173 197 0
172 196 0
173 196 0
171 194 0
173 196 0
174 197 0
171 195 0
173 196 0
173 196 0
168 191 31
145 169 103
81 114 166
63 99 175
62 99 177
62 99 178
62 99 179
62 99 177
63 100 181
62 99 178
62 99 179
61 99 179
62 99 181
62 99 179
62 99 181
62 99 180
62 99 181
62 99 181
62 99 180
62 99 181
62 99 181
62 99 181
61 99 181
62 99 181
61 98 181
62 99 181
62 99 181
61 99 181
61 99 181
62 99 181
61 98 181
62 99 181
62 99 181
61 99 181
62 99 181
62 99 181
62 99 180
62 99 180
62 99 181
62 99 181
62 99 181
61 99 181
62 99 180
61 99 181
62 99 179
62 99 180
62 99 179
61 99 180
62 99 180
62 98 178
62 99 180
62 99 179
62 99 179
62 98 175
62 98 175
62 98 173
61 98 176
61 98 173
61 97 173
62 97 173
75 102 162
118 126 117
132 137 68
139 140 67
136 133 73
128 124 74
142 138 83
130 127 76
126 125 78
137 134 82
136 134 84
118 118 79
130 129 87
137 136 90
134 133 90
136 135 92
133 133 91
133 131 88
133 132 89
132 132 89
139 140 98
144 142 97
152 150 100
145 144 99
158 156 104
152 150 101
155 153 104
157 154 101
162 159 105
159 156 105
164 161 106
163 160 102
168 164 108
165 162 106
169 165 108
169 165 107
171 167 108
174 169 109
168 165 108
172 168 110
176 170 110
172 167 108
174 170 110
174 170 110
175 171 112
175 170 110
175 170 110
174 169 108
174 168 107
171 167 104
175 169 107
174 169 109
173 168 105
174 169 108
165 161 101
162 158 99
170 166 104
169 164 102
173 167 103
167 162 102
168 164 103
166 160 97
167 161 101
161 156 93
166 160 93
160 155 95
160 154 92
156 151 92
162 156 95
159 154 88
152 146 81
160 154 87
148 142 81
145 137 75
142 136 74
146 144 66
156 164 53
157 165 59
160 174 39
164 183 19
168 189 16
171 194 0
173 196 0
172 195 0
175 198 0
176 198 0
175 197 0
174 197 0
174 197 0
174 197 0
173 196 0
174 198 0
172 196 0
174 196 0
176 198 0
176 198 0
173 197 0
175 197 0
175 197 0
173 197 0
174 198 0
175 198 0
174 197 0
174 197 0
172 196 0
174 197 0
173 196 0
173 196 0
175 198 0
173 197 0
173 196 0
176 199 0
171 195 0
172 196 0
174 197 0
175 198 0
173 196 0
173 196 0
175 198 0
174 198 0
174 197 0
174 197 0
174 197 0
177 199 0
174 198 0
173 196 0
174 197 0
176 199 0
173 197 0
176 198 0
173 197 0
174 197 0
174 197 0
173 197 0
174 197 0
174 197 0
174 197 0
175 198 0
172 196 0
174 198 0
175 198 0
173 196 0
173 197 0
173 197 0
174 198 0
174 198 0
173 197 0
173 196 0
173 197 0
173 196 0
174 198 0
172 197 0
173 197 0
174 198 0
174 197 0
174 197 0
173 197 0
173 197 0
175 198 0
174 198 0
173 197 0
175 198 0
175 198 0
174 197 0
174 198 0
174 198 0
174 197 0
174 197 0
174 198 0
173 197 0
174 198 0
175 198 0
174 198 0
175 198 0
175 198 0
175 198 0
173 197 0
174 198 0
174 198 0
175 198 0
175 198 0
174 198 0
174 197 0
173 197 0
173 197 0
172 196 0
175 198 0
175 198 0
175 198 0
175 198 0
173 196 0
175 197 0
174 198 0
174 197 0
174 197 0
173 197 0
174 197 0
177 199 0
174 198 0
174 197 0
175 198 0
175 197 0
175 198 0
174 198 0
175 198 0
175 198 0
174 198 0
171 195 0
174 197 0
172 197 0
173 197 0
173 197 0
174 198 0
172 196 0
174 198 0
174 197 0
174 197 0
174 197 0
173 197 0
174 197 0
172 196 0
172 196 0
174 197 0
174 197 0
173 196 0
174 197 0
174 197 0
176 199 0
172 196 0
175 198 0
174 197 0
174 198 0
173 197 0
174 198 0
174 197 0
172 196 0
175 198 0
171 194 0
175 198 0
173 196 0
174 198 0
172 196 0
173 197 0
175 198 0
175 198 0
175 198 0
173 197 0
174 198 0
174 198 0
174 197 0
176 199 0
174 197 0
172 196 0
176 199 0
172 196 0
175 198 0
175 198 0
172 196 0
173 197 0
174 197 0
173 197 0
174 197 0
172 195 0
174 197 0
175 197 0
174 197 0
175 198 0
173 197 0
175 198 0
172 195 0
173 196 0
174 197 0
175 198 0
174 197 0
174 197 0
174 197 0
170 194 0
170 194 0
172 196 0
173 197 0
174 197 0
176 199 0
171 195 0
173 197 0
172 195 0
175 198 0
172 196 0
175 198 0
174 197 0
171 193 0
173 196 0
173 196 0
174 197 0
175 198 0
173 196 0
173 196 0
174 197 0
171 195 0
174 197 0
173 196 0
169 193 0
174 197 0
173 197 0
175 198 0
169 193 0
172 195 0
175 198 0
174 197 0
171 195 0
175 198 0
173 197 0
174 198 0
170 193 0
174 197 0
171 194 0
173 196 0
171 194 0
173 196 0
172 196 0
172 196 0
173 197 0
174 196 0
171 194 0
173 196 0
172 195 0
173 197 0
171 193 0
174 198 0
173 196 0
172 196 0
169 193 0
172 195 0
173 196 0
169 194 0
173 196 0
172 195 0
171 194 0
173 196 0
173 196 0
168 191 36
145 170 100
75 108 166
62 99 170
63 99 177
62 99 181
62 99 177
62 99 179
62 99 179
62 99 180
62 99 177
62 99 180
61 99 179
62 99 180
62 99 179
62 99 181
62 99 181
62 99 179
61 98 180
62 99 181
62 99 181
62 99 180
62 99 180
62 99 180
62 99 180
62 99 181
62 99 181
62 99 181
61 99 181
62 99 181
62 99 179
63 99 180
62 99 181
62 99 178
62 99 180
61 98 180
62 99 181
62 99 179
62 99 180
61 99 180
61 99 181
61 99 179
61 99 179
62 99 180
61 98 178
62 99 181
62 99 181
62 99 179
63 99 179
62 99 179
62 99 179
61 98 178
61 97 177
62 99 177
62 99 177
61 98 174
62 99 177
62 98 176
61 98 176
62 98 174
61 96 165
61 97 171
72 101 164
114 124 125
125 126 87
121 119 65
124 121 75
130 127 74
134 132 82
120 118 72
128 128 87
114 116 79
119 119 82
131 129 85
124 124 84
133 132 90
132 131 90
132 131 89
137 136 94
129 129 90
149 146 99
149 147 97
145 144 99
145 143 97
149 148 101
145 144 99
155 152 102
147 146 99
155 153 103
159 157 105
158 156 104
162 160 106
163 160 103
162 158 105
168 163 106
171 167 109
170 167 110
175 170 109
170 166 105
168 165 107
171 168 108
174 170 111
168 165 107
176 170 109
175 169 107
172 167 108
178 171 108
177 171 110
176 170 108
173 168 108
172 168 105
179 173 109
177 171 109
170 165 101
171 166 106
175 169 109
171 166 106
170 165 101
163 157 95
168 162 95
168 163 101
174 168 106
168 162 97
164 159 95
166 159 97
172 165 101
163 157 93
161 154 89
160 154 89
162 155 91
154 148 83
157 152 87
159 153 91
151 146 84
149 142 78
152 147 78
149 149 68
150 154 60
156 167 45
162 177 34
168 187 32
170 192 19
173 197 0
174 195 0
173 197 0
172 194 0
175 197 0
176 198 0
175 198 0
173 195 0
173 195 0
175 198 0
174 196 0
174 198 0
173 194 0
173 196 0
173 197 0
173 195 0
175 197 0
172 195 0
174 197 0
172 196 0
173 196 0
173 196 0
173 196 0
174 197 0
173 196 0
172 194 0
173 196 0
172 196 0
174 197 0
175 197 0
175 198 0
175 198 0
173 196 0
174 197 0
173 196 0
174 197 0
172 196 0
174 197 0
173 197 0
174 197 0
173 197 0
176 198 0
175 198 0
174 198 0
173 197 0
173 197 0
175 198 0
174 197 0
173 196 0
175 198 0
175 198 0
174 197 0
175 198 0
174 198 0
173 197 0
174 198 0
174 198 0
173 197 0
173 197 0
173 197 0
175 198 0
172 197 0
174 197 0
173 197 0
174 198 0
174 197 0
173 197 0
172 197 0
175 198 0
175 198 0
176 198 0
174 197 0
174 197 0
174 198 0
176 198 0
173 197 0
173 197 0
174 197 0
174 197 0
172 197 0
176 199 0
175 198 0
175 198 0
174 198 0
175 198 0
172 197 0
172 197 0
175 198 0
175 198 0
174 198 0
173 197 0
176 199 0
175 198 0
174 197 0
173 196 0
173 197 0
174 197 0
173 197 0
175 198 0
175 198 0
174 198 0
173 197 0
175 198 0
175 198 0
175 198 0
171 195 0
175 198 0
174 198 0
174 198 0
175 197 0
174 197 0
173 197 0
174 198 0
173 197 0
175 198 0
173 197 0
175 198 0
175 198 0
173 197 0
173 196 0
174 198 0
174 198 0
174 198 0
173 197 0
175 198 0
173 197 0
175 198 0
174 198 0
173 196 0
173 196 0
176 199 0
174 197 0
174 197 0
173 197 0
173 197 0
174 197 0
172 197 0
173 197 0
174 197 0
173 197 0
172 196 0
176 198 0
172 196 0
174 197 0
174 197 0
174 197 0
173 197 0
174 197 0
174 197 0
174 197 0
174 197 0
173 197 0
177 199 0
173 197 0
173 197 0
172 196 0
175 198 0
173 197 0
174 198 0
174 197 0
175 198 0
174 197 0
175 198 0
171 195 0
174 197 0
172 196 0
174 198 0
173 196 0
174 197 0
172 195 0
173 197 0
174 198 0
175 198 0
172 196 0
174 197 0
173 196 0
174 198 0
174 197 0
175 198 0
172 195 0
174 197 0
176 199 0
175 198 0
175 198 0
172 196 0
176 199 0
174 197 0
173 197 0
175 198 0
172 196 0
171 194 0
173 197 0
174 197 0
173 197 0
174 197 0
173 196 0
171 195 0
173 197 0
174 197 0
175 198 0
171 195 0
172 195 0
173 196 0
171 195 0
174 197 0
173 197 0
174 197 0
173 197 0
173 196 0
172 195 0
173 196 0
173 197 0
175 198 0
174 197 0
173 197 0
171 195 0
173 196 0
171 195 0
168 192 0
173 196 0
171 194 0
174 197 0
175 198 0
174 198 0
173 196 0
175 198 0
172 195 0
170 193 0
173 196 0
170 194 0
174 197 0
174 196 0
171 194 0
174 197 0
174 197 0
172 196 0
170 194 0
174 197 0
172 196 0
172 196 0
172 195 0
170 193 0
171 194 0
171 194 0
173 196 0
171 195 0
172 195 0
174 197 0
171 194 0
173 196 0
174 197 0
175 198 0
172 195 0
169 193 0
171 194 0
174 197 0
171 194 0
169 192 25
138 163 114
84 115 163
62 99 174
62 98 175
63 100 179
62 99 177
62 99 176
61 98 175
62 99 179
62 99 177
62 99 180
63 99 179
62 99 178
62 99 180
62 99 179
62 99 181
62 99 181
62 99 181
61 99 180
62 99 181
62 99 180
62 99 181
62 99 181
61 98 181
61 99 181
62 99 181
62 99 181
62 99 181
61 99 181
62 99 181
62 99 181
62 99 181
62 99 179
62 99 180
62 99 181
62 99 180
62 99 180
62 99 180
62 99 180
62 99 180
62 99 179
62 99 180
62 99 181
62 99 180
61 98 178
62 99 179
62 99 181
62 99 178
63 99 179
61 98 180
62 99 180
62 99 180
62 99 179
62 99 178
61 98 179
62 99 176
62 99 181
60 97 170
61 97 172
61 97 174
61 98 175
61 97 175
62 98 172
74 102 162
102 109 116
128 127 88
120 116 72
123 120 71
128 125 76
113 113 72
126 125 84
130 128 83
113 114 78
124 123 81
125 124 83
126 125 85
121 122 87
133 133 91
140 138 93
130 129 88
137 137 95
136 136 94
135 134 92
147 146 100
141 140 96
152 151 101
151 149 100
151 149 101
156 153 100
153 151 99
155 154 103
161 158 105
165 162 104
167 163 107
163 159 103
165 162 108
171 167 109
168 164 104
172 167 107
173 169 109
170 166 108
174 168 104
171 167 107
175 170 108
176 171 109
172 168 107
173 168 108
173 169 110
175 170 106
172 168 107
174 169 105
173 169 110
173 167 103
175 168 106
172 167 103
172 166 104
171 165 102
168 163 103
166 161 101
168 163 100
170 165 104
169 163 99
165 160 96
167 160 95
164 158 93
166 160 97
151 146 87
158 152 88
155 148 84
154 149 87
156 151 88
151 145 84
163 156 93
151 145 74
158 151 83
152 146 78
148 146 72
154 159 63
158 167 51
159 174 25
168 187 25
171 192 16
175 196 0
172 195 0
173 196 0
173 195 0
174 197 0
173 197 0
173 196 0
173 195 0
174 197 0
173 196 0
174 196 0
173 196 0
172 196 0
173 195 0
172 195 0
175 198 0
173 196 0
175 197 0
171 194 0
174 197 0
173 197 0
174 197 0
174 198 0
171 195 0
176 198 0
172 196 0
172 196 0
175 197 0
175 198 0
175 198 0
174 197 0
175 198 0
171 195 0
173 197 0
174 197 0
173 197 0
174 197 0
176 198 0
173 196 0
174 197 0
173 196 0
174 198 0
174 198 0
174 198 0
176 198 0
176 199 0
174 197 0
174 197 0
174 198 0
175 198 0
175 198 0
174 197 0
175 198 0
177 199 0
173 197 0
175 198 0
173 196 0
174 198 0
174 198 0
176 198 0
176 199 0
176 199 0
174 198 0
175 198 0
174 198 0
173 197 0
175 198 0
175 198 0
173 196 0
176 198 0
176 198 0
175 198 0
174 197 0
174 198 0
173 196 0
174 198 0
172 196 0
174 198 0
176 198 0
174 198 0
174 198 0
174 197 0
172 196 0
175 198 0
172 196 0
175 198 0
173 196 0
174 198 0
175 198 0
174 198 0
175 198 0
173 197 0
172 196 0
174 197 0
174 197 0
174 198 0
174 198 0
173 196 0
174 197 0
174 198 0
174 198 0
173 197 0
173 196 0
174 197 0
174 198 0
175 198 0
174 198 0
174 197 0
174 198 0
175 198 0
173 197 0
173 197 0
173 197 0
173 197 0
175 198 0
172 196 0
173 196 0
175 198 0
174 197 0
173 197 0
175 198 0
174 198 0
175 198 0
176 198 0
172 196 0
173 197 0
174 198 0
175 198 0
174 198 0
174 197 0
173 196 0
173 197 0
173 197 0
171 195 0
173 197 0
173 197 0
173 197 0
171 196 0
173 197 0
174 198 0
173 197 0
171 195 0
172 196 0
172 196 0
174 197 0
174 197 0
173 196 0
174 197 0
174 198 0
173 197 0
175 198 0
175 198 0
174 197 0
174 197 0
173 197 0
172 196 0
174 197 0
173 196 0
173 196 0
173 196 0
176 198 0
172 196 0
174 198 0
173 197 0
173 197 0
175 198 0
175 198 0
174 197 0
174 198 0
175 198 0
173 196 0
174 197 0
173 197 0
174 197 0
174 197 0
174 197 0
174 198 0
175 198 0
174 197 0
173 196 0
173 196 0
173 197 0
173 197 0
172 196 0
173 196 0
173 196 0
174 198 0
172 195 0
174 198 0
173 197 0
171 195 0
176 198 0
175 198 0
172 197 0
174 198 0
175 198 0
173 196 0
172 196 0
173 196 0
172 196 0
172 195 0
174 197 0
175 198 0
173 195 0
174 197 0
174 197 0
173 197 0
174 197 0
171 195 0
172 196 0
172 196 0
173 197 0
172 195 0
174 197 0
172 196 0
170 194 0
176 198 0
171 195 0
173 197 0
170 194 0
174 197 0
173 196 0
174 197 0
172 195 0
173 196 0
172 196 0
174 197 0
173 196 0
171 194 0
171 195 0
171 195 0
172 195 0
176 198 0
173 197 0
172 195 0
174 196 0
174 197 0
172 196 0
171 195 0
174 198 0
173 196 0
174 197 0
174 197 0
173 196 0
171 194 0
170 194 0
172 195 0
172 195 0
171 194 0
172 196 0
173 196 0
171 195 0
172 195 0
171 195 0
171 195 0
174 197 0
168 191 31
150 173 90
78 111 165
63 100 178
63 99 174
63 99 176
62 99 178
62 99 173
62 99 176
63 99 179
62 99 178
63 99 179
62 99 177
62 99 179
62 99 181
62 99 179
62 99 180
62 99 181
63 100 181
62 99 181
61 99 181
61 99 180
62 99 178
62 99 181
62 99 179
61 98 179
62 99 181
62 99 181
61 99 179
62 99 181
61 99 180
62 99 181
61 99 180
61 99 178
61 98 179
61 98 178
62 99 180
62 99 181
62 99 181
62 99 180
62 99 180
62 99 181
62 99 181
62 99 180
62 99 180
62 99 181
61 98 180
62 99 178
62 99 177
62 99 180
61 98 180
61 98 178
62 99 177
61 98 178
62 99 179
62 99 178
62 99 177
62 99 177
62 99 178
62 99 177
61 97 171
61 97 170
62 99 177
62 98 174
61 96 167
61 97 171
67 98 163
102 113 132
123 121 84
113 112 69
121 119 76
128 126 83
120 118 79
101 103 66
120 119 80
116 116 80
113 115 79
123 124 86
133 132 90
131 132 92
131 132 92
130 130 90
135 135 94
138 138 94
142 141 98
142 140 94
144 143 97
148 148 100
157 154 101
150 148 98
153 151 100
160 157 104
160 156 103
160 157 102
158 155 102
160 157 103
169 165 106
166 162 107
173 168 107
161 159 103
167 163 102
167 163 104
170 166 106
170 165 106
168 164 104
172 168 106
175 170 109
176 170 106
178 172 111
169 164 103
176 170 106
174 169 106
170 165 99
174 169 105
175 169 105
172 167 104
175 170 105
174 167 101
172 166 101
174 168 102
171 165 97
164 160 96
171 166 101
161 156 93
163 158 93
167 162 101
162 156 90
163 158 95
161 155 92
160 155 90
162 155 88
166 160 93
149 144 78
156 150 84
158 151 85
152 146 75
153 147 80
149 143 75
151 149 74
143 145 54
153 163 45
155 170 36
160 178 22
173 195 16
173 196 0
174 197 0
174 196 0
174 194 0
173 197 0
175 197 0
173 196 0
173 196 0
173 196 0
174 197 0
172 196 0
175 197 0
173 196 0
174 197 0
174 197 0
174 197 0
173 196 0
174 198 0
174 197 0
172 196 0
172 196 0
174 197 0
173 196 0
173 196 0
174 197 0
172 196 0
175 198 0
174 198 0
175 198 0
172 196 0
175 198 0
174 197 0
174 197 0
174 197 0
174 197 0
173 196 0
174 198 0
175 197 0
175 198 0
174 197 0
174 198 0
174 197 0
173 197 0
174 197 0
174 197 0
174 197 0
174 197 0
172 196 0
175 198 0
174 197 0
173 197 0
174 197 0
175 198 0
173 197 0
175 197 0
174 197 0
175 198 0
173 197 0
174 197 0
175 198 0
174 197 0
175 198 0
175 198 0
173 196 0
174 198 0
175 198 0
173 197 0
176 198 0
174 197 0
175 198 0
174 197 0
174 197 0
173 197 0
174 198 0
175 198 0
175 198 0
175 198 0
174 196 0
174 198 0
175 198 0
174 197 0
174 197 0
173 197 0
173 197 0
173 197 0
174 197 0
175 198 0
173 197 0
173 196 0
174 198 0
173 197 0
175 198 0
173 197 0
173 197 0
176 198 0
175 198 0
176 199 0
174 198 0
173 197 0
173 197 0
175 198 0
175 198 0
174 197 0
174 197 0
175 198 0
174 197 0
173 197 0
175 198 0
174 197 0
173 197 0
174 197 0
174 198 0
175 198 0
174 198 0
175 198 0
174 198 0
173 196 0
173 197 0
174 197 0
175 198 0
174 197 0
173 197 0
173 197 0
174 197 0
174 198 0
171 195 0
176 199 0
174 198 0
174 197 0
173 196 0
175 198 0
175 198 0
173 197 0
175 198 0
174 197 0
175 198 0
173 196 0
173 197 0
173 197 0
174 198 0
174 198 0
174 198 0
174 197 0
174 198 0
172 196 0
174 197 0
175 198 0
174 198 0
173 197 0
174 198 0
172 196 0
174 197 0
174 198 0
174 198 0
174 197 0
172 196 0
174 197 0
172 196 0
174 197 0
173 197 0
175 198 0
173 196 0
173 196 0
172 196 0
176 198 0
174 197 0
175 198 0
173 197 0
174 197 0
173 197 0
173 197 0
175 198 0
173 196 0
174 198 0
174 198 0
174 197 0
174 197 0
174 198 0
173 197 0
175 197 0
173 197 0
172 195 0
173 197 0
175 198 0
172 196 0
174 197 0
173 197 0
174 198 0
173 197 0
174 198 0
175 198 0
174 197 0
174 196 0
175 198 0
176 199 0
172 196 0
173 197 0
173 197 0
174 197 0
174 198 0
173 197 0
172 196 0
176 199 0
173 196 0
175 198 0
171 194 0
175 198 0
173 196 0
173 197 0
175 198 0
173 196 0
171 195 0
170 194 0
171 195 0
172 196 0
170 193 0
174 198 0
175 198 0
171 195 0
173 196 0
172 196 0
174 197 0
173 196 0
173 196 0
174 197 0
173 197 0
173 196 0
173 196 0
174 197 0
173 197 0
171 194 0
172 195 0
174 196 0
172 195 0
169 192 0
174 197 0
174 198 0
172 195 0
170 193 0
171 195 0
171 194 0
173 196 0
173 196 0
171 195 0
172 196 0
168 191 0
175 198 0
171 194 0
173 196 0
172 195 0
172 195 0
174 197 0
172 195 0
173 196 0
174 197 0
174 197 0
148 172 90
101 130 154
61 98 170
62 99 175
61 98 170
62 99 177
62 99 177
62 99 177
62 99 180
62 99 180
62 99 179
62 99 175
62 99 177
62 99 178
62 99 180
62 99 180
62 99 181
62 99 178
62 99 181
62 99 180
62 99 181
62 99 181
62 99 181
62 99 180
61 99 180
62 99 181
62 99 179
62 99 181
61 99 181
62 99 181
62 99 181
62 99 179
62 99 178
62 99 177
61 98 180
62 99 180
61 98 181
63 100 181
62 99 181
63 100 179
61 98 179
62 99 180
61 99 180
62 99 179
62 99 181
62 99 181
62 99 179
61 99 178
62 99 179
62 99 176
62 99 177
61 98 175
62 99 177
62 99 179
61 98 179
62 99 176
62 99 174
62 99 178
62 99 177
61 98 176
62 99 175
61 98 174
62 99 175
62 98 173
62 98 172
61 96 170
61 97 169
71 97 151
104 112 117
124 122 79
121 120 76
126 124 79
125 123 77
105 106 73
116 116 79
114 113 78
123 122 82
121 121 85
120 121 84
128 129 90
118 119 84
114 117 85
133 133 93
133 132 90
129 130 91
144 143 98
140 139 94
140 139 93
137 137 91
157 154 104
157 153 100
151 149 96
156 153 99
155 153 101
161 158 101
165 162 104
165 162 103
168 165 107
167 164 108
165 162 104
169 164 104
173 169 107
167 164 103
172 167 107
172 168 107
174 169 107
173 168 105
172 168 107
173 168 107
174 169 105
172 167 105
171 166 101
174 168 99
173 168 103
173 167 101
174 168 104
173 168 104
169 164 103
171 166 105
172 166 101
174 167 99
170 164 100
163 157 93
163 158 93
162 156 93
169 162 100
169 162 95
164 159 94
161 155 91
166 159 91
162 156 90
161 155 89
160 154 86
158 150 80
151 145 81
154 147 80
151 144 79
150 145 75
150 144 73
141 142 60
149 159 47
161 173 42
164 182 28
169 190 0
173 197 0
173 196 0
173 197 0
172 193 0
173 196 0
172 196 0
173 197 0
172 197 0
173 196 0
174 197 0
172 195 0
176 198 0
173 197 0
173 196 0
173 196 0
172 195 0
171 194 0
175 197 0
172 196 0
173 195 0
173 197 0
174 197 0
175 197 0
173 195 0
174 197 0
172 196 0
172 196 0
172 196 0
173 196 0
176 198 0
172 195 0
174 197 0
173 195 0
172 196 0
174 197 0
172 194 0
173 196 0
175 198 0
175 197 0
173 196 0
173 196 0
174 197 0
174 197 0
174 197 0
174 197 0
174 197 0
174 197 0
174 198 0
172 196 0
173 197 0
174 197 0
174 198 0
174 197 0
175 198 0
173 197 0
173 196 0
175 198 0
173 196 0
174 197 0
175 198 0
176 199 0
173 196 0
173 196 0
174 197 0
173 197 0
175 197 0
175 197 0
175 197 0
171 195 0
174 197 0
175 198 0
175 198 0
175 198 0
175 198 0
174 197 0
174 198 0
174 197 0
174 198 0
174 198 0
175 198 0
177 199 0
175 198 0
172 196 0
174 197 0
175 198 0
174 198 0
174 197 0
174 197 0
174 196 0
173 197 0
175 197 0
174 197 0
173 197 0
174 198 0
175 197 0
174 198 0
173 197 0
175 198 0
173 196 0
174 198 0
175 198 0
175 198 0
175 198 0
174 198 0
173 197 0
174 198 0
175 198 0
175 197 0
174 198 0
175 198 0
174 197 0
173 197 0
173 197 0
174 198 0
174 197 0
175 198 0
174 198 0
175 198 0
174 197 0
173 197 0
173 197 0
175 198 0
175 198 0
175 198 0
176 198 0
174 198 0
174 197 0
175 198 0
173 197 0
174 198 0
173 197 0
174 197 0
172 195 0
174 197 0
173 197 0
173 197 0
174 198 0
174 197 0
174 197 0
175 198 0
173 197 0
173 196 0
174 197 0
175 198 0
175 198 0
172 196 0
174 198 0
173 197 0
174 197 0
174 197 0
174 197 0
173 197 0
173 197 0
172 197 0
172 196 0
175 198 0
175 198 0
174 197 0
174 198 0
174 197 0
175 198 0
173 197 0
172 196 0
174 197 0
173 197 0
173 197 0
173 196 0
173 196 0
173 196 0
173 197 0
172 196 0
175 198 0
175 198 0
173 197 0
174 198 0
175 198 0
172 195 0
173 197 0
174 197 0
172 196 0
174 197 0
171 195 0
175 198 0
173 196 0
175 198 0
174 197 0
171 195 0
174 198 0
175 198 0
173 196 0
174 198 0
174 197 0
172 196 0
173 196 0
174 197 0
172 195 0
172 196 0
175 198 0
173 197 0
172 196 0
175 198 0
174 197 0
175 198 0
173 196 0
174 197 0
172 196 0
172 195 0
174 197 0
173 197 0
172 195 0
172 195 0
173 196 0
174 197 0
174 197 0
171 195 0
173 196 0
172 196 0
172 195 0
174 197 0
173 196 0
172 195 0
173 197 0
173 196 0
172 196 0
174 197 0
171 195 0
172 196 0
173 196 0
174 197 0
170 194 0
171 193 0
172 196 0
172 195 0
174 197 0
174 197 0
171 195 0
171 195 0
173 196 0
172 196 0
172 196 0
172 196 0
173 196 0
172 196 0
171 195 0
173 196 0
171 195 0
173 196 0
170 192 0
173 195 0
172 196 0
170 194 0
170 192 0
172 194 0
170 194 0
170 193 18
161 184 70
105 133 142
62 98 170
61 98 167
63 99 176
61 98 172
61 99 176
62 99 177
62 99 176
62 99 174
62 99 177
62 99 180
62 99 181
62 99 178
62 99 180
62 99 176
62 99 181
63 99 179
62 99 181
62 99 180
62 99 180
62 99 179
62 99 179
62 99 181
61 99 180
62 99 181
62 99 180
61 98 178
61 98 180
62 99 181
61 99 180
62 99 179
62 99 179
61 99 180
62 99 180
62 99 181
61 99 180
62 99 180
62 99 181
62 99 180
61 98 180
62 99 181
61 99 181
62 99 181
62 99 180
63 100 181
62 99 178
62 99 179
62 99 180
62 99 179
62 99 180
62 98 176
61 99 179
62 99 179
61 98 178
62 99 177
61 98 176
62 99 177
62 99 177
61 98 172
62 98 177
62 98 175
62 99 175
62 98 174
62 99 177
62 98 172
62 98 170
62 98 174
61 96 163
81 100 145
107 112 96
112 111 71
113 112 74
113 112 71
106 106 70
106 107 70
112 113 79
112 113 78
118 118 79
119 121 84
112 114 80
127 127 88
129 129 89
127 127 87
130 130 90
131 131 91
138 137 94
137 136 92
145 143 96
149 148 98
147 146 97
148 146 97
158 155 99
156 153 102
157 155 102
156 153 100
162 159 104
163 159 102
162 159 103
167 163 102
169 165 103
167 163 99
168 164 105
171 167 104
169 165 105
171 166 105
172 167 105
170 166 104
170 166 101
173 168 104
174 169 106
174 168 104
173 167 101
167 163 99
176 170 105
171 165 101
171 165 99
174 168 103
169 164 97
170 164 98
169 164 95
174 168 103
168 162 99
169 164 97
169 163 101
166 160 95
169 162 93
170 163 97
166 160 92
163 155 89
162 155 88
159 153 91
157 152 84
151 146 75
158 153 84
152 145 80
156 149 80
148 142 77
145 140 71
142 139 67
139 142 52
151 161 48
160 176 36
167 185 34
169 190 11
172 194 0
171 193 0
174 195 0
173 195 0
175 197 0
173 196 0
174 196 0
174 197 0
171 194 0
172 196 0
171 194 0
174 197 0
174 196 0
172 196 0
174 198 0
174 197 0
173 196 0
173 196 0
174 197 0
174 197 0
173 197 0
174 197 0
173 196 0
174 198 0
174 197 0
175 197 0
174 197 0
174 196 0
174 196 0
173 196 0
174 196 0
175 198 0
173 197 0
172 196 0
174 196 0
173 197 0
177 199 0
175 198 0
172 195 0
174 197 0
174 197 0
174 197 0
176 198 0
173 196 0
174 196 0
174 197 0
174 197 0
175 198 0
172 196 0
174 197 0
175 198 0
173 197 0
173 197 0
174 197 0
173 196 0
175 197 0
176 199 0
174 198 0
175 198 0
174 197 0
174 197 0
173 197 0
175 198 0
173 196 0
175 198 0
174 198 0
175 198 0
175 198 0
175 198 0
173 197 0
176 198 0
173 197 0
175 198 0
174 197 0
174 197 0
176 199 0
174 197 0
175 198 0
175 198 0
175 198 0
174 198 0
173 196 0
175 198 0
175 198 0
174 197 0
175 198 0
174 198 0
175 198 0
175 198 0
175 198 0
175 198 0
174 197 0
174 197 0
175 198 0
173 197 0
176 199 0
175 198 0
176 198 0
174 198 0
175 198 0
174 198 0
174 197 0
174 198 0
174 198 0
175 198 0
174 197 0
173 197 0
175 198 0
174 198 0
175 198 0
175 198 0
175 198 0
174 198 0
173 197 0
175 198 0
175 198 0
174 197 0
174 198 0
173 197 0
173 197 0
175 198 0
175 197 0
173 197 0
175 198 0
174 197 0
175 198 0
175 198 0
175 198 0
173 196 0
174 197 0
174 198 0
173 197 0
174 198 0
174 197 0
173 196 0
175 198 0
174 198 0
174 198 0
174 198 0
174 197 0
172 195 0
174 197 0
174 198 0
174 198 0
173 197 0
174 197 0
173 197 0
175 198 0
175 198 0
173 196 0
174 197 0
175 198 0
173 197 0
175 198 0
173 197 0
174 197 0
174 197 0
171 196 0
173 197 0
174 198 0
173 197 0
171 196 0
174 198 0
171 195 0
173 196 0
173 196 0
175 198 0
173 197 0
174 198 0
174 197 0
174 197 0
176 199 0
174 197 0
173 197 0
175 198 0
174 197 0
175 198 0
172 196 0
173 197 0
174 197 0
174 198 0
172 196 0
174 198 0
172 196 0
172 195 0
174 198 0
175 198 0
174 197 0
174 197 0
175 198 0
173 196 0
175 198 0
173 196 0
171 194 0
173 196 0
172 196 0
169 194 0
173 196 0
173 197 0
174 197 0
171 195 0
174 197 0
175 198 0
172 196 0
174 197 0
172 196 0
175 198 0
172 196 0
174 197 0
174 197 0
171 194 0
173 196 0
173 195 0
173 196 0
174 197 0
173 196 0
173 197 0
171 194 0
173 196 0
173 196 0
173 197 0
173 197 0
173 196 0
172 195 0
173 197 0
173 197 0
173 197 0
171 195 0
170 193 0
173 195 0
171 195 0
175 198 0
172 195 0
172 195 0
171 194 0
172 196 0
171 195 0
173 196 0
170 194 0
169 192 0
171 195 0
174 198 0
170 193 0
170 194 0
169 193 0
170 193 0
174 197 0
170 193 0
172 196 0
173 196 0
169 193 0
171 194 0
170 193 0
173 197 0
167 191 36
122 147 134
62 99 170
62 99 172
62 99 176
62 99 177
62 99 174
62 99 179
62 99 178
62 99 177
62 99 179
62 99 179
62 99 180
63 100 180
62 99 176
62 99 179
62 99 181
62 99 179
61 99 179
62 99 180
61 98 178
62 99 179
62 99 181
62 99 181
62 99 181
62 99 181
61 98 180
62 99 178
62 99 179
62 99 180
62 99 181
61 99 180
62 99 179
62 99 180
62 99 180
62 99 180
61 99 179
62 99 181
62 99 179
62 99 180
62 99 181
62 99 179
62 99 178
62 99 180
61 99 180
62 99 180
61 98 177
62 99 180
62 99 179
61 99 181
62 99 176
62 99 179
62 99 175
62 99 177
62 99 177
62 99 178
63 100 180
61 98 170
62 99 177
62 99 178
62 99 174
62 98 174
62 99 175
61 98 171
62 98 174
62 98 171
61 97 168
62 98 168
61 97 171
61 97 169
63 95 164
87 103 133
105 108 91
94 96 65
116 114 74
101 103 68
100 101 71
100 100 70
109 110 77
103 106 78
112 113 79
110 112 78
111 113 80
109 112 78
130 130 87
136 136 93
125 126 87
128 128 90
143 142 94
147 145 97
148 146 100
151 149 95
152 150 99
151 149 99
152 149 96
151 149 97
162 158 101
164 160 100
164 160 102
165 161 102
164 161 103
166 161 99
171 166 103
173 167 108
170 165 102
174 168 106
170 166 101
171 165 99
174 169 105
171 166 104
175 169 102
174 169 105
179 172 108
174 169 104
176 169 104
171 165 101
176 169 105
173 168 99
169 164 94
176 169 104
173 166 98
171 165 100
171 165 99
172 165 95
168 162 99
172 165 99
169 162 99
163 158 90
168 163 97
164 158 93
155 149 81
159 153 91
163 155 88
149 145 81
162 156 90
151 145 79
154 148 76
144 137 73
140 134 69
145 139 75
152 146 75
148 148 62
158 166 53
153 164 39
165 183 19
169 190 0
172 193 11
170 194 0
171 194 0
174 196 0
175 197 0
176 198 0
175 198 0
174 196 0
175 198 0
173 196 0
175 198 0
174 197 0
173 195 0
173 197 0
172 196 0
173 197 0
173 197 0
171 193 0
173 197 0
174 197 0
174 197 0
174 197 0
174 196 0
173 196 0
173 196 0
173 197 0
173 196 0
173 196 0
173 196 0
175 198 0
172 196 0
174 196 0
174 197 0
173 197 0
175 197 0
174 198 0
174 197 0
173 196 0
175 197 0
175 197 0
175 197 0
173 197 0
175 198 0
176 198 0
174 198 0
174 197 0
173 196 0
173 196 0
173 197 0
171 195 0
175 197 0
174 197 0
174 197 0
175 198 0
173 197 0
175 197 0
175 197 0
172 196 0
175 197 0
174 197 0
173 196 0
174 197 0
176 198 0
174 198 0
173 197 0
172 196 0
174 197 0
176 198 0
173 196 0
174 197 0
172 196 0
174 197 0
174 197 0
175 198 0
173 197 0
175 198 0
174 198 0
172 196 0
175 198 0
175 198 0
175 198 0
175 198 0
174 198 0
175 198 0
175 198 0
173 196 0
175 198 0
173 197 0
174 198 0
175 198 0
174 197 0
174 198 0
175 198 0
176 198 0
174 198 0
174 198 0
174 197 0
175 198 0
175 198 0
175 198 0
174 197 0
175 198 0
174 197 0
174 197 0
174 197 0
175 198 0
175 198 0
174 197 0
174 198 0
175 198 0
174 198 0
176 198 0
176 199 0
173 197 0
175 198 0
176 199 0
175 198 0
175 198 0
176 198 0
175 198 0
174 198 0
175 198 0
173 197 0
174 197 0
172 196 0
174 197 0
175 198 0
173 197 0
176 198 0
173 197 0
175 197 0
175 198 0
173 197 0
174 198 0
174 198 0
175 198 0
173 197 0
174 197 0
171 195 0
174 197 0
175 198 0
174 197 0
172 196 0
174 198 0
174 198 0
174 197 0
175 198 0
173 197 0
174 197 0
174 198 0
174 197 0
173 196 0
175 198 0
173 197 0
173 196 0
174 198 0
174 198 0
175 198 0
175 198 0
174 197 0
174 198 0
174 197 0
174 197 0
174 197 0
174 198 0
174 197 0
171 196 0
173 197 0
174 198 0
173 197 0
173 197 0
173 197 0
173 197 0
172 196 0
172 196 0
172 196 0
173 197 0
175 197 0
173 196 0
175 198 0
172 196 0
172 196 0
175 198 0
175 198 0
172 196 0
174 197 0
174 197 0
173 196 0
174 197 0
172 195 0
172 196 0
176 198 0
172 197 0
171 194 0
175 198 0
171 194 0
170 194 0
171 195 0
173 197 0
173 195 0
173 197 0
173 196 0
172 196 0
173 197 0
172 195 0
171 194 0
172 196 0
172 195 0
174 197 0
172 195 0
173 196 0
172 195 0
173 197 0
174 197 0
173 196 0
173 197 0
169 194 0
173 195 0
169 192 0
173 196 0
172 195 0
173 197 0
172 195 0
176 198 0
175 198 0
170 194 0
171 195 0
173 196 0
173 196 0
175 198 0
172 196 0
173 196 0
173 197 0
175 198 0
175 197 0
174 197 0
171 194 0
173 197 0
173 196 0
172 196 0
173 197 0
171 194 0
172 195 0
173 196 0
170 193 0
173 196 0
172 195 0
170 193 0
171 195 0
172 195 0
172 196 0
173 196 0
169 193 0
169 191 18
139 163 102
70 105 170
61 98 172
61 98 169
62 99 172
62 98 173
62 99 177
62 99 174
61 98 176
62 99 176
62 99 177
62 99 176
62 99 178
62 99 178
62 99 178
62 99 179
62 99 180
61 98 178
62 99 179
62 99 181
61 98 176
61 98 179
63 100 180
62 99 178
61 99 180
62 99 181
62 99 180
63 100 181
62 99 179
62 99 181
62 99 180
61 99 180
62 99 180
62 99 180
62 99 179
62 99 179
61 98 178
62 99 178
62 99 179
61 99 179
61 98 179
62 99 178
62 99 179
62 99 179
61 98 179
62 99 179
61 98 177
62 99 179
62 99 180
62 99 180
62 99 178
62 99 178
62 99 175
62 99 178
61 98 175
62 99 178
62 98 175
62 99 176
62 99 177
62 98 174
62 99 174
61 98 174
62 99 177
61 97 173
62 98 171
61 98 174
62 97 167
61 97 168
63 99 170
61 97 167
61 96 163
70 99 159
98 107 116
97 99 73
101 102 70
104 104 69
94 96 68
101 103 71
110 111 78
99 103 74
102 105 76
121 123 87
116 117 83
110 112 79
120 121 85
131 130 90
126 126 84
121 122 83
128 128 84
143 141 95
141 140 89
146 144 91
141 138 90
150 148 96
155 152 98
145 143 90
160 157 102
160 157 102
163 160 102
167 163 104
157 154 96
171 166 104
165 161 103
167 163 101
176 170 107
166 161 99
172 167 103
168 164 102
173 168 106
174 169 103
175 168 102
175 169 103
176 170 103
174 168 103
175 168 101
173 168 101
173 167 101
176 170 103
169 163 98
172 166 98
174 167 100
172 166 99
175 168 103
167 161 97
171 165 97
164 158 90
172 165 97
166 160 93
168 161 94
164 158 86
162 155 88
160 155 89
157 152 85
157 151 85
157 151 84
143 139 72
148 142 79
146 140 75
148 143 70
144 139 75
138 133 66
156 160 61
152 161 49
156 168 42
162 181 19
168 189 11
174 197 0
174 197 0
173 196 0
172 194 0
171 194 0
171 193 0
174 197 0
173 196 0
174 197 0
173 195 0
174 197 0
171 195 0
173 197 0
174 197 0
173 196 0
171 195 0
173 195 0
173 195 0
172 194 0
174 196 0
173 196 0
173 196 0
175 198 0
174 197 0
172 196 0
173 197 0
174 197 0
175 197 0
173 196 0
171 194 0
174 198 0
174 197 0
172 195 0
173 196 0
173 195 0
174 196 0
176 198 0
174 197 0
171 195 0
174 197 0
173 196 0
172 197 0
174 198 0
172 195 0
175 198 0
175 198 0
172 196 0
172 196 0
174 196 0
173 196 0
174 197 0
175 198 0
172 195 0
173 197 0
173 196 0
175 198 0
173 197 0
174 197 0
174 197 0
172 196 0
173 196 0
175 198 0
174 197 0
174 197 0
174 197 0
174 197 0
173 197 0
173 197 0
174 198 0
171 195 0
174 197 0
175 197 0
175 198 0
175 198 0
174 198 0
173 197 0
175 198 0
174 197 0
175 198 0
173 197 0
174 198 0
173 197 0
175 198 0
174 197 0
173 196 0
176 198 0
173 196 0
173 196 0
176 198 0
173 197 0
174 198 0
173 197 0
174 197 0
174 198 0
174 197 0
176 198 0
173 197 0
174 197 0
174 197 0
174 198 0
177 199 0
172 196 0
173 197 0
175 198 0
175 198 0
174 197 0
174 197 0
174 198 0
173 197 0
174 197 0
175 198 0
174 198 0
175 198 0
173 197 0
175 198 0
175 198 0
175 198 0
173 197 0
174 198 0
173 197 0
174 198 0
175 198 0
172 196 0
173 197 0
174 198 0
174 197 0
173 197 0
175 198 0
172 196 0
171 195 0
173 197 0
174 198 0
173 197 0
174 197 0
173 197 0
174 198 0
174 197 0
172 196 0
175 198 0
173 197 0
174 197 0
172 196 0
174 198 0
174 198 0
175 198 0
174 198 0
174 198 0
173 197 0
174 197 0
173 197 0
175 198 0
175 198 0
174 197 0
174 198 0
174 198 0
174 197 0
175 198 0
172 196 0
174 198 0
174 198 0
175 198 0
175 198 0
174 197 0
174 196 0
172 196 0
176 199 0
174 197 0
171 196 0
174 197 0
173 196 0
172 196 0
172 196 0
175 198 0
175 198 0
174 197 0
173 197 0
173 196 0
174 198 0
174 197 0
174 197 0
174 197 0
174 197 0
174 198 0
171 195 0
170 194 0
174 197 0
173 197 0
174 198 0
175 198 0
173 197 0
173 197 0
171 195 0
172 196 0
169 193 0
175 198 0
173 196 0
174 197 0
173 197 0
173 196 0
170 195 0
170 193 0
173 196 0
172 195 0
174 198 0
168 192 0
171 195 0
176 199 0
175 198 0
172 195 0
173 197 0
174 197 0
171 195 0
173 197 0
173 197 0
172 194 0
174 197 0
172 195 0
173 197 0
174 197 0
173 197 0
172 195 0
172 196 0
171 193 0
173 197 0
173 196 0
173 196 0
174 197 0
170 195 0
173 196 0
172 195 0
172 196 0
172 196 0
173 196 0
172 193 0
173 197 0
169 193 0
170 194 0
174 197 0
171 195 0
172 196 0
171 194 0
171 194 0
172 195 0
174 197 0
173 195 0
173 196 0
172 194 0
172 195 0
173 196 0
170 193 0
173 196 0
172 194 0
174 196 0
152 175 76
92 122 156
61 98 166
61 98 166
63 99 175
62 98 168
63 99 176
63 99 176
62 99 175
62 99 175
62 99 175
62 99 177
62 99 177
62 99 180
62 99 178
62 99 178
61 98 176
62 99 180
62 99 178
62 99 178
62 99 179
62 99 177
62 99 178
62 99 176
62 99 181
62 99 181
62 99 179
62 99 180
62 99 178
62 99 179
63 100 179
62 99 179
61 99 180
62 99 177
63 100 181
62 99 179
62 99 179
63 100 180
62 99 179
62 99 180
62 99 176
62 99 179
61 99 179
62 99 181
62 99 178
62 99 179
62 99 181
61 99 180
62 99 179
62 99 181
63 99 180
62 99 176
62 99 178
62 99 180
61 98 176
61 98 173
61 98 177
62 99 180
62 99 176
61 98 174
62 99 175
62 99 177
61 98 170
62 99 177
62 99 175
62 99 175
62 98 170
61 97 170
61 97 170
62 98 170
61 96 170
62 98 173
59 93 156
68 96 150
86 97 107
110 110 76
109 109 73
105 105 72
98 101 72
91 93 66
102 103 71
106 108 77
99 103 74
115 116 79
118 120 84
121 122 82
122 124 88
122 123 84
115 116 74
133 132 91
140 139 95
133 133 87
140 140 89
149 147 97
144 143 92
155 153 98
152 149 97
153 151 97
155 152 97
161 157 98
166 162 101
163 159 99
164 159 96
167 163 101
165 161 97
167 163 99
171 166 104
168 164 98
169 165 99
173 167 100
172 166 100
174 167 102
174 169 100
175 169 101
174 169 107
173 168 99
173 168 98
171 165 99
171 164 93
171 165 96
170 164 95
172 167 100
170 163 93
172 165 101
167 161 89
173 166 96
171 164 95
162 158 92
165 159 96
160 156 87
155 149 77
165 158 94
153 148 80
165 159 90
160 152 86
157 150 76
152 147 71
154 148 78
144 138 72
144 138 71
145 139 71
141 139 60
151 153 58
150 158 44
156 171 32
163 180 32
170 191 11
173 196 0
172 195 0
172 196 0
173 195 0
171 195 0
173 196 0
172 195 0
173 196 0
173 196 0
174 197 0
174 197 0
173 196 0
173 196 0
174 197 0
172 194 0
175 197 0
174 195 0
171 194 0
173 196 0
174 197 0
177 199 0
172 194 0
173 196 0
172 195 0
175 197 0
173 196 0
173 196 0
171 194 0
174 197 0
173 196 0
172 195 0
174 197 0
173 196 0
173 196 0
174 196 0
175 197 0
174 197 0
174 197 0
174 197 0
175 198 0
172 196 0
173 196 0
173 197 0
173 196 0
174 196 0
174 198 0
175 198 0
174 196 0
176 198 0
172 195 0
173 197 0
175 198 0
175 197 0
174 197 0
173 197 0
173 197 0
174 198 0
175 198 0
175 198 0
173 197 0
173 197 0
174 198 0
175 197 0
175 197 0
174 197 0
176 198 0
176 199 0
171 194 0
175 197 0
174 197 0
173 196 0
171 195 0
172 197 0
174 198 0
175 198 0
173 197 0
173 197 0
173 197 0
175 198 0
174 197 0
175 198 0
174 197 0
172 196 0
176 199 0
173 196 0
175 198 0
173 197 0
173 197 0
173 197 0
174 198 0
174 197 0
175 198 0
175 198 0
174 198 0
174 198 0
173 197 0
173 197 0
173 197 0
175 198 0
174 197 0
174 198 0
173 197 0
174 197 0
173 197 0
175 198 0
173 197 0
175 198 0
175 198 0
174 198 0
174 198 0
174 198 0
174 198 0
174 198 0
174 197 0
173 196 0
174 197 0
174 198 0
174 197 0
176 199 0
175 198 0
174 198 0
174 197 0
174 198 0
175 198 0
175 198 0
174 197 0
173 197 0
174 198 0
172 196 0
173 197 0
174 198 0
173 196 0
174 197 0
173 196 0
173 197 0
174 198 0
174 197 0
172 196 0
174 198 0
174 197 0
175 198 0
174 198 0
175 198 0
173 197 0
174 198 0
173 196 0
173 197 0
175 198 0
173 197 0
173 197 0
174 197 0
172 196 0
173 197 0
173 197 0
173 196 0
172 195 0
174 197 0
174 197 0
176 198 0
173 196 0
171 195 0
172 196 0
175 198 0
175 198 0
174 197 0
174 197 0
172 196 0
176 198 0
174 198 0
174 197 0
175 197 0
175 198 0
174 198 0
175 198 0
174 197 0
172 195 0
173 197 0
173 196 0
173 197 0
173 197 0
173 197 0
173 197 0
174 197 0
172 196 0
174 198 0
174 198 0
175 198 0
172 196 0
173 197 0
175 198 0
171 195 0
171 196 0
171 195 0
174 197 0
174 198 0
174 198 0
173 197 0
174 197 0
175 198 0
174 197 0
171 195 0
172 195 0
174 197 0
175 198 0
173 196 0
173 196 0
173 196 0
172 195 0
172 196 0
172 196 0
174 197 0
173 196 0
173 196 0
173 197 0
172 196 0
172 195 0
174 196 0
172 195 0
171 195 0
172 195 0
173 196 0
173 196 0
172 195 0
172 195 0
172 195 0
173 196 0
173 196 0
170 193 0
173 197 0
169 193 0
173 195 0
168 191 0
173 196 0
171 195 0
172 195 0
171 195 0
171 195 0
172 195 0
171 194 0
172 195 0
174 197 0
172 195 0
171 195 0
171 195 0
174 197 0
171 194 0
171 194 0
170 193 0
172 195 0
170 193 0
174 197 0
172 194 0
162 186 54
114 141 136
62 99 171
61 98 172
62 98 172
61 98 167
62 98 173
62 99 171
62 99 175
62 99 175
62 99 173
62 99 179
62 99 180
62 99 177
62 99 176
62 99 179
62 99 180
62 99 178
62 99 178
62 99 177
62 99 178
62 99 178
62 99 176
62 99 179
62 99 180
62 99 180
63 100 180
62 98 178
62 99 179
62 99 178
62 99 179
62 99 178
62 99 179
62 99 181
61 99 179
62 99 179
62 99 181
62 99 180
62 99 177
62 99 179
62 99 180
62 99 179
62 99 179
62 99 177
62 99 179
62 99 177
62 99 179
63 100 181
62 99 177
62 99 179
62 99 179
62 99 179
62 99 179
62 99 178
62 99 179
63 100 177
62 99 177
62 99 176
62 99 179
62 99 179
62 99 176
61 98 172
62 99 176
63 99 177
63 99 175
62 99 175
62 99 173
62 98 173
62 99 174
62 97 169
62 98 170
61 97 169
60 95 168
61 96 166
61 94 152
72 92 127
81 88 79
80 83 58
78 82 59
91 92 66
91 94 67
87 89 65
88 93 67
100 104 74
109 111 79
97 100 71
117 118 80
117 119 83
128 129 87
131 130 87
128 128 83
137 136 91
147 144 95
135 134 89
143 141 94
153 150 97
149 146 90
148 146 95
158 155 99
155 152 95
156 153 95
161 158 98
159 155 94
161 156 95
172 167 106
166 162 100
167 163 96
172 166 102
170 166 100
173 167 101
173 168 102
166 162 96
175 168 102
174 168 102
172 167 101
176 170 102
173 168 95
175 168 98
172 166 97
171 165 97
172 166 97
174 166 97
170 164 96
170 163 90
170 163 99
164 159 90
166 160 90
168 162 94
167 161 92
166 160 95
167 161 92
165 158 91
169 162 95
158 151 81
153 148 82
162 156 87
155 148 79
149 144 74
144 138 67
151 146 70
139 134 65
145 140 67
144 143 59
141 144 53
154 161 45
159 174 39
164 180 32
169 189 16
175 197 0
171 194 0
170 194 0
173 196 0
172 193 0
171 194 0
173 196 0
171 194 0
173 196 0
172 194 0
175 197 0
172 195 0
173 196 0
173 195 0
173 197 0
174 197 0
174 197 0
174 197 0
171 193 0
174 197 0
174 196 0
172 194 0
173 195 0
174 197 0
171 194 0
174 197 0
174 198 0
173 197 0
173 196 0
174 197 0
175 198 0
174 197 0
172 195 0
172 195 0
176 198 0
172 195 0
174 197 0
173 196 0
175 197 0
173 196 0
171 195 0
173 197 0
173 196 0
174 196 0
174 197 0
174 198 0
173 195 0
174 197 0
174 197 0
175 198 0
175 198 0
173 197 0
174 197 0
173 197 0
174 197 0
173 197 0
174 197 0
175 198 0
173 196 0
175 198 0
172 197 0
174 197 0
174 198 0
175 197 0
173 196 0
174 197 0
174 198 0
174 197 0
174 196 0
173 196 0
172 197 0
173 196 0
172 196 0
175 198 0
173 196 0
172 196 0
176 199 0
175 198 0
175 198 0
175 198 0
175 198 0
173 197 0
173 197 0
175 198 0
174 198 0
175 197 0
175 198 0
173 197 0
174 197 0
175 197 0
175 198 0
174 198 0
174 197 0
174 198 0
173 197 0
175 198 0
174 198 0
174 198 0
173 197 0
174 197 0
173 197 0
175 198 0
175 198 0
173 197 0
172 196 0
175 198 0
174 197 0
175 198 0
173 197 0
175 198 0
174 198 0
175 198 0
175 198 0
174 197 0
175 198 0
174 198 0
175 198 0
172 196 0
175 198 0
173 196 0
173 197 0
175 198 0
173 197 0
174 197 0
173 197 0
175 198 0
174 197 0
176 198 0
174 197 0
173 197 0
173 197 0
172 196 0
173 197 0
176 198 0
175 198 0
174 198 0
173 197 0
172 196 0
173 196 0
174 197 0
173 197 0
174 197 0
174 198 0
174 197 0
177 199 0
172 196 0
175 198 0
174 197 0
174 197 0
176 198 0
173 197 0
175 198 0
171 195 0
174 197 0
173 196 0
173 197 0
174 197 0
173 197 0
175 198 0
174 197 0
173 197 0
173 197 0
176 199 0
172 196 0
173 197 0
172 196 0
175 197 0
172 196 0
174 197 0
174 198 0
175 198 0
172 196 0
174 198 0
173 197 0
175 198 0
174 197 0
173 197 0
174 197 0
174 197 0
174 197 0
172 196 0
175 198 0
174 198 0
175 198 0
173 197 0
171 195 0
173 197 0
173 197 0
175 198 0
174 197 0
173 197 0
173 197 0
174 197 0
171 195 0
173 196 0
171 195 0
173 197 0
173 197 0
173 196 0
173 196 0
174 197 0
174 197 0
173 197 0
172 196 0
172 196 0
172 196 0
172 195 0
174 198 0
171 195 0
174 198 0
171 195 0
173 197 0
172 195 0
171 193 0
173 197 0
174 197 0
174 197 0
172 196 0
174 197 0
170 194 0
172 195 0
172 196 0
170 194 0
171 195 0
171 195 0
171 195 0
170 193 0
173 196 0
172 196 0
171 195 0
173 196 0
170 193 0
167 190 0
171 194 0
171 194 0
168 192 0
173 196 0
174 196 0
171 195 0
172 195 0
173 196 0
170 194 0
169 192 0
169 193 0
171 194 0
171 194 0
170 193 0
169 192 0
171 195 0
171 193 0
172 195 0
171 193 0
137 162 107
69 103 158
62 98 168
62 99 166
62 99 173
62 98 167
63 100 177
62 99 176
62 99 173
61 98 175
63 99 177
62 99 176
63 100 177
62 99 177
62 99 176
63 100 179
63 99 178
62 99 177
62 99 178
62 99 177
62 99 178
62 99 180
62 99 179
62 99 180
62 99 180
62 99 180
62 99 175
62 99 180
62 99 178
62 99 178
62 99 178
62 99 179
62 99 178
62 99 180
61 99 177
62 99 181
62 99 181
61 98 174
62 99 177
62 99 179
62 99 173
62 99 178
62 99 175
62 99 175
61 98 178
62 99 179
62 99 177
63 100 179
62 99 176
62 99 179
62 99 180
62 99 177
62 99 180
63 99 177
62 99 176
62 99 178
62 99 179
62 99 177
62 99 173
61 98 171
62 99 175
63 100 179
62 98 173
62 99 174
61 98 167
61 98 172
62 99 175
62 98 174
61 98 173
62 99 172
62 98 174
61 96 166
61 97 171
59 94 161
61 97 163
62 92 149
71 89 115
80 85 65
80 83 59
86 89 63
82 87 66
94 96 69
98 102 74
104 106 74
94 98 72
101 103 73
115 115 78
123 122 78
112 114 79
127 127 81
130 128 80
140 138 91
141 139 88
136 135 88
143 141 93
143 141 92
153 149 96
154 151 95
150 147 95
156 153 94
156 153 93
165 160 102
161 156 97
163 159 100
163 158 95
170 165 102
168 162 98
172 166 100
168 163 93
169 165 103
170 165 99
169 164 93
171 165 97
172 166 96
174 169 100
171 166 98
175 168 100
175 168 101
174 167 99
175 169 99
172 165 95
169 162 94
165 160 94
167 161 90
162 156 82
168 162 94
170 163 90
164 157 88
168 162 87
161 155 88
163 157 85
167 160 90
164 157 85
164 156 83
169 162 91
151 146 71
150 145 76
158 151 77
156 150 82
146 140 75
135 130 60
145 137 75
134 133 56
149 150 68
151 160 51
159 171 36
167 185 19
169 190 16
173 195 0
172 194 0
172 194 0
172 195 0
175 198 0
172 195 0
173 196 0
173 196 0
173 195 0
173 196 0
173 196 0
174 197 0
173 195 0
174 195 0
174 197 0
174 196 0
173 196 0
173 197 0
172 195 0
172 195 0
172 196 0
172 195 0
173 197 0
173 196 0
172 196 0
173 196 0
174 196 0
173 196 0
172 195 0
175 198 0
174 197 0
174 198 0
173 197 0
174 197 0
172 196 0
172 196 0
173 197 0
171 193 0
174 197 0
171 195 0
172 196 0
175 198 0
172 195 0
172 195 0
173 195 0
173 196 0
174 197 0
174 197 0
172 196 0
175 198 0
173 196 0
173 197 0
172 196 0
174 198 0
173 197 0
172 195 0
175 198 0
175 198 0
174 197 0
174 197 0
174 198 0
175 198 0
175 198 0
174 198 0
173 196 0
173 197 0
174 197 0
173 197 0
176 198 0
173 196 0
176 198 0
174 197 0
173 197 0
174 197 0
173 197 0
173 197 0
175 198 0
172 196 0
173 197 0
174 196 0
173 197 0
175 198 0
174 197 0
172 196 0
174 197 0
173 197 0
176 198 0
175 198 0
173 197 0
177 199 0
176 198 0
176 198 0
175 198 0
174 197 0
174 197 0
175 198 0
174 198 0
174 197 0
176 199 0
174 197 0
175 198 0
173 197 0
173 196 0
174 197 0
175 198 0
175 198 0
174 197 0
174 197 0
174 197 0
172 196 0
175 198 0
175 198 0
175 198 0
175 198 0
174 198 0
173 197 0
173 197 0
174 198 0
176 199 0
174 198 0
173 197 0
174 198 0
174 198 0
175 198 0
174 197 0
174 197 0
174 197 0
174 197 0
174 198 0
174 197 0
172 196 0
173 197 0
173 197 0
172 196 0
174 197 0
175 198 0
174 198 0
173 197 0
175 198 0
174 197 0
173 196 0
174 197 0
176 198 0
176 198 0
174 197 0
174 198 0
174 197 0
174 198 0
173 196 0
173 197 0
174 197 0
174 198 0
172 195 0
174 198 0
173 197 0
176 199 0
174 198 0
174 198 0
170 194 0
173 196 0
171 195 0
174 197 0
175 198 0
173 196 0
173 196 0
173 197 0
174 197 0
174 197 0
175 198 0
174 197 0
176 199 0
176 198 0
173 196 0
172 196 0
171 196 0
172 197 0
175 198 0
173 196 0
173 197 0
173 197 0
176 199 0
174 197 0
173 197 0
173 197 0
173 196 0
171 195 0
173 196 0
173 196 0
174 196 0
172 195 0
175 198 0
174 197 0
171 195 0
174 197 0
171 194 0
173 196 0
173 196 0
174 197 0
174 197 0
172 196 0
173 197 0
172 195 0
173 196 0
173 197 0
174 197 0
174 197 0
173 196 0
171 195 0
172 196 0
174 197 0
173 196 0
174 197 0
173 197 0
169 192 0
175 198 0
173 196 0
175 198 0
170 193 0
174 197 0
174 197 0
173 197 0
172 197 0
173 196 0
171 195 0
173 196 0
170 194 0
172 196 0
172 195 0
173 196 0
172 195 0
174 198 0
170 194 0
172 195 0
171 194 0
173 197 0
174 197 0
168 191 0
172 196 0
170 193 0
169 193 0
173 196 0
171 196 0
171 194 0
172 195 0
174 197 0
169 193 0
171 194 0
172 196 0
169 192 0
171 193 0
173 195 0
159 182 72
109 136 139
61 98 169
61 98 163
63 99 170
63 99 174
62 99 171
62 99 172
62 99 175
61 98 173
62 99 178
61 98 174
62 99 177
62 99 176
63 99 174
61 98 176
62 99 175
62 99 177
61 98 173
63 99 178
61 99 178
62 99 177
63 99 177
61 99 179
62 99 179
62 99 179
61 98 175
62 99 179
62 99 180
62 99 178
62 99 178
61 99 179
62 99 179
62 99 181
62 99 178
62 99 179
62 99 181
62 99 176
62 99 178
62 99 180
62 99 178
61 98 176
62 99 179
62 99 179
62 99 177
62 99 177
62 99 179
62 99 178
62 98 172
61 99 179
62 99 179
62 99 180
62 98 173
62 99 174
62 99 176
63 100 179
61 98 176
62 99 178
61 98 176
62 99 175
62 99 177
62 99 173
62 99 178
63 99 173
62 98 170
63 99 177
62 98 169
62 99 175
61 98 167
62 98 172
60 96 164
61 98 169
62 98 171
61 97 168
61 97 172
60 95 162
62 96 164
65 91 144
81 87 83
61 68 54
77 80 57
81 86 62
84 88 64
90 94 67
100 102 70
104 106 73
101 102 70
99 102 68
114 116 79
123 124 84
126 126 84
119 121 83
130 129 86
122 123 78
141 139 90
148 146 92
144 143 93
144 142 88
147 144 92
149 147 89
155 152 93
162 158 97
164 159 95
161 157 97
164 159 97
162 158 94
169 165 99
167 162 98
173 166 99
174 168 102
165 161 97
169 164 96
173 167 102
166 161 94
170 164 95
170 164 96
172 166 97
173 166 97
173 167 95
174 167 97
175 168 101
174 167 97
170 164 92
167 160 91
169 162 93
172 165 98
173 166 97
173 167 98
172 165 93
172 165 96
169 162 90
167 160 91
166 160 86
158 151 84
158 152 80
161 154 85
159 153 80
157 151 79
154 147 77
148 142 71
142 136 64
145 139 62
136 131 51
139 138 53
153 155 53
146 154 45
153 166 37
163 179 28
167 188 0
172 194 0
172 194 0
172 195 0
173 195 0
172 194 0
170 194 0
175 197 0
173 196 0
171 192 0
172 195 0
173 196 0
172 194 0
172 195 0
172 194 0
173 196 0
173 196 0
173 197 0
173 196 0
174 196 0
171 195 0
173 195 0
173 195 0
173 196 0
174 197 0
172 195 0
176 198 0
173 195 0
172 194 0
174 196 0
172 195 0
173 195 0
175 196 0
174 197 0
173 196 0
174 198 0
175 198 0
171 195 0
173 197 0
175 198 0
174 196 0
173 196 0
175 198 0
174 196 0
173 196 0
173 197 0
176 198 0
175 197 0
175 198 0
174 198 0
174 197 0
171 194 0
175 197 0
174 197 0
173 196 0
174 198 0
174 197 0
175 198 0
173 196 0
174 197 0
173 197 0
174 198 0
173 196 0
176 198 0
173 196 0
174 197 0
174 197 0
173 197 0
175 198 0
173 197 0
173 197 0
174 197 0
173 197 0
174 198 0
174 198 0
174 197 0
172 195 0
173 196 0
174 197 0
173 196 0
172 196 0
173 196 0
173 197 0
174 198 0
174 197 0
175 198 0
173 197 0
172 196 0
175 198 0
174 197 0
175 198 0
174 197 0
173 197 0
175 198 0
175 198 0
174 197 0
173 196 0
175 198 0
174 197 0
176 198 0
173 197 0
175 198 0
172 197 0
175 198 0
176 198 0
174 198 0
173 197 0
172 197 0
175 198 0
175 198 0
174 197 0
176 198 0
175 198 0
175 198 0
175 198 0
173 197 0
174 198 0
174 197 0
173 197 0
176 199 0
173 196 0
175 198 0
173 197 0
173 197 0
175 198 0
173 197 0
175 198 0
174 198 0
175 198 0
175 198 0
173 197 0
173 197 0
175 198 0
174 197 0
176 199 0
174 197 0
173 197 0
174 197 0
174 197 0
175 198 0
173 197 0
175 198 0
174 197 0
173 197 0
173 197 0
174 197 0
173 197 0
172 196 0
175 198 0
176 198 0
173 197 0
174 198 0
174 197 0
173 197 0
173 196 0
174 198 0
171 196 0
175 198 0
172 196 0
173 197 0
175 198 0
175 198 0
174 197 0
174 197 0
173 196 0
172 196 0
174 197 0
174 198 0
174 197 0
176 198 0
173 197 0
175 198 0
173 196 0
172 196 0
173 197 0
173 197 0
172 195 0
175 198 0
174 197 0
173 196 0
174 197 0
173 196 0
172 196 0
177 199 0
174 197 0
174 197 0
174 198 0
172 196 0
172 196 0
170 193 0
171 195 0
171 194 0
172 194 0
173 197 0
174 197 0
172 196 0
170 194 0
173 197 0
172 196 0
174 198 0
172 196 0
173 195 0
175 198 0
176 198 0
171 194 0
173 196 0
173 196 0
173 195 0
174 197 0
173 196 0
171 195 0
173 196 0
172 195 0
173 196 0
174 197 0
174 197 0
171 194 0
171 194 0
169 193 0
172 195 0
171 195 0
172 195 0
170 194 0
173 196 0
171 194 0
172 195 0
173 196 0
171 194 0
173 197 0
172 195 0
173 197 0
165 189 0
174 197 0
171 194 0
170 192 0
170 193 0
174 196 0
170 193 0
171 194 0
171 194 0
173 196 0
171 194 0
175 198 0
172 195 0
171 195 0
171 195 0
171 194 0
169 192 0
170 193 0
173 196 0
170 193 0
171 194 25
130 154 117
70 104 165
62 98 164
63 99 171
63 99 170
61 98 170
62 99 172
62 99 173
62 99 176
62 99 174
62 99 175
63 100 177
62 99 177
62 99 178
63 99 176
62 99 173
62 99 178
62 99 178
62 99 178
62 99 174
63 100 180
63 99 178
63 99 178
62 99 178
61 98 177
62 99 176
62 99 179
63 100 179
62 99 178
62 99 178
62 99 176
62 99 175
62 99 180
63 99 177
61 98 177
62 99 178
62 99 178
62 99 178
62 99 177
62 99 179
62 99 179
62 98 175
62 99 175
62 99 181
61 98 174
62 99 179
62 99 178
62 99 175
62 99 177
62 99 177
63 99 179
62 99 177
62 99 181
62 99 180
62 99 175
62 99 172
62 99 179
62 99 177
62 99 176
62 99 178
62 99 175
63 100 178
61 98 173
62 99 172
63 99 173
62 99 174
62 98 169
62 98 167
62 98 171
62 97 171
62 98 173
62 98 170
61 97 166
61 97 165
62 98 171
60 96 163
61 97 167
59 93 157
67 83 107
77 81 63
75 78 55
80 83 60
85 89 65
94 96 66
82 87 65
91 96 70
105 106 69
108 111 79
116 118 75
111 113 75
127 128 82
120 122 83
130 129 83
122 123 81
135 134 85
138 138 87
143 140 85
147 144 89
151 148 92
154 150 92
151 148 86
157 153 92
154 152 94
162 158 96
164 159 93
165 160 95
162 157 91
169 164 95
165 160 94
166 162 94
166 161 91
168 163 94
171 165 100
171 165 92
173 166 97
170 164 96
171 166 93
172 166 92
169 164 93
171 165 93
170 163 96
172 166 98
170 163 91
168 162 90
172 165 87
169 162 90
170 163 91
166 160 88
169 162 94
163 156 82
168 161 88
167 160 93
163 157 88
163 156 87
156 149 80
152 146 80
162 155 87
151 146 75
154 148 73
149 142 79
145 139 69
143 136 65
141 137 62
143 139 63
148 152 48
151 163 39
163 180 28
166 186 19
172 193 11
173 195 0
170 192 0
169 191 0
173 196 0
172 194 0
170 191 0
171 195 0
173 196 0
169 192 0
172 195 0
174 195 0
173 196 0
171 193 0
171 193 0
171 195 0
173 194 0
170 193 0
171 195 0
173 196 0
171 194 0
175 197 0
173 196 0
173 196 0
174 197 0
173 196 0
172 195 0
172 195 0
174 196 0
175 198 0
174 197 0
173 196 0
173 197 0
174 197 0
173 195 0
174 197 0
173 196 0
174 197 0
173 196 0
172 196 0
173 196 0
173 196 0
174 197 0
173 195 0
172 196 0
173 196 0
175 198 0
173 196 0
175 198 0
174 197 0
173 196 0
175 198 0
174 197 0
173 196 0
174 197 0
173 197 0
174 197 0
175 198 0
173 196 0
173 197 0
172 196 0
174 197 0
173 196 0
174 197 0
173 197 0
176 198 0
174 197 0
175 198 0
174 198 0
174 197 0
174 198 0
172 196 0
175 197 0
175 198 0
174 197 0
172 196 0
174 197 0
173 196 0
173 197 0
172 195 0
175 198 0
173 196 0
174 197 0
175 198 0
176 198 0
175 197 0
173 197 0
176 198 0
174 197 0
175 198 0
173 197 0
174 197 0
175 198 0
172 196 0
173 195 0
174 198 0
172 197 0
174 198 0
176 198 0
173 196 0
176 198 0
174 197 0
176 199 0
173 197 0
174 197 0
174 197 0
172 196 0
174 198 0
174 197 0
174 198 0
174 197 0
175 198 0
173 197 0
173 197 0
173 196 0
175 198 0
173 197 0
175 198 0
176 199 0
174 197 0
173 196 0
175 198 0
173 197 0
173 197 0
175 198 0
175 198 0
174 197 0
174 197 0
174 198 0
174 197 0
174 198 0
174 198 0
172 196 0
173 196 0
174 198 0
174 198 0
174 198 0
174 198 0
173 196 0
172 196 0
173 197 0
175 198 0
174 198 0
173 197 0
174 197 0
174 197 0
175 198 0
173 197 0
173 197 0
174 197 0
174 198 0
176 198 0
173 197 0
173 197 0
175 198 0
174 197 0
172 196 0
175 198 0
171 195 0
173 197 0
172 196 0
173 197 0
173 197 0
174 198 0
175 198 0
173 197 0
174 197 0
172 196 0
175 198 0
173 196 0
170 195 0
174 197 0
172 196 0
173 196 0
173 196 0
174 197 0
172 195 0
171 195 0
174 197 0
173 197 0
173 196 0
174 197 0
172 197 0
174 197 0
175 198 0
174 197 0
172 196 0
173 197 0
174 198 0
170 194 0
175 198 0
174 198 0
170 194 0
173 196 0
175 198 0
172 196 0
177 199 0
171 195 0
175 197 0
173 197 0
174 198 0
172 195 0
174 198 0
174 197 0
175 198 0
172 195 0
172 195 0
173 197 0
176 198 0
172 195 0
172 195 0
171 194 0
173 196 0
171 194 0
173 196 0
171 194 0
172 195 0
172 195 0
169 193 0
172 195 0
173 196 0
173 196 0
172 196 0
171 193 0
171 195 0
173 196 0
173 195 0
172 196 0
172 196 0
172 195 0
172 195 0
171 195 0
171 194 0
174 197 0
172 195 0
167 190 0
172 195 0
170 194 0
172 195 0
170 193 0
171 195 0
171 194 0
173 195 0
171 196 0
171 195 0
172 196 0
172 195 0
172 195 0
172 195 0
172 195 0
170 193 0
162 187 47
89 119 148
62 98 166
61 97 161
62 99 171
62 98 165
62 98 166
61 98 172
62 99 172
62 99 174
62 98 171
62 98 169
62 99 173
62 99 176
62 99 176
62 99 172
62 99 175
62 99 179
62 99 176
62 99 179
62 99 177
62 99 177
62 99 176
61 98 175
63 99 177
62 99 177
62 99 177
62 99 177
62 99 177
62 99 179
62 99 178
62 99 177
62 99 177
62 99 178
62 99 175
62 99 179
62 99 176
62 99 179
63 100 179
62 99 178
62 99 178
63 99 178
62 99 177
62 99 177
61 99 179
62 99 179
61 98 176
62 99 177
62 99 177
63 100 180
62 99 173
62 99 176
62 99 176
62 99 176
62 99 179
63 99 176
61 98 171
62 99 173
62 99 178
62 99 173
62 99 174
62 99 174
63 99 176
63 99 177
62 98 169
63 100 177
62 99 174
62 98 174
61 98 167
62 98 167
62 98 171
62 98 171
62 98 169
61 96 166
62 98 168
62 97 166
61 97 163
61 95 161
61 96 164
65 88 130
67 76 80
63 67 49
79 83 61
75 78 55
90 93 67
92 95 68
93 97 67
96 100 65
97 100 70
112 113 74
112 114 72
119 119 77
135 132 82
136 135 82
136 134 83
145 142 92
144 142 85
149 146 89
143 141 87
149 147 90
151 148 92
156 154 96
153 150 93
162 156 91
160 155 91
160 156 92
161 156 92
161 157 90
154 151 80
167 162 96
163 158 86
176 169 98
165 160 93
171 166 94
172 166 97
174 167 101
169 162 91
173 167 100
169 163 91
171 165 91
166 162 89
172 165 92
163 157 84
174 168 96
173 167 96
167 161 87
168 162 93
165 158 84
165 159 90
169 161 90
163 157 87
167 160 87
163 157 86
158 152 83
161 154 75
150 144 74
158 152 81
155 149 74
148 142 67
147 142 70
146 139 69
145 139 67
137 133 62
143 139 60
151 152 61
147 153 45
154 164 39
159 171 36
160 178 25
169 190 0
171 193 0
172 195 0
173 195 0
173 196 0
173 195 0
174 196 0
172 195 0
173 196 0
172 193 0
174 197 0
173 193 0
173 194 0
173 195 0
172 194 0
173 195 0
172 195 0
171 195 0
173 195 0
172 194 0
173 195 0
173 197 0
175 197 0
173 197 0
175 197 0
172 195 0
173 196 0
172 196 0
174 196 0
174 196 0
172 195 0
172 196 0
174 198 0
172 196 0
173 196 0
172 195 0
173 197 0
172 195 0
173 197 0
172 195 0
174 198 0
172 195 0
173 197 0
174 196 0
170 194 0
173 197 0
175 198 0
174 197 0
175 198 0
172 196 0
173 197 0
173 197 0
171 195 0
174 196 0
175 198 0
174 197 0
173 196 0
173 197 0
174 196 0
175 198 0
175 198 0
174 197 0
173 196 0
174 197 0
174 197 0
173 196 0
174 198 0
175 198 0
173 197 0
175 197 0
174 197 0
174 197 0
176 198 0
175 198 0
174 197 0
174 197 0
174 198 0
174 197 0
175 198 0
174 197 0
175 198 0
174 197 0
174 197 0
175 198 0
175 198 0
174 197 0
174 197 0
173 196 0
174 197 0
173 197 0
175 198 0
174 197 0
173 197 0
175 198 0
174 197 0
173 197 0
175 198 0
174 198 0
174 198 0
175 198 0
175 198 0
173 197 0
174 198 0
174 198 0
172 197 0
173 197 0
174 197 0
173 197 0
175 198 0
174 197 0
175 198 0
174 198 0
175 198 0
173 197 0
174 198 0
175 197 0
173 197 0
174 198 0
173 197 0
174 197 0
174 198 0
174 197 0
175 198 0
172 196 0
174 197 0
175 198 0
173 197 0
173 196 0
175 198 0
175 198 0
173 197 0
174 197 0
172 196 0
174 198 0
174 198 0
175 198 0
173 197 0
173 197 0
175 198 0
172 196 0
174 197 0
175 198 0
174 198 0
173 196 0
173 196 0
173 197 0
174 197 0
175 198 0
171 195 0
175 198 0
173 196 0
174 198 0
173 197 0
173 197 0
175 198 0
173 197 0
174 197 0
175 198 0
173 196 0
173 197 0
175 198 0
173 197 0
172 195 0
172 196 0
173 196 0
174 198 0
175 197 0
173 197 0
173 196 0
175 198 0
172 196 0
172 196 0
174 197 0
173 197 0
174 198 0
173 196 0
172 196 0
173 196 0
173 196 0
175 197 0
175 198 0
173 197 0
172 197 0
171 195 0
171 194 0
173 196 0
173 197 0
172 196 0
172 196 0
171 195 0
173 196 0
173 196 0
173 197 0
175 197 0
175 198 0
174 198 0
174 197 0
172 196 0
173 197 0
172 195 0
171 195 0
172 195 0
174 197 0
171 195 0
173 197 0
174 197 0
174 197 0
171 195 0
172 196 0
170 193 0
173 197 0
172 196 0
170 194 0
172 195 0
171 194 0
173 196 0
170 193 0
172 195 0
173 197 0
170 194 0
172 195 0
169 192 0
174 197 0
174 197 0
171 195 0
169 192 0
172 196 0
171 194 0
170 193 0
174 197 0
174 197 0
173 196 0
173 196 0
171 194 0
171 194 0
171 194 0
169 192 0
170 193 0
169 193 0
173 197 0
174 197 0
173 197 0
168 192 0
172 196 0
174 197 0
171 194 0
171 194 0
170 193 0
170 193 0
172 195 0
170 193 0
134 159 105
68 102 153
63 99 172
62 99 171
62 98 166
62 99 173
62 98 167
62 99 173
63 99 172
62 99 174
62 99 173
62 99 175
62 99 174
62 98 173
62 99 177
62 99 172
61 98 172
62 99 178
62 99 177
62 99 176
62 99 176
63 100 179
63 100 180
62 99 177
62 99 180
62 99 179
62 99 175
62 99 177
62 99 175
62 99 177
63 100 180
62 99 178
62 99 176
62 98 175
62 99 179
62 99 177
62 99 176
62 99 176
62 99 178
62 99 177
62 99 178
63 100 181
62 99 178
62 99 178
62 99 177
62 99 177
62 99 173
62 99 177
62 99 174
62 99 176
62 99 179
63 99 177
62 99 178
63 99 175
62 99 178
62 99 172
63 99 176
61 98 173
62 98 171
62 99 176
63 99 175
62 99 173
62 98 167
63 99 169
62 98 169
62 99 174
61 98 169
62 99 174
62 98 173
62 99 174
62 98 170
62 99 173
62 97 167
62 99 170
61 97 170
60 96 166
62 97 166
62 97 165
60 95 163
62 92 150
76 88 99
64 69 56
66 71 55
70 75 56
73 77 51
65 72 54
77 82 55
93 97 66
101 103 66
103 106 72
104 106 69
107 109 73
110 112 70
124 125 74
130 129 77
128 129 85
138 137 82
140 139 86
146 143 83
151 147 88
152 148 83
153 151 93
160 156 96
163 157 90
161 156 93
161 157 92
166 159 92
169 163 95
161 157 90
167 161 92
162 158 84
167 161 94
171 164 96
169 163 91
171 165 89
169 163 91
165 159 84
168 162 89
166 161 87
171 165 93
169 162 88
170 164 89
170 164 88
168 162 87
169 162 87
165 159 89
168 162 88
167 160 88
166 160 91
163 157 82
163 157 87
164 157 84
166 159 88
154 147 78
158 151 80
162 155 76
162 156 86
159 153 74
158 151 80
145 138 68
147 142 70
146 139 71
152 146 74
135 132 53
145 147 59
153 161 48
157 171 30
160 176 25
165 184 16
169 191 11
172 194 0
172 195 0
173 195 0
173 197 0
172 194 0
170 193 0
171 194 0
172 194 0
172 194 0
173 196 0
173 196 0
171 194 0
172 194 0
174 196 0
171 194 0
171 194 0
173 196 0
172 195 0
174 196 0
171 195 0
172 195 0
174 197 0
170 193 0
175 197 0
172 196 0
173 195 0
172 195 0
173 196 0
174 197 0
172 195 0
173 196 0
173 197 0
172 196 0
172 196 0
169 192 0
175 197 0
175 198 0
174 196 0
174 197 0
174 197 0
173 197 0
174 197 0
174 197 0
172 196 0
173 195 0
173 196 0
175 197 0
175 198 0
174 197 0
174 198 0
174 198 0
174 197 0
175 198 0
173 197 0
174 197 0
174 198 0
174 196 0
174 197 0
174 198 0
174 197 0
172 195 0
173 196 0
174 197 0
175 197 0
174 197 0
175 198 0
173 197 0
175 197 0
173 196 0
173 197 0
176 198 0
173 196 0
174 197 0
171 195 0
173 197 0
173 197 0
175 198 0
173 197 0
174 198 0
174 197 0
174 196 0
174 197 0
174 197 0
174 198 0
173 196 0
173 196 0
174 197 0
175 198 0
175 198 0
175 197 0
175 198 0
174 198 0
174 197 0
173 196 0
175 198 0
174 197 0
175 198 0
174 198 0
175 198 0
174 197 0
175 198 0
172 196 0
173 197 0
175 198 0
174 198 0
174 198 0
173 197 0
173 197 0
173 197 0
174 197 0
175 198 0
174 197 0
174 198 0
175 197 0
172 196 0
173 197 0
173 197 0
175 198 0
173 197 0
174 197 0
173 196 0
174 197 0
175 198 0
174 197 0
175 198 0
174 198 0
172 197 0
174 197 0
176 198 0
175 198 0
172 196 0
174 198 0
174 198 0
174 197 0
173 197 0
173 197 0
173 197 0
172 196 0
174 197 0
174 197 0
175 198 0
174 198 0
174 197 0
176 198 0
174 198 0
175 198 0
175 198 0
174 197 0
173 197 0
176 199 0
174 197 0
174 197 0
173 197 0
173 197 0
171 196 0
173 197 0
173 197 0
175 198 0
173 197 0
173 197 0
176 198 0
173 196 0
173 197 0
173 195 0
173 197 0
173 196 0
174 197 0
174 197 0
170 193 0
174 197 0
173 197 0
174 197 0
174 197 0
171 195 0
173 197 0
172 196 0
172 196 0
174 197 0
171 195 0
174 197 0
174 197 0
174 197 0
172 195 0
169 194 0
174 197 0
172 196 0
174 198 0
171 194 0
173 197 0
173 196 0
174 197 0
173 196 0
172 196 0
171 194 0
170 194 0
172 195 0
174 197 0
175 198 0
172 196 0
173 196 0
174 197 0
173 196 0
173 196 0
173 197 0
172 196 0
171 195 0
174 197 0
173 196 0
175 198 0
172 196 0
173 196 0
173 197 0
172 195 0
172 196 0
174 197 0
174 197 0
170 194 0
171 195 0
172 195 0
172 195 0
173 197 0
170 195 0
173 197 0
168 192 0
171 195 0
171 194 0
174 197 0
170 194 0
169 192 0
171 195 0
170 193 0
172 194 0
171 194 0
168 192 0
171 195 0
174 197 0
167 190 0
170 192 0
171 194 0
168 192 0
170 193 0
169 192 0
169 192 0
166 190 0
170 194 0
170 194 0
170 193 0
170 193 0
172 195 0
163 187 40
100 128 140
62 98 164
63 99 173
62 98 167
61 98 165
63 99 172
62 98 167
61 98 167
63 99 173
62 99 174
63 100 177
63 100 175
63 99 177
63 99 171
62 98 171
62 99 169
62 99 178
62 99 178
62 99 178
62 99 178
62 99 172
62 99 178
62 99 176
62 98 176
63 99 176
62 99 178
62 99 176
62 99 181
61 98 173
62 99 173
63 100 179
63 100 179
62 99 180
62 99 178
62 99 176
62 99 180
62 99 180
63 99 178
62 99 178
62 99 179
62 99 175
62 99 180
62 99 177
62 99 175
63 100 177
62 99 176
62 99 174
62 99 173
62 99 175
62 99 176
61 98 171
62 99 175
62 99 174
62 99 175
62 99 177
62 99 174
63 100 176
62 99 173
62 99 174
61 98 170
61 97 163
62 99 174
62 99 175
62 99 172
63 99 170
62 99 165
62 99 173
62 98 167
61 97 167
62 99 173
61 98 167
62 98 173
62 97 166
61 98 167
62 98 169
62 97 164
60 95 160
62 98 166
60 95 156
60 95 160
57 82 126
63 75 85
71 75 50
69 73 51
65 69 50
82 84 57
85 89 58
97 100 69
87 91 58
108 110 71
110 111 70
102 105 68
120 121 74
111 112 70
133 131 79
129 128 73
140 138 84
135 132 79
136 134 77
141 139 81
147 142 84
160 155 92
152 148 83
153 149 91
153 149 83
160 155 85
160 156 90
164 158 89
160 155 87
166 161 91
164 159 90
168 162 91
171 164 95
168 162 82
168 162 86
166 161 89
168 162 89
165 160 84
167 161 90
164 158 87
172 165 93
162 156 75
166 160 87
169 162 89
171 164 90
170 163 88
164 157 80
170 163 88
165 158 84
161 154 80
167 160 90
157 150 79
164 157 83
161 154 82
153 147 69
157 151 74
157 150 75
158 151 79
156 149 78
155 150 73
152 146 73
154 147 75
136 131 68
149 146 58
152 157 49
147 153 42
149 165 25
165 183 25
168 189 16
172 194 0
171 193 0
173 196 0
172 194 0
171 192 0
172 195 0
172 193 0
172 193 0
172 194 0
172 195 0
173 195 0
173 194 0
171 193 0
172 194 0
172 195 0
171 194 0
173 196 0
171 194 0
174 197 0
172 194 0
173 196 0
173 195 0
172 194 0
171 195 0
172 195 0
172 195 0
173 196 0
172 195 0
171 194 0
175 197 0
173 196 0
174 197 0
173 195 0
174 196 0
175 197 0
172 195 0
173 196 0
172 195 0
174 196 0
175 198 0
172 195 0
172 195 0
174 197 0
173 196 0
172 195 0
176 198 0
173 197 0
173 197 0
175 197 0
174 197 0
172 195 0
173 196 0
175 197 0
174 197 0
173 196 0
174 197 0
175 198 0
173 195 0
175 198 0
174 196 0
174 196 0
173 196 0
174 197 0
172 196 0
175 198 0
174 197 0
174 196 0
173 196 0
175 198 0
174 197 0
175 198 0
175 198 0
173 196 0
175 197 0
173 197 0
175 197 0
172 195 0
174 196 0
172 197 0
174 197 0
174 197 0
173 197 0
173 196 0
174 197 0
175 198 0
174 197 0
174 196 0
176 198 0
174 197 0
175 198 0
175 198 0
175 198 0
174 197 0
175 198 0
173 196 0
175 198 0
174 197 0
173 197 0
175 198 0
174 197 0
174 197 0
175 198 0
175 198 0
173 197 0
176 198 0
173 197 0
175 198 0
175 198 0
174 197 0
176 198 0
174 197 0
173 197 0
174 197 0
176 198 0
175 198 0
175 198 0
177 199 0
174 197 0
176 199 0
172 196 0
175 198 0
174 197 0
172 196 0
175 198 0
173 197 0
173 197 0
174 197 0
173 197 0
174 197 0
175 198 0
173 197 0
174 198 0
172 196 0
173 197 0
174 197 0
175 198 0
174 198 0
173 197 0
175 198 0
176 199 0
175 198 0
173 196 0
174 197 0
174 197 0
174 197 0
174 197 0
172 196 0
172 196 0
175 198 0
174 198 0
174 198 0
172 196 0
176 198 0
174 198 0
175 198 0
173 197 0
174 197 0
174 198 0
174 197 0
173 196 0
173 197 0
174 197 0
173 196 0
172 196 0
174 197 0
174 197 0
173 197 0
173 196 0
174 197 0
174 198 0
173 197 0
174 197 0
173 197 0
175 198 0
170 195 0
173 197 0
171 195 0
173 197 0
174 197 0
173 197 0
172 196 0
173 196 0
171 195 0
172 195 0
174 197 0
172 196 0
172 195 0
175 198 0
175 198 0
170 194 0
171 195 0
173 196 0
173 196 0
172 196 0
174 197 0
174 197 0
173 196 0
174 197 0
172 196 0
173 196 0
174 197 0
171 195 0
171 195 0
174 197 0
172 196 0
174 197 0
173 197 0
173 196 0
174 197 0
172 195 0
174 197 0
170 194 0
169 194 0
170 193 0
172 195 0
170 193 0
172 195 0
174 197 0
171 194 0
173 197 0
172 195 0
173 196 0
170 193 0
172 196 0
173 196 0
170 193 0
172 195 0
172 195 0
174 197 0
171 195 0
170 193 0
168 191 0
171 195 0
168 191 0
169 192 0
171 194 0
171 195 0
170 193 0
167 191 0
170 193 0
169 192 0
171 194 0
173 196 0
171 194 0
167 191 0
172 196 0
172 195 0
167 191 0
170 193 0
172 195 0
151 175 82
77 109 149
62 99 169
63 99 171
62 99 172
62 98 165
61 98 167
62 98 165
63 100 174
62 99 168
62 98 173
62 99 171
61 98 165
62 98 170
62 99 173
63 99 177
63 99 176
61 98 170
63 99 177
62 99 177
61 98 174
62 99 180
63 99 173
62 99 174
62 99 176
62 99 175
62 99 172
62 99 180
62 99 177
62 99 176
62 99 176
63 99 176
62 99 178
63 99 176
62 99 178
62 99 176
62 99 175
62 99 177
63 99 177
63 100 178
62 99 173
63 100 179
62 99 177
62 99 175
62 99 175
62 98 172
61 99 178
62 99 177
61 98 171
63 99 176
62 99 172
62 99 173
62 99 174
62 99 175
62 98 171
62 98 174
63 100 178
63 99 174
62 99 173
61 98 174
62 99 177
61 98 175
62 99 172
62 99 173
63 100 174
62 98 169
61 98 171
61 98 170
62 98 170
61 98 166
63 99 170
62 98 168
62 98 166
61 96 160
62 99 172
62 98 171
62 98 166
61 97 163
60 95 158
62 96 159
61 96 160
58 90 142
64 76 86
62 66 49
54 62 48
78 82 56
78 82 54
73 78 52
82 85 55
90 94 61
89 91 54
103 106 70
115 117 73
109 110 74
116 117 70
117 118 68
141 139 80
131 130 79
139 137 85
137 135 80
141 138 78
145 141 82
150 146 83
157 153 90
157 153 92
157 152 89
157 152 86
160 156 90
159 155 88
160 155 86
169 162 96
166 160 88
167 162 86
165 159 91
168 161 87
163 158 86
167 161 87
169 163 89
165 160 82
169 163 87
168 162 90
170 164 88
170 163 88
168 162 87
166 160 89
169 162 88
162 156 83
165 160 84
167 160 84
168 162 84
159 153 84
158 152 78
158 153 77
162 155 79
164 157 81
148 144 67
154 147 76
152 147 69
163 156 83
155 149 68
144 138 63
149 143 70
150 143 74
133 128 58
135 133 51
149 152 45
152 160 36
158 172 34
158 175 22
168 188 11
170 192 0
172 194 0
173 195 0
171 193 0
172 195 0
174 197 0
170 193 0
172 194 0
171 193 0
172 193 0
173 196 0
171 192 0
173 194 0
171 195 0
173 195 0
172 195 0
173 195 0
174 197 0
172 194 0
172 194 0
175 197 0
173 197 0
174 197 0
173 196 0
174 196 0
173 197 0
170 193 0
173 196 0
173 196 0
173 195 0
174 197 0
173 196 0
172 196 0
172 196 0
174 197 0
172 196 0
172 194 0
171 193 0
174 197 0
171 192 0
173 197 0
176 198 0
173 196 0
175 198 0
172 195 0
174 197 0
174 197 0
174 197 0
175 198 0
174 198 0
176 197 0
173 196 0
173 196 0
173 197 0
173 196 0
173 195 0
173 197 0
174 198 0
174 197 0
174 197 0
175 198 0
174 197 0
174 196 0
174 197 0
173 196 0
174 198 0
171 195 0
174 197 0
172 196 0
174 198 0
173 197 0
174 197 0
174 198 0
172 195 0
177 199 0
174 197 0
175 198 0
174 197 0
175 198 0
174 197 0
176 199 0
174 197 0
173 196 0
174 197 0
174 197 0
173 197 0
175 198 0
173 196 0
172 196 0
173 197 0
172 196 0
173 196 0
175 198 0
173 197 0
175 198 0
174 197 0
173 197 0
174 197 0
174 197 0
172 196 0
174 197 0
175 198 0
173 197 0
176 199 0
175 198 0
174 197 0
174 198 0
175 198 0
174 197 0
173 196 0
174 197 0
173 197 0
174 197 0
172 196 0
174 198 0
174 197 0
173 197 0
174 197 0
173 197 0
175 198 0
175 198 0
174 198 0
173 197 0
174 198 0
175 198 0
174 198 0
173 197 0
175 198 0
174 198 0
174 197 0
173 197 0
173 197 0
175 198 0
172 196 0
174 198 0
170 194 0
174 198 0
174 197 0
175 198 0
171 195 0
174 197 0
174 197 0
174 197 0
173 196 0
174 197 0
174 197 0
174 197 0
175 198 0
174 198 0
175 198 0
174 198 0
173 196 0
173 197 0
172 196 0
175 198 0
173 197 0
174 197 0
173 197 0
175 198 0
174 197 0
175 198 0
173 196 0
174 197 0
172 196 0
170 193 0
173 196 0
172 196 0
174 197 0
174 197 0
173 197 0
173 197 0
174 197 0
173 197 0
173 197 0
173 197 0
172 196 0
174 197 0
173 197 0
173 196 0
177 199 0
175 198 0
174 197 0
173 197 0
173 196 0
171 195 0
174 196 0
173 196 0
171 195 0
173 196 0
173 196 0
172 195 0
172 196 0
172 196 0
171 194 0
175 198 0
175 197 0
173 195 0
171 195 0
173 196 0
176 199 0
172 195 0
172 196 0
169 193 0
173 197 0
172 195 0
174 197 0
173 196 0
173 197 0
171 193 0
172 195 0
172 194 0
171 195 0
173 197 0
173 196 0
169 193 0
171 195 0
172 195 0
173 196 0
174 197 0
171 194 0
174 197 0
170 194 0
171 195 0
172 195 0
171 195 0
172 195 0
169 193 0
170 193 0
172 195 0
172 196 0
171 195 0
169 192 0
170 194 0
171 194 0
172 195 0
172 196 0
167 191 0
171 193 0
170 192 0
170 193 0
168 191 0
168 192 0
170 193 0
169 192 0
172 195 0
170 194 0
168 191 0
167 190 0
170 193 0
169 191 18
132 157 111
63 99 159
62 98 170
63 99 168
62 98 165
62 99 172
62 99 166
62 98 167
63 100 175
63 99 170
62 99 176
62 99 173
62 99 177
62 99 176
62 99 174
62 99 175
62 99 176
62 99 171
63 100 178
61 98 173
62 99 179
62 99 175
62 99 176
62 99 177
63 99 175
63 99 178
62 99 173
63 100 179
62 98 173
62 99 178
62 99 177
63 99 178
62 99 177
61 98 175
63 100 177
62 99 176
63 99 177
62 99 175
62 99 175
62 99 172
62 99 176
62 99 177
62 99 178
62 98 171
62 99 179
62 98 173
62 98 175
63 99 174
62 98 170
61 98 174
62 99 174
62 98 169
62 99 176
63 99 176
62 99 172
62 99 174
62 98 174
63 99 174
62 98 172
62 99 175
62 99 178
61 98 170
62 99 169
62 98 169
63 99 173
63 100 176
61 98 170
61 97 161
63 99 174
63 99 172
63 99 174
62 98 171
62 98 168
61 98 168
62 98 168
61 97 164
61 97 160
62 98 168
62 98 165
61 96 160
60 95 158
59 93 151
53 76 116
52 57 44
56 61 43
66 71 45
70 75 51
72 76 48
87 91 57
96 98 61
105 106 66
101 103 65
101 103 68
101 102 62
134 132 78
126 124 75
122 122 73
131 129 71
134 133 76
144 140 84
140 138 81
145 142 84
150 146 83
152 149 85
147 145 82
153 149 80
165 159 89
158 155 88
165 160 86
161 156 86
166 160 91
166 160 89
167 161 85
169 163 91
172 165 90
169 163 86
169 162 88
164 158 85
176 168 93
169 162 87
166 160 83
169 162 90
170 164 89
162 157 80
170 162 91
171 163 89
160 154 83
168 161 85
164 158 80
169 163 87
159 152 79
157 151 77
161 154 75
164 157 81
157 151 71
154 148 74
164 156 86
151 144 73
152 146 71
154 148 73
154 148 67
139 134 53
152 146 64
148 142 64
139 139 51
153 160 45
150 158 41
163 173 44
163 180 16
168 189 16
170 191 0
172 194 0
172 194 0
171 193 0
171 193 0
173 195 0
171 191 0
170 193 0
174 197 0
173 195 0
171 192 0
173 194 0
171 193 0
174 196 0
170 192 0
174 197 0
170 192 0
174 196 0
172 195 0
172 195 0
171 193 0
174 197 0
173 196 0
173 197 0
173 196 0
172 195 0
173 195 0
173 196 0
172 196 0
172 196 0
172 196 0
173 196 0
173 195 0
175 197 0
174 197 0
173 196 0
172 195 0
176 198 0
174 196 0
173 196 0
172 194 0
173 195 0
173 196 0
174 197 0
173 196 0
173 196 0
175 197 0
175 198 0
174 197 0
172 196 0
175 198 0
174 197 0
172 196 0
173 196 0
173 197 0
173 197 0
172 195 0
171 195 0
173 195 0
174 197 0
173 196 0
172 196 0
175 197 0
171 195 0
175 198 0
176 198 0
174 197 0
175 198 0
173 197 0
175 198 0
174 197 0
173 197 0
174 197 0
174 197 0
173 196 0
175 198 0
173 196 0
175 198 0
175 198 0
174 197 0
174 198 0
173 196 0
172 196 0
175 198 0
175 198 0
174 197 0
174 197 0
174 197 0
174 198 0
174 198 0
175 198 0
175 198 0
174 197 0
173 197 0
174 197 0
175 197 0
175 198 0
174 197 0
173 197 0
174 198 0
175 198 0
175 198 0
173 197 0
175 197 0
175 198 0
173 197 0
174 197 0
175 198 0
174 197 0
175 198 0
174 198 0
174 198 0
174 198 0
174 197 0
174 197 0
173 197 0
176 198 0
172 196 0
174 198 0
176 198 0
173 197 0
174 198 0
174 197 0
173 196 0
173 197 0
174 197 0
176 198 0
175 198 0
174 198 0
173 196 0
175 198 0
174 198 0
173 197 0
175 198 0
172 196 0
174 197 0
174 198 0
175 198 0
172 195 0
173 197 0
171 195 0
173 196 0
173 197 0
174 197 0
174 197 0
174 197 0
173 197 0
172 196 0
174 198 0
173 197 0
173 197 0
173 197 0
175 198 0
172 196 0
173 197 0
175 198 0
174 198 0
173 197 0
174 197 0
174 197 0
174 197 0
174 197 0
173 197 0
174 198 0
172 196 0
173 196 0
171 195 0
172 195 0
172 195 0
174 197 0
173 196 0
171 195 0
172 196 0
173 197 0
172 196 0
174 197 0
173 196 0
172 196 0
171 195 0
172 196 0
174 197 0
174 196 0
173 196 0
171 194 0
172 196 0
170 195 0
174 197 0
174 198 0
171 195 0
171 195 0
174 197 0
175 198 0
173 197 0
172 195 0
173 197 0
174 197 0
173 197 0
174 197 0
166 190 0
174 197 0
173 197 0
172 196 0
174 197 0
173 196 0
172 195 0
172 196 0
173 197 0
170 193 0
172 195 0
172 196 0
170 194 0
169 192 0
171 195 0
172 196 0
170 194 0
171 195 0
171 196 0
172 196 0
171 195 0
172 195 0
172 195 0
173 197 0
170 193 0
172 195 0
171 194 0
170 193 0
174 197 0
173 197 0
172 195 0
173 196 0
171 195 0
171 195 0
171 194 0
172 195 0
168 192 0
171 194 0
169 192 0
170 194 0
173 197 0
169 192 0
170 194 0
171 194 0
173 196 0
168 192 0
170 193 0
169 192 0
172 195 0
165 187 0
169 192 0
157 181 70
107 133 135
62 98 160
62 98 163
62 98 165
63 99 168
62 98 164
62 98 164
63 99 171
63 99 170
62 99 169
62 99 173
62 98 169
62 99 174
62 98 167
63 100 177
62 99 178
62 99 174
62 98 173
62 98 173
63 99 179
62 99 176
62 99 176
62 99 175
62 99 175
62 99 175
63 99 176
62 99 178
62 99 176
62 99 174
62 99 172
62 99 176
62 99 171
62 99 175
62 99 176
62 99 176
62 99 175
62 99 178
63 99 177
62 99 178
62 99 174
62 99 172
62 99 175
63 99 177
63 100 179
62 99 175
63 99 175
62 99 175
62 99 176
61 98 174
63 99 176
63 99 174
61 98 172
62 99 174
62 99 175
63 99 173
62 98 171
62 99 176
62 99 173
62 98 168
62 99 172
62 99 171
62 99 173
63 99 170
62 98 168
63 99 172
63 99 175
61 98 165
62 99 171
62 99 171
62 98 164
62 98 166
62 98 170
61 97 164
62 98 167
61 97 162
62 98 167
61 97 163
62 98 167
62 98 167
61 97 164
59 93 152
59 92 149
56 82 131
54 66 71
63 65 33
69 73 48
68 73 45
83 86 52
73 78 50
85 89 57
97 99 63
101 102 62
107 108 65
117 118 56
122 122 73
125 124 69
114 115 68
123 124 71
131 129 70
136 134 77
144 140 81
141 138 79
146 143 81
147 143 81
151 147 83
149 146 78
159 154 86
164 159 83
165 160 87
156 151 86
158 153 78
167 160 87
166 161 88
165 159 85
164 159 89
161 155 83
167 159 89
167 161 88
167 161 80
164 158 80
166 161 78
163 157 81
164 158 82
165 159 80
170 162 87
174 166 93
168 161 84
163 157 81
166 159 82
165 157 83
152 146 73
166 159 80
157 151 70
155 149 74
156 149 79
152 146 70
157 151 69
151 145 75
145 139 64
155 149 69
147 142 68
140 134 62
145 139 59
148 145 56
137 135 52
149 154 45
158 169 37
165 181 22
163 182 19
170 191 0
171 193 0
174 196 0
170 192 0
172 195 0
171 193 0
170 192 0
172 193 0
170 192 0
167 190 0
171 193 0
173 195 0
172 194 0
167 189 0
173 195 0
174 196 0
173 195 0
173 196 0
171 192 0
170 193 0
172 195 0
173 196 0
170 193 0
170 193 0
174 195 0
172 196 0
173 196 0
172 195 0
174 197 0
172 194 0
173 196 0
174 195 0
173 196 0
173 196 0
173 196 0
173 196 0
174 196 0
173 196 0
173 196 0
173 194 0
172 196 0
173 196 0
173 195 0
172 194 0
172 196 0
174 196 0
173 196 0
172 195 0
174 198 0
174 197 0
172 195 0
172 194 0
173 196 0
173 196 0
174 196 0
172 195 0
173 197 0
173 196 0
173 197 0
172 196 0
173 196 0
173 197 0
174 197 0
174 196 0
174 197 0
173 196 0
173 197 0
173 197 0
174 198 0
175 197 0
173 197 0
174 197 0
175 198 0
172 196 0
175 198 0
172 196 0
174 198 0
174 197 0
174 198 0
175 198 0
174 198 0
174 197 0
174 197 0
174 197 0
174 197 0
174 197 0
174 198 0
175 198 0
174 198 0
173 197 0
173 197 0
174 196 0
175 198 0
175 198 0
173 197 0
172 196 0
175 198 0
175 198 0
173 197 0
176 198 0
174 197 0
174 198 0
176 199 0
174 198 0
174 198 0
174 197 0
173 197 0
175 198 0
175 198 0
174 198 0
172 196 0
175 198 0
173 197 0
174 197 0
173 197 0
174 198 0
173 197 0
175 198 0
174 197 0
175 198 0
173 197 0
173 197 0
173 197 0
173 197 0
175 198 0
173 197 0
175 198 0
175 198 0
173 197 0
172 196 0
174 197 0
175 198 0
173 197 0
174 197 0
175 198 0
173 197 0
174 197 0
173 196 0
172 197 0
174 198 0
174 197 0
174 197 0
173 197 0
175 198 0
173 197 0
175 198 0
174 197 0
171 195 0
174 197 0
174 197 0
173 197 0
174 197 0
173 197 0
173 197 0
172 195 0
173 196 0
174 198 0
173 197 0
173 197 0
172 195 0
175 198 0
172 196 0
173 197 0
171 195 0
172 196 0
173 197 0
174 197 0
171 195 0
172 196 0
175 197 0
172 196 0
173 196 0
174 197 0
173 197 0
172 196 0
173 196 0
173 197 0
174 197 0
174 197 0
174 197 0
172 195 0
174 197 0
171 195 0
174 197 0
171 195 0
171 195 0
175 198 0
174 197 0
171 195 0
173 196 0
173 195 0
174 196 0
171 196 0
171 195 0
173 196 0
173 197 0
174 197 0
171 195 0
172 196 0
172 196 0
173 196 0
172 196 0
172 195 0
174 197 0
172 196 0
174 197 0
174 197 0
174 198 0
171 194 0
170 193 0
173 196 0
171 194 0
171 195 0
175 197 0
171 193 0
173 196 0
168 191 0
170 194 0
171 195 0
171 194 0
170 193 0
172 196 0
173 196 0
171 195 0
172 195 0
169 192 0
169 192 0
171 195 0
168 192 0
174 197 0
172 195 0
168 191 0
172 195 0
169 192 0
173 196 0
172 194 0
168 191 0
172 195 0
170 194 0
167 190 0
168 191 0
170 193 0
170 194 0
168 190 0
171 194 0
168 191 0
167 190 0
168 192 0
167 191 0
166 190 0
148 172 84
67 101 151
62 98 162
62 98 163
61 98 164
62 99 167
62 98 165
62 98 167
61 98 167
62 98 169
62 99 167
62 98 172
62 98 172
62 99 174
62 99 170
63 99 173
62 98 174
61 98 169
62 98 170
62 99 176
61 98 171
62 99 174
62 99 173
62 99 176
62 99 176
62 99 174
61 98 175
63 99 172
62 99 176
62 99 177
62 99 176
62 99 172
62 99 178
62 98 172
62 98 173
63 99 176
61 98 170
62 98 174
61 98 175
62 99 175
62 98 169
61 98 169
63 100 178
62 99 173
63 99 176
62 99 171
62 99 173
62 99 174
63 99 176
63 99 175
62 99 176
62 99 178
62 98 172
63 99 170
62 99 170
62 99 175
62 99 173
62 99 174
63 99 176
62 99 176
62 99 173
62 98 172
62 99 171
62 99 172
63 99 171
63 99 171
63 99 174
62 98 172
63 100 170
62 98 169
62 99 171
61 97 161
62 98 170
62 98 168
62 98 165
62 99 172
60 96 160
62 98 170
61 97 162
61 96 163
60 96 154
60 94 157
59 92 148
58 88 140
54 70 89
63 67 45
55 61 35
70 75 49
77 81 45
90 93 59
85 88 53
88 92 57
79 85 58
112 112 65
112 112 63
106 109 65
113 113 63
122 121 71
124 123 71
124 124 63
140 136 80
135 133 72
149 145 80
142 139 78
144 141 81
148 144 79
147 143 73
150 146 75
151 147 80
153 149 86
154 150 82
168 162 87
167 161 84
168 161 91
170 164 88
163 158 85
168 162 88
167 161 81
168 162 84
164 157 86
168 161 88
165 158 77
166 159 84
169 162 87
166 159 75
167 161 79
165 159 80
162 155 83
161 155 66
155 149 76
160 153 75
155 149 78
163 156 84
161 154 76
157 150 73
157 151 72
153 147 64
153 147 70
152 146 66
143 137 60
137 131 52
138 132 58
144 137 67
135 131 53
146 145 53
141 143 47
149 158 30
160 173 30
161 178 16
164 183 0
171 193 0
170 192 0
173 193 0
170 193 0
172 194 0
170 194 0
173 195 0
169 191 0
171 194 0
173 194 0
172 194 0
169 192 0
171 193 0
171 194 0
172 195 0
171 194 0
172 194 0
171 193 0
172 195 0
171 194 0
174 197 0
174 196 0
171 194 0
169 191 0
174 196 0
173 195 0
172 195 0
172 195 0
175 197 0
169 191 0
174 195 0
174 196 0
172 196 0
173 195 0
174 197 0
173 196 0
174 196 0
174 197 0
172 195 0
174 195 0
176 198 0
177 198 0
172 196 0
173 195 0
173 196 0
171 194 0
173 196 0
173 196 0
173 195 0
172 195 0
173 196 0
173 196 0
176 197 0
173 196 0
173 197 0
175 197 0
172 195 0
174 198 0
174 196 0
174 198 0
174 197 0
172 197 0
173 196 0
175 197 0
174 197 0
173 196 0
174 198 0
172 196 0
175 198 0
172 195 0
173 196 0
175 198 0
174 198 0
173 196 0
174 197 0
174 197 0
174 197 0
173 196 0
174 198 0
173 196 0
175 198 0
173 197 0
173 197 0
172 196 0
172 196 0
173 196 0
174 197 0
174 197 0
173 197 0
172 195 0
174 197 0
173 197 0
176 198 0
174 198 0
174 197 0
176 198 0
174 197 0
173 197 0
174 197 0
175 198 0
174 198 0
173 197 0
173 197 0
173 197 0
173 197 0
176 198 0
173 197 0
173 197 0
175 198 0
174 197 0
175 198 0
173 197 0
174 198 0
175 198 0
173 197 0
174 197 0
174 198 0
176 199 0
173 197 0
173 197 0
175 198 0
173 197 0
173 197 0
174 197 0
174 198 0
174 197 0
172 196 0
173 197 0
173 197 0
172 196 0
174 197 0
173 196 0
175 198 0
175 198 0
171 195 0
174 198 0
172 196 0
173 197 0
173 197 0
175 198 0
172 196 0
174 197 0
173 196 0
174 197 0
170 195 0
173 197 0
173 197 0
174 197 0
174 197 0
175 198 0
175 198 0
174 197 0
172 196 0
175 198 0
174 197 0
172 196 0
174 198 0
175 198 0
173 197 0
173 196 0
174 197 0
175 198 0
172 195 0
174 197 0
175 198 0
175 198 0
174 197 0
175 198 0
172 196 0
175 198 0
172 195 0
172 195 0
173 197 0
173 196 0
172 196 0
172 197 0
175 198 0
173 197 0
173 196 0
172 195 0
174 198 0
173 196 0
173 197 0
174 198 0
173 197 0
173 196 0
174 197 0
172 195 0
173 196 0
173 197 0
172 195 0
172 196 0
172 195 0
173 197 0
174 198 0
173 196 0
170 194 0
171 195 0
173 196 0
171 195 0
174 197 0
168 192 0
173 196 0
172 195 0
174 196 0
174 197 0
171 195 0
171 194 0
173 197 0
172 195 0
170 193 0
172 196 0
171 194 0
172 196 0
174 197 0
169 193 0
171 194 0
171 194 0
172 196 0
172 195 0
172 195 0
168 192 0
171 194 0
169 192 0
171 194 0
173 196 0
170 194 0
170 193 0
173 197 0
171 195 0
168 191 0
172 196 0
170 193 0
173 196 0
170 194 0
171 194 0
170 193 0
169 192 0
166 190 0
170 193 0
170 194 0
169 193 0
171 194 0
169 192 0
172 195 0
168 191 0
168 192 0
169 193 0
170 193 0
165 187 18
126 151 114
61 97 154
62 98 160
63 99 164
62 98 165
62 98 171
62 99 170
62 99 168
62 98 168
61 98 168
62 98 167
62 98 168
62 99 170
62 98 173
62 99 169
63 100 177
61 98 167
62 99 172
62 99 173
62 99 175
62 98 170
62 99 174
62 99 177
63 99 174
62 99 178
62 99 176
62 99 176
62 99 177
62 99 173
62 99 169
62 99 174
62 99 173
62 99 176
62 99 174
62 99 176
63 99 176
63 99 174
62 98 172
62 99 176
62 99 178
62 98 170
61 98 173
62 98 169
62 99 171
62 99 174
62 99 178
62 98 168
62 99 169
62 99 175
62 98 172
62 99 175
62 99 174
62 99 173
62 99 175
62 99 175
62 99 167
62 99 170
62 98 168
63 99 169
62 98 173
62 98 168
62 99 173
62 99 168
62 98 168
63 99 170
62 98 168
62 98 171
61 98 165
61 98 164
63 100 173
61 97 164
62 98 166
63 99 168
61 98 166
62 98 167
62 98 163
62 98 165
60 96 159
62 98 166
61 96 154
61 97 161
61 96 163
61 95 154
59 93 147
59 78 108
47 56 46
47 52 31
72 74 49
68 72 41
80 83 46
91 94 52
91 93 56
97 98 59
93 96 59
107 107 57
121 120 65
126 124 75
128 126 71
130 129 70
140 137 77
126 125 64
138 135 79
148 143 77
147 143 78
139 136 74
142 139 78
155 150 84
149 145 76
142 140 70
154 150 73
159 154 77
163 157 78
163 158 81
155 150 79
160 153 86
163 157 80
164 158 85
165 159 81
167 161 80
162 155 77
168 161 80
164 158 81
168 161 86
164 158 77
162 157 77
164 157 76
163 158 78
156 150 74
160 153 76
164 157 78
164 159 76
158 152 75
159 152 71
152 146 72
161 154 75
150 145 62
155 148 68
153 147 67
146 139 64
151 144 68
144 138 65
156 149 73
138 133 59
126 123 49
146 146 54
141 146 36
154 163 44
159 174 34
162 177 16
172 192 22
169 190 0
171 193 0
168 191 0
173 195 0
172 195 0
171 191 0
168 191 0
168 191 0
171 191 0
172 194 0
171 193 0
173 195 0
171 193 0
171 194 0
171 193 0
172 194 0
171 193 0
174 196 0
173 195 0
172 195 0
173 195 0
172 195 0
172 195 0
174 197 0
172 194 0
169 192 0
173 196 0
173 195 0
173 196 0
173 195 0
172 195 0
171 194 0
174 196 0
173 195 0
173 196 0
174 196 0
172 195 0
175 196 0
174 197 0
174 197 0
174 198 0
173 195 0
172 194 0
173 197 0
172 195 0
172 194 0
171 195 0
173 196 0
173 195 0
175 196 0
173 196 0
173 196 0
172 194 0
173 197 0
172 194 0
173 196 0
173 197 0
173 196 0
175 198 0
173 196 0
173 196 0
174 197 0
173 196 0
173 196 0
175 197 0
173 197 0
175 197 0
175 198 0
174 197 0
175 198 0
175 197 0
173 196 0
170 193 0
174 198 0
174 197 0
175 198 0
174 197 0
174 197 0
175 198 0
174 197 0
175 198 0
174 198 0
175 198 0
174 198 0
174 198 0
173 197 0
177 199 0
173 196 0
174 197 0
173 196 0
175 198 0
174 197 0
173 196 0
174 198 0
174 197 0
173 196 0
175 198 0
173 197 0
173 197 0
174 197 0
174 197 0
174 197 0
173 197 0
174 198 0
175 198 0
173 197 0
174 197 0
173 196 0
174 198 0
173 197 0
173 197 0
172 196 0
175 198 0
175 198 0
173 197 0
175 198 0
174 197 0
173 197 0
173 197 0
173 197 0
174 197 0
173 197 0
173 197 0
173 197 0
174 197 0
174 198 0
175 198 0
174 197 0
174 197 0
174 197 0
173 197 0
174 198 0
173 196 0
175 198 0
173 197 0
173 197 0
174 197 0
173 197 0
173 197 0
175 198 0
174 198 0
173 197 0
174 198 0
175 198 0
173 197 0
176 198 0
174 198 0
175 198 0
175 198 0
175 198 0
172 196 0
173 197 0
173 196 0
173 196 0
172 196 0
171 195 0
173 197 0
172 196 0
175 198 0
171 195 0
170 195 0
173 197 0
173 197 0
175 198 0
173 197 0
172 196 0
172 196 0
174 197 0
173 197 0
172 196 0
172 196 0
172 195 0
171 195 0
172 196 0
175 198 0
173 197 0
174 198 0
174 198 0
170 195 0
173 196 0
172 196 0
172 196 0
173 196 0
171 196 0
172 195 0
170 193 0
172 195 0
174 197 0
173 197 0
171 194 0
173 196 0
173 196 0
170 193 0
173 196 0
175 198 0
174 197 0
172 195 0
174 197 0
174 197 0
173 197 0
171 195 0
171 195 0
172 196 0
171 194 0
172 197 0
172 195 0
173 196 0
173 196 0
168 192 0
170 193 0
175 198 0
173 197 0
172 196 0
170 193 0
171 195 0
175 198 0
172 195 0
173 197 0
174 197 0
173 196 0
172 195 0
171 194 0
171 194 0
171 194 0
172 196 0
170 194 0
172 196 0
170 193 0
167 190 0
171 194 0
170 193 0
170 194 0
170 193 0
171 193 0
169 193 0
170 193 0
170 195 0
170 193 0
170 193 0
168 191 0
171 195 0
169 192 0
170 194 0
169 191 0
169 192 0
172 194 0
170 192 0
169 192 0
168 191 0
166 190 40
114 140 114
62 99 164
61 98 170
63 99 168
62 98 162
62 98 161
62 99 172
62 98 165
62 98 166
62 98 165
62 99 167
62 99 174
61 98 170
62 98 171
62 98 169
62 99 175
62 99 173
62 99 174
62 99 173
62 99 175
62 98 170
62 98 172
62 98 171
62 99 177
62 99 178
61 98 170
62 99 175
62 99 175
62 99 172
62 99 174
62 99 174
62 99 176
62 99 175
63 100 178
62 99 174
61 98 172
62 99 176
62 99 173
62 99 177
63 99 175
62 99 172
61 98 169
62 98 173
61 98 173
62 99 174
62 99 173
61 98 171
62 99 176
63 99 172
62 99 171
61 98 171
62 99 174
63 99 170
61 98 165
62 99 173
61 98 165
62 99 174
63 99 174
62 99 173
62 99 176
63 99 169
61 98 165
62 99 171
62 99 171
61 98 168
62 98 168
61 98 163
63 99 170
62 98 167
61 97 164
63 99 167
62 99 171
61 98 164
61 97 162
63 99 168
62 99 174
62 99 169
62 99 170
62 97 159
61 97 163
61 96 161
60 94 154
62 97 161
61 95 153
55 81 123
60 70 63
51 56 35
69 74 44
73 77 45
65 70 41
78 81 45
100 101 56
99 100 57
109 110 58
101 102 57
114 114 63
123 120 58
120 120 62
140 136 69
143 139 75
133 132 66
136 133 63
146 143 74
147 144 77
146 142 73
152 148 76
151 148 75
155 150 77
152 148 72
160 154 80
154 149 75
158 152 79
161 155 81
166 160 79
160 155 79
154 149 76
163 157 76
163 157 76
164 157 75
165 158 78
164 159 81
169 162 87
157 151 71
163 157 74
165 158 79
161 155 80
165 159 77
157 152 70
155 148 66
158 152 73
158 152 75
159 153 75
156 150 73
154 148 69
156 149 68
145 140 60
148 143 67
150 145 68
147 141 65
140 135 54
146 139 66
140 135 45
148 142 61
149 147 54
139 141 45
143 151 37
156 169 36
159 175 28
165 183 25
169 189 11
171 193 0
169 191 0
171 192 0
173 195 0
171 191 0
172 194 0
167 188 0
170 192 0
172 194 0
172 193 0
170 192 0
171 192 0
171 194 0
172 193 0
171 193 0
172 194 0
170 191 0
173 196 0
171 194 0
173 196 0
172 195 0
173 196 0
173 195 0
173 197 0
174 197 0
174 196 0
173 195 0
171 194 0
173 195 0
171 194 0
175 198 0
172 195 0
172 195 0
173 195 0
172 195 0
174 196 0
174 197 0
173 197 0
171 195 0
174 195 0
173 196 0
173 196 0
174 197 0
175 197 0
176 197 0
173 197 0
174 196 0
175 198 0
171 193 0
173 196 0
172 194 0
174 197 0
172 195 0
174 197 0
172 194 0
174 197 0
173 197 0
174 197 0
173 196 0
174 197 0
172 196 0
172 195 0
173 197 0
175 198 0
173 196 0
174 197 0
173 196 0
174 197 0
174 196 0
174 197 0
175 198 0
175 197 0
172 195 0
174 197 0
172 196 0
174 197 0
173 197 0
174 197 0
173 197 0
173 196 0
174 197 0
174 197 0
173 197 0
174 197 0
173 197 0
174 197 0
175 198 0
175 198 0
176 199 0
173 197 0
174 198 0
174 197 0
173 196 0
176 198 0
174 197 0
174 198 0
175 198 0
174 197 0
171 195 0
174 198 0
174 197 0
174 197 0
172 196 0
174 198 0
175 197 0
174 198 0
173 197 0
173 197 0
174 197 0
172 196 0
177 199 0
173 197 0
174 197 0
175 197 0
175 197 0
175 198 0
174 197 0
175 198 0
175 198 0
175 198 0
174 198 0
171 195 0
175 198 0
173 197 0
174 197 0
173 197 0
175 198 0
174 198 0
172 195 0
174 197 0
173 197 0
174 198 0
174 197 0
174 197 0
174 198 0
175 198 0
173 197 0
175 198 0
173 197 0
173 197 0
173 197 0
173 197 0
175 198 0
173 197 0
173 197 0
173 196 0
173 197 0
175 198 0
171 195 0
175 198 0
174 197 0
173 197 0
172 195 0
173 197 0
173 196 0
172 196 0
173 197 0
172 196 0
173 196 0
174 197 0
174 198 0
174 197 0
174 198 0
171 194 0
173 196 0
171 195 0
173 197 0
175 198 0
173 196 0
171 195 0
173 196 0
174 197 0
173 197 0
172 196 0
171 195 0
172 196 0
173 196 0
171 195 0
172 196 0
176 199 0
171 195 0
172 195 0
173 197 0
173 197 0
171 195 0
172 196 0
173 196 0
176 198 0
170 194 0
172 196 0
172 196 0
173 196 0
171 194 0
172 195 0
172 196 0
175 198 0
171 195 0
175 197 0
172 196 0
173 196 0
173 197 0
168 192 0
173 196 0
174 197 0
173 196 0
172 195 0
171 195 0
171 194 0
169 193 0
174 197 0
172 196 0
171 194 0
173 197 0
167 190 0
172 195 0
171 194 0
170 194 0
169 192 0
170 193 0
171 194 0
171 194 0
172 196 0
171 195 0
172 195 0
171 195 0
171 194 0
171 194 0
171 193 0
171 195 0
172 195 0
169 192 0
166 188 0
171 195 0
172 196 0
169 191 0
168 191 0
169 193 0
168 191 0
172 195 0
169 192 0
170 193 0
169 193 0
169 192 0
171 194 0
169 192 0
170 193 0
169 192 0
171 194 0
170 194 0
158 182 62
80 111 147
62 98 156
62 98 163
61 97 162
62 99 167
62 98 166
61 97 162
61 97 158
62 98 167
62 98 167
61 98 165
62 99 172
62 98 173
63 99 171
62 98 170
62 98 166
63 99 173
62 99 174
62 99 170
63 99 175
62 99 174
62 98 173
62 99 174
62 99 168
62 99 173
63 99 175
62 98 175
61 98 173
62 99 173
62 99 172
61 98 170
62 98 172
62 99 177
63 99 174
62 98 171
62 99 174
63 99 173
62 99 175
62 99 175
62 99 172
62 99 171
62 99 173
63 99 172
62 99 172
62 99 174
61 98 169
62 99 175
62 99 176
62 98 170
62 99 172
62 99 172
62 99 173
63 99 177
62 99 169
62 99 167
62 99 175
63 99 174
62 99 172
62 98 172
62 98 169
62 98 168
62 98 169
62 98 166
63 99 171
62 98 168
62 99 173
61 98 162
62 99 172
61 98 166
62 98 167
61 98 166
62 98 170
62 98 163
63 99 166
63 99 169
61 97 157
61 97 158
62 97 162
62 97 163
61 97 159
60 95 150
59 94 152
61 95 147
60 94 151
57 89 142
50 66 85
63 67 32
63 67 37
82 84 50
71 76 40
89 90 42
82 85 49
93 94 55
94 97 59
104 105 61
109 111 61
115 114 66
123 122 67
115 115 60
130 129 65
128 126 65
125 124 61
131 128 68
144 140 75
142 139 77
144 139 75
147 144 73
146 142 77
161 155 83
154 149 74
155 149 79
154 149 70
157 150 77
157 151 74
159 154 80
160 154 76
161 155 78
166 159 80
161 155 80
162 156 73
161 155 75
157 151 66
166 158 83
165 158 79
168 161 83
164 157 80
159 153 75
159 153 67
158 152 70
153 148 70
156 150 67
162 155 75
161 155 75
160 154 70
147 141 59
150 144 63
152 145 66
144 139 58
148 142 58
144 139 57
142 136 56
133 128 54
143 139 56
137 136 41
144 149 41
152 161 34
152 165 25
163 178 25
167 186 11
170 191 11
170 191 0
168 190 0
170 190 0
171 193 0
172 193 0
170 193 0
171 194 0
173 194 0
174 197 0
172 193 0
171 193 0
174 196 0
174 195 0
172 195 0
171 192 0
171 194 0
169 192 0
171 192 0
173 194 0
169 190 0
172 194 0
171 193 0
171 194 0
174 196 0
172 194 0
172 196 0
173 195 0
174 197 0
173 195 0
172 194 0
172 195 0
172 194 0
172 196 0
173 196 0
172 194 0
174 197 0
174 197 0
175 197 0
174 197 0
173 196 0
172 194 0
173 195 0
174 196 0
174 198 0
174 197 0
174 197 0
174 196 0
173 196 0
175 198 0
173 197 0
173 196 0
174 196 0
173 197 0
176 198 0
173 196 0
173 197 0
176 198 0
173 196 0
173 196 0
174 197 0
173 194 0
174 197 0
173 196 0
174 197 0
173 197 0
173 196 0
173 196 0
173 196 0
174 197 0
175 198 0
172 195 0
173 196 0
175 198 0
173 196 0
176 198 0
175 198 0
174 197 0
173 196 0
172 196 0
175 198 0
173 197 0
174 197 0
174 197 0
174 197 0
173 196 0
173 196 0
175 198 0
174 197 0
175 198 0
174 197 0
175 198 0
174 197 0
174 197 0
173 196 0
173 197 0
173 195 0
175 198 0
175 198 0
174 198 0
175 198 0
174 197 0
176 199 0
174 198 0
174 197 0
172 196 0
176 199 0
175 198 0
173 197 0
174 197 0
176 198 0
176 199 0
174 198 0
175 198 0
176 199 0
174 198 0
172 196 0
175 198 0
174 198 0
171 196 0
175 198 0
175 198 0
171 195 0
175 198 0
172 196 0
174 197 0
175 198 0
175 198 0
175 198 0
175 198 0
174 197 0
173 197 0
174 198 0
174 197 0
173 197 0
176 198 0
174 198 0
174 197 0
173 197 0
174 197 0
173 197 0
174 198 0
175 197 0
172 196 0
173 197 0
174 198 0
174 198 0
173 197 0
173 197 0
174 197 0
172 196 0
174 198 0
173 196 0
172 196 0
172 196 0
172 195 0
174 197 0
173 197 0
172 196 0
175 198 0
174 197 0
174 196 0
171 195 0
170 195 0
176 199 0
171 195 0
171 195 0
172 195 0
174 197 0
173 196 0
173 196 0
174 197 0
171 195 0
172 196 0
175 198 0
174 196 0
172 196 0
174 198 0
173 196 0
171 195 0
173 197 0
171 195 0
175 198 0
172 195 0
171 195 0
173 196 0
171 194 0
174 197 0
174 197 0
174 197 0
175 198 0
172 196 0
171 195 0
173 196 0
170 194 0
172 195 0
172 195 0
168 192 0
171 195 0
173 197 0
171 195 0
172 195 0
170 193 0
170 194 0
171 195 0
173 197 0
171 195 0
173 197 0
172 195 0
174 197 0
171 194 0
171 195 0
170 193 0
170 193 0
172 196 0
173 196 0
171 195 0
170 193 0
171 194 0
170 194 0
174 197 0
172 195 0
172 196 0
168 190 0
171 194 0
171 194 0
169 193 0
172 195 0
171 194 0
173 196 0
168 192 0
170 194 0
173 196 0
170 193 0
166 190 0
171 193 0
171 194 0
171 194 0
170 193 0
171 194 0
167 190 0
167 190 0
167 190 0
173 197 0
166 189 0
172 194 0
170 193 0
168 191 0
169 191 0
169 192 0
141 166 86
73 106 151
61 97 161
61 97 158
62 98 163
62 98 168
62 98 165
62 98 164
62 98 172
62 98 169
62 98 163
62 98 170
62 99 168
62 99 170
62 99 168
62 98 166
63 99 173
61 98 167
62 98 169
61 98 171
61 98 169
62 99 170
62 99 174
61 98 163
62 99 172
62 98 171
62 98 169
63 99 172
63 99 178
63 100 173
63 99 176
62 99 177
62 99 174
62 99 171
62 99 174
62 99 175
62 98 173
62 99 170
62 99 172
62 98 168
62 99 171
62 98 170
62 99 172
62 99 174
62 99 176
61 98 170
62 99 173
62 99 169
63 100 174
62 99 173
63 99 177
62 99 176
62 98 169
62 99 173
61 98 170
62 99 170
62 99 171
62 99 174
62 99 174
62 99 171
62 99 172
62 98 168
62 98 164
62 99 175
62 98 166
61 97 164
61 98 167
62 98 166
62 98 165
61 98 168
62 98 169
62 98 163
62 99 167
62 99 169
63 99 168
62 98 165
61 97 158
61 98 166
62 97 162
62 98 165
61 96 155
62 98 163
61 97 155
60 95 155
59 93 156
61 95 153
56 77 99
63 67 30
51 60 36
72 74 31
86 88 41
89 92 49
93 95 42
109 109 62
98 100 49
99 101 54
111 112 55
116 116 62
122 121 61
122 121 63
126 123 64
133 131 67
138 136 67
136 134 67
137 134 65
140 136 71
154 149 73
149 144 71
148 144 76
158 152 77
150 146 69
161 156 78
155 151 71
152 147 71
154 149 76
158 153 77
156 150 72
166 159 81
160 155 78
163 157 74
161 155 73
161 155 77
158 153 74
162 156 77
162 155 74
161 155 75
159 153 62
162 156 75
151 145 63
160 152 82
157 150 72
160 154 71
163 157 73
151 145 64
143 138 58
152 145 63
146 141 52
151 145 71
141 135 58
140 136 52
140 133 63
136 130 58
135 130 58
138 137 52
133 137 37
151 155 48
151 165 28
154 167 28
166 185 11
171 190 0
167 188 0
168 189 0
170 191 0
170 191 0
169 190 0
172 193 0
170 191 0
170 191 0
168 190 0
173 195 0
169 192 0
172 195 0
171 193 0
172 194 0
173 195 0
171 194 0
170 190 0
173 195 0
172 195 0
172 194 0
173 196 0
169 191 0
172 194 0
171 194 0
173 195 0
171 193 0
171 193 0
173 196 0
171 193 0
173 195 0
173 196 0
173 196 0
171 194 0
172 195 0
171 195 0
173 195 0
174 197 0
172 195 0
173 196 0
174 196 0
171 195 0
174 196 0
174 196 0
176 199 0
173 196 0
173 196 0
174 196 0
173 196 0
173 197 0
171 195 0
172 196 0
174 197 0
172 196 0
173 196 0
173 196 0
173 196 0
175 198 0
173 196 0
173 197 0
172 196 0
173 195 0
171 194 0
172 195 0
173 197 0
174 196 0
173 196 0
174 197 0
172 195 0
175 198 0
175 198 0
174 197 0
175 198 0
174 198 0
174 198 0
176 198 0
173 197 0
173 197 0
174 197 0
173 196 0
175 198 0
175 198 0
172 196 0
173 196 0
173 197 0
174 198 0
175 198 0
175 198 0
173 196 0
172 196 0
174 198 0
174 198 0
173 197 0
173 197 0
175 198 0
176 198 0
174 197 0
175 198 0
174 197 0
176 199 0
174 197 0
174 197 0
172 196 0
174 197 0
174 197 0
175 198 0
175 198 0
174 198 0
173 197 0
173 196 0
173 197 0
175 198 0
175 198 0
173 197 0
173 197 0
175 198 0
175 198 0
173 197 0
175 198 0
176 199 0
173 197 0
174 197 0
174 197 0
173 197 0
173 197 0
175 198 0
172 196 0
174 197 0
176 199 0
173 197 0
172 196 0
175 198 0
174 197 0
172 197 0
173 197 0
173 196 0
174 198 0
173 197 0
174 198 0
172 196 0
173 196 0
174 197 0
172 196 0
176 198 0
172 195 0
174 198 0
174 197 0
173 196 0
173 197 0
174 197 0
175 198 0
174 198 0
173 196 0
174 197 0
174 198 0
171 194 0
175 198 0
172 196 0
175 197 0
174 197 0
171 195 0
171 195 0
172 195 0
173 197 0
175 198 0
175 198 0
174 197 0
173 197 0
173 196 0
173 197 0
170 195 0
174 197 0
171 195 0
170 194 0
172 195 0
174 197 0
172 196 0
172 196 0
173 196 0
173 197 0
174 197 0
172 196 0
173 197 0
173 196 0
174 197 0
174 197 0
172 196 0
175 198 0
172 195 0
174 197 0
172 196 0
172 196 0
172 196 0
167 190 0
173 197 0
173 196 0
172 195 0
170 193 0
171 195 0
171 195 0
172 195 0
171 194 0
172 196 0
171 195 0
172 195 0
170 194 0
172 195 0
171 194 0
170 194 0
173 196 0
172 195 0
172 196 0
171 194 0
171 194 0
172 195 0
171 194 0
172 195 0
172 196 0
172 195 0
166 190 0
172 196 0
173 196 0
171 196 0
173 196 0
171 194 0
170 195 0
171 195 0
169 192 0
170 193 0
172 195 0
169 192 0
171 195 0
169 192 0
169 191 0
171 194 0
168 192 0
169 192 0
171 194 0
169 192 0
170 194 0
167 189 0
169 192 0
167 189 0
172 195 0
168 191 0
166 190 0
166 189 0
171 194 0
165 188 0
168 190 0
167 190 18
132 156 88
61 96 148
62 97 150
62 98 165
63 99 163
62 98 164
63 99 170
62 99 167
62 98 165
62 98 164
62 99 168
62 99 170
62 98 169
62 98 165
62 98 169
61 97 163
62 98 167
61 98 166
62 99 171
62 99 172
62 98 171
62 98 171
62 99 174
62 98 168
63 99 173
63 99 175
61 98 172
62 98 175
62 98 166
63 99 175
63 100 175
62 99 171
61 98 171
62 98 173
62 99 173
62 99 176
61 98 173
62 99 170
62 99 172
61 98 166
62 98 172
62 98 170
62 99 173
62 99 175
63 99 173
62 98 170
62 98 170
62 99 172
63 100 180
62 99 173
61 98 169
62 99 170
62 99 170
62 98 171
63 99 173
61 98 170
62 99 167
63 99 169
63 99 176
62 98 167
63 99 169
63 99 171
61 98 169
62 98 169
62 99 165
63 99 167
62 98 166
63 99 172
63 99 172
61 98 161
62 99 167
62 99 169
62 98 166
62 98 167
61 97 158
61 97 165
62 99 172
62 97 162
61 97 159
62 99 169
61 96 156
60 95 157
62 97 164
61 96 159
61 96 157
60 93 144
51 71 95
60 65 37
57 62 32
69 73 29
79 80 34
81 84 42
81 84 41
78 83 44
99 98 49
107 108 51
107 107 55
110 109 57
110 109 55
120 118 57
127 126 63
124 122 61
127 125 64
127 126 64
132 130 61
140 136 69
145 141 69
141 138 69
147 142 71
155 151 73
145 141 72
146 142 70
160 154 76
153 148 65
159 153 69
157 152 71
158 152 74
155 149 70
153 148 65
163 156 76
161 156 73
160 155 67
155 149 66
160 153 70
158 151 77
158 153 64
167 160 79
152 146 70
163 156 75
156 152 62
155 149 63
154 148 71
160 154 72
156 150 67
146 141 58
147 141 65
142 137 60
150 145 59
137 133 54
136 130 48
140 136 57
140 135 52
135 130 49
147 148 44
145 149 37
150 161 34
153 165 34
161 177 25
163 180 16
167 187 0
172 192 0
170 191 0
171 192 0
170 191 0
173 194 0
171 192 0
171 191 0
172 194 0
174 195 0
169 191 0
171 192 0
172 193 0
168 189 0
172 192 0
173 195 0
173 195 0
173 195 0
172 195 0
171 193 0
172 195 0
172 195 0
171 194 0
173 196 0
171 194 0
172 194 0
171 195 0
173 194 0
172 195 0
171 193 0
174 196 0
169 192 0
172 195 0
171 193 0
173 195 0
174 196 0
173 196 0
172 195 0
172 195 0
171 194 0
172 196 0
172 194 0
172 195 0
173 197 0
173 194 0
173 195 0
173 197 0
171 195 0
174 197 0
175 197 0
172 196 0
173 196 0
173 196 0
173 197 0
174 197 0
173 197 0
173 197 0
172 195 0
173 196 0
172 195 0
175 197 0
173 195 0
174 197 0
175 198 0
174 197 0
174 197 0
172 196 0
175 198 0
174 197 0
174 197 0
173 197 0
174 198 0
174 197 0
175 197 0
174 198 0
174 198 0
174 197 0
173 197 0
174 197 0
174 197 0
175 198 0
174 197 0
174 197 0
172 196 0
175 198 0
173 197 0
174 197 0
173 197 0
174 197 0
173 196 0
174 198 0
175 198 0
175 197 0
173 197 0
175 198 0
173 196 0
174 196 0
175 198 0
174 197 0
174 198 0
175 198 0
174 197 0
172 197 0
175 198 0
174 197 0
172 196 0
173 196 0
173 196 0
175 198 0
172 197 0
175 198 0
174 197 0
175 198 0
174 197 0
175 198 0
172 197 0
175 198 0
175 198 0
175 198 0
174 197 0
176 199 0
175 198 0
172 196 0
175 198 0
174 198 0
172 196 0
173 196 0
174 198 0
173 197 0
174 197 0
174 197 0
174 197 0
173 197 0
173 196 0
175 198 0
172 196 0
173 196 0
175 198 0
173 197 0
175 198 0
173 197 0
174 198 0
175 198 0
175 198 0
174 197 0
175 198 0
173 196 0
171 195 0
173 196 0
173 197 0
171 195 0
175 198 0
172 195 0
173 197 0
173 197 0
175 198 0
174 197 0
173 197 0
175 198 0
175 197 0
174 197 0
173 197 0
174 197 0
175 198 0
173 197 0
171 194 0
171 194 0
175 198 0
175 197 0
173 197 0
171 195 0
171 195 0
172 195 0
173 196 0
174 197 0
175 198 0
171 194 0
175 198 0
173 196 0
173 196 0
170 193 0
173 197 0
174 197 0
173 196 0
171 194 0
173 197 0
173 197 0
175 197 0
172 196 0
172 196 0
174 197 0
173 197 0
171 194 0
174 198 0
174 197 0
174 197 0
172 196 0
173 196 0
172 196 0
173 196 0
173 196 0
174 197 0
170 193 0
172 195 0
175 198 0
170 194 0
173 196 0
172 195 0
172 195 0
169 192 0
171 194 0
170 193 0
173 197 0
171 194 0
170 194 0
172 195 0
171 195 0
173 196 0
171 195 0
172 195 0
170 194 0
172 195 0
171 194 0
170 193 0
170 194 0
169 193 0
168 191 0
171 194 0
165 189 25
171 195 0
168 191 0
169 193 0
175 198 0
171 194 0
171 194 0
174 196 0
169 194 25
165 188 25
163 186 0
170 193 0
165 188 0
168 190 0
169 193 0
170 193 0
173 196 0
168 191 0
166 189 0
171 195 0
168 192 0
168 191 0
169 192 25
123 148 109
60 96 142
62 98 162
62 99 166
62 97 157
62 98 164
63 99 165
61 97 161
61 98 166
62 99 170
62 98 164
62 98 169
62 99 171
61 97 164
62 99 171
62 99 174
62 98 170
62 98 170
62 98 166
61 98 164
62 98 171
62 99 175
62 99 176
62 99 177
61 97 170
62 98 166
62 99 172
62 98 171
62 98 168
62 98 175
63 99 177
62 98 172
62 98 168
62 99 176
61 98 170
62 99 175
62 98 169
62 99 174
62 98 164
62 99 171
62 98 166
62 99 172
63 99 171
62 98 171
61 98 171
62 99 171
62 98 166
62 99 172
61 98 169
61 98 170
62 98 166
62 99 170
62 98 168
62 99 174
62 98 164
62 98 169
62 98 165
62 99 173
63 99 171
61 98 169
62 99 168
62 98 167
62 99 168
62 99 166
62 99 166
62 99 173
63 99 171
62 99 169
62 99 167
63 99 171
62 98 158
62 98 164
62 98 165
63 99 167
61 96 158
62 98 161
62 97 158
62 98 165
62 97 157
62 97 160
62 98 157
61 96 150
62 98 163
60 95 151
59 94 149
59 93 150
62 83 109
66 72 44
68 71 26
73 75 24
82 83 36
78 80 40
78 81 45
83 84 34
92 93 37
94 95 43
120 119 54
106 107 44
119 118 60
133 129 59
126 124 55
127 124 65
130 127 54
139 135 68
138 134 62
143 138 65
141 137 66
146 142 64
150 145 68
139 136 65
146 142 65
148 143 67
147 142 66
156 151 69
155 151 61
156 151 69
159 153 71
152 147 61
155 149 70
159 153 73
155 149 70
164 157 75
159 152 74
157 152 65
157 150 66
153 147 64
160 153 69
156 149 73
158 151 70
156 151 64
158 152 68
153 148 65
156 149 65
152 146 66
156 149 67
149 144 62
147 142 59
147 142 57
143 137 59
141 135 53
137 131 54
127 123 39
134 131 41
149 151 44
150 158 36
148 158 11
160 174 22
161 177 22
165 184 11
171 189 0
170 191 0
172 192 0
169 189 0
170 190 0
170 191 0
173 194 0
170 191 0
170 191 0
169 190 0
168 188 0
168 188 0
171 191 0
167 188 0
172 194 0
172 194 0
171 194 0
170 191 0
173 195 0
174 196 0
174 197 0
172 194 0
171 194 0
175 197 0
174 195 0
170 193 0
172 194 0
172 195 0
172 194 0
173 195 0
171 194 0
175 197 0
172 194 0
172 194 0
172 194 0
173 196 0
172 195 0
173 194 0
174 198 0
173 195 0
173 196 0
173 195 0
173 196 0
171 194 0
172 195 0
173 196 0
172 196 0
173 197 0
174 197 0
173 196 0
174 197 0
173 195 0
174 197 0
174 196 0
172 196 0
172 196 0
175 198 0
173 196 0
173 195 0
171 193 0
172 195 0
172 195 0
172 195 0
174 197 0
170 193 0
172 196 0
173 197 0
176 199 0
173 197 0
177 199 0
172 196 0
175 197 0
173 197 0
174 197 0
174 197 0
173 196 0
175 198 0
174 198 0
174 197 0
175 198 0
172 195 0
175 198 0
172 196 0
175 198 0
173 196 0
174 197 0
175 197 0
173 196 0
175 198 0
174 197 0
173 196 0
174 198 0
174 198 0
173 197 0
175 198 0
174 197 0
172 196 0
174 197 0
173 196 0
171 195 0
173 197 0
174 197 0
174 197 0
173 196 0
173 196 0
175 198 0
173 196 0
173 197 0
174 198 0
175 198 0
172 196 0
174 197 0
175 198 0
174 197 0
173 197 0
174 197 0
175 198 0
175 198 0
173 197 0
174 197 0
172 196 0
173 197 0
174 198 0
173 196 0
175 198 0
173 197 0
174 197 0
172 196 0
173 197 0
174 198 0
172 195 0
175 198 0
173 197 0
174 197 0
174 198 0
174 197 0
173 197 0
173 196 0
174 197 0
172 196 0
171 195 0
174 198 0
173 196 0
175 198 0
174 197 0
175 198 0
173 197 0
174 198 0
172 196 0
176 198 0
175 198 0
173 197 0
173 196 0
172 196 0
173 197 0
175 198 0
174 198 0
170 194 0
170 194 0
169 194 0
173 197 0
174 197 0
172 195 0
173 196 0
175 198 0
172 195 0
170 194 0
175 198 0
173 196 0
173 196 0
173 197 0
174 198 0
173 196 0
173 197 0
171 195 0
174 197 0
173 197 0
173 197 0
173 196 0
172 195 0
174 197 0
174 198 0
173 196 0
171 195 0
171 194 0
173 197 0
171 194 0
174 197 0
171 195 0
171 195 0
171 194 0
172 195 0
173 197 0
172 196 0
174 197 0
169 192 0
170 195 0
173 196 0
172 196 0
175 198 0
173 195 0
174 197 0
171 195 0
169 192 0
174 197 0
174 197 0
170 194 0
173 197 0
172 195 0
167 191 0
170 193 0
171 195 0
172 195 0
171 194 0
172 194 0
173 196 0
174 197 0
170 193 0
170 194 0
173 197 36
169 192 0
171 194 25
171 195 36
169 191 25
168 191 0
169 193 44
167 191 36
174 197 51
170 194 36
170 193 44
168 191 44
172 195 44
167 190 36
168 192 0
166 188 0
167 190 36
172 196 36
169 192 0
170 192 0
168 191 0
167 190 0
169 192 0
167 190 0
168 192 0
168 191 0
171 194 0
166 189 0
170 192 0
169 192 0
166 189 0
167 190 31
106 134 129
62 98 155
61 97 157
62 98 165
63 99 164
60 96 153
62 99 170
61 97 161
62 98 168
61 97 156
61 98 169
61 98 170
61 98 164
60 96 160
62 98 168
61 97 158
61 98 167
61 97 163
61 98 168
62 99 173
63 99 172
62 99 171
62 98 165
62 98 168
63 99 173
62 98 171
62 98 171
61 98 171
62 98 167
61 97 164
63 99 169
62 99 174
62 99 173
62 99 173
62 99 175
62 99 174
62 99 175
61 98 174
62 99 169
62 99 174
62 99 171
61 98 171
62 98 171
62 99 174
62 99 170
62 98 168
61 98 169
62 99 171
61 97 161
62 98 169
62 99 173
63 100 173
62 98 161
61 98 169
62 99 169
62 98 165
63 100 172
63 99 175
62 99 169
62 98 163
62 99 167
62 99 172
61 98 167
63 99 171
62 99 173
61 98 164
63 99 167
62 99 167
61 98 168
61 98 166
61 97 161
62 97 159
63 99 166
61 98 158
61 98 162
62 98 161
62 99 164
61 97 160
63 98 166
61 97 158
62 97 159
60 95 150
62 97 160
61 95 149
61 96 154
59 93 148
60 82 109
70 75 42
81 82 25
87 86 32
76 79 37
83 84 30
79 79 28
88 89 45
99 99 42
115 115 49
101 102 46
118 116 48
111 110 46
117 114 49
123 120 60
123 121 52
128 126 53
127 124 47
136 134 63
142 138 63
149 144 67
139 134 61
141 137 64
140 136 60
151 145 69
148 144 63
147 142 68
151 146 68
154 148 63
156 150 71
157 152 71
159 153 72
157 152 68
160 154 74
158 152 73
155 149 67
150 145 59
159 153 71
157 150 67
156 150 63
146 141 52
156 149 60
155 149 66
159 153 66
155 150 67
150 144 54
148 143 64
153 147 66
151 144 64
148 142 61
146 140 58
148 141 58
153 147 60
136 132 52
129 124 48
140 136 51
140 139 41
151 154 48
149 157 37
150 163 36
157 172 16
166 185 11
167 185 11
170 191 0
166 185 0
168 187 0
169 190 0
171 191 0
167 187 0
166 187 0
170 191 0
168 189 0
168 190 0
173 194 0
173 193 0
170 192 0
173 194 0
173 196 0
170 192 0
171 193 0
172 194 0
172 195 0
171 194 0
171 193 0
171 191 0
170 192 0
171 193 0
171 192 0
172 193 0
172 194 0
173 195 0
173 196 0
173 196 0
175 197 0
174 196 0
172 195 0
172 194 0
172 195 0
172 194 0
174 196 0
172 193 0
174 195 0
172 196 0
172 194 0
173 196 0
172 195 0
172 196 0
173 196 0
171 194 0
172 195 0
172 196 0
173 195 0
172 195 0
174 196 0
174 196 0
173 196 0
173 195 0
173 197 0
172 196 0
173 196 0
173 197 0
174 197 0
175 197 0
173 196 0
173 196 0
175 197 0
173 197 0
173 197 0
173 196 0
174 197 0
173 196 0
173 196 0
172 197 0
173 195 0
173 197 0
171 195 0
173 197 0
175 198 0
173 196 0
174 198 0
173 197 0
175 196 0
172 196 0
174 197 0
174 197 0
173 196 0
175 197 0
175 197 0
173 197 0
173 195 0
175 197 0
174 197 0
172 196 0
174 197 0
171 196 0
173 196 0
173 197 0
173 197 0
174 198 0
174 198 0
175 197 0
175 198 0
172 196 0
176 198 0
172 196 0
172 196 0
175 198 0
174 197 0
173 197 0
175 198 0
173 197 0
174 197 0
175 198 0
174 198 0
174 197 0
174 197 0
172 196 0
174 197 0
175 198 0
174 197 0
174 197 0
175 198 0
173 196 0
173 197 0
173 197 0
175 198 0
175 198 0
173 197 0
175 198 0
172 196 0
175 198 0
173 196 0
172 196 0
172 197 0
174 197 0
174 197 0
170 194 0
174 197 0
174 197 0
171 195 0
174 197 0
174 198 0
172 195 0
174 197 0
175 198 0
174 198 0
174 198 0
172 195 0
172 196 0
173 196 0
174 197 0
173 197 0
172 196 0
173 197 0
174 197 0
172 196 0
174 197 0
175 198 0
174 197 0
174 197 0
176 199 0
174 197 0
173 196 0
172 196 0
173 197 0
172 196 0
173 196 0
173 197 0
174 197 0
174 198 0
172 195 0
173 196 0
174 197 0
173 197 0
173 196 0
174 196 0
170 194 0
172 196 0
174 198 0
173 196 0
173 197 0
175 198 0
174 197 0
172 195 0
173 197 0
174 197 0
172 196 0
172 195 0
175 198 0
171 195 0
171 195 0
173 196 0
173 196 0
174 197 0
171 196 0
170 194 0
171 195 0
174 197 0
175 198 0
172 196 0
173 197 0
174 197 0
174 197 0
171 195 0
172 196 0
171 195 0
174 197 0
172 195 0
169 193 0
172 196 0
175 198 0
173 197 0
170 194 0
173 195 0
169 193 0
170 194 0
170 193 0
172 195 44
167 191 0
168 191 25
172 195 36
171 194 25
171 195 25
174 197 44
169 191 25
172 195 25
173 196 36
170 193 25
177 199 76
173 197 36
176 198 57
170 193 51
170 193 51
171 193 25
171 194 36
171 193 36
174 196 44
171 194 51
169 191 36
172 195 44
170 194 44
167 190 36
169 192 0
171 193 44
167 190 0
166 190 25
170 193 44
170 192 25
166 190 0
168 191 0
168 191 0
166 189 0
167 191 0
156 180 51
106 132 120
62 98 159
60 96 150
61 97 157
62 98 159
61 97 159
62 99 164
61 97 163
63 99 170
62 98 160
62 99 166
61 98 163
62 98 168
62 98 169
62 98 169
62 98 167
62 98 168
62 98 174
62 99 166
62 99 172
61 98 167
62 99 169
62 98 165
62 98 172
61 98 166
61 98 170
63 99 172
61 98 172
62 99 176
62 99 176
62 98 171
61 98 172
62 98 168
62 98 170
63 99 174
62 99 172
62 99 172
61 98 168
62 99 171
62 98 169
62 99 172
62 98 173
62 98 167
62 99 172
62 98 166
62 98 170
61 98 165
62 98 170
61 98 161
62 98 170
61 97 163
62 99 175
62 99 166
62 99 169
62 99 172
61 98 169
62 99 169
61 97 160
62 98 168
62 99 167
62 99 169
62 99 172
62 99 165
62 98 166
62 98 165
62 98 158
62 98 163
62 98 165
63 99 171
63 99 167
61 97 160
62 98 167
62 98 159
62 97 157
61 97 163
61 97 155
62 99 169
62 99 166
62 98 162
61 97 153
62 98 162
61 96 154
61 97 158
60 95 155
60 94 143
59 93 144
61 87 121
68 74 49
71 73 24
61 65 23
75 76 29
82 84 38
92 92 37
85 86 36
92 92 37
106 104 40
110 109 49
111 111 47
116 114 51
105 106 47
116 114 52
124 121 51
127 124 58
133 130 57
139 135 55
141 137 58
144 140 71
137 134 62
149 144 63
137 134 53
144 139 62
144 140 56
152 147 73
152 147 67
146 141 59
145 140 60
150 145 58
155 149 68
151 145 60
156 151 61
157 151 65
153 147 59
157 150 67
153 147 67
151 145 62
161 153 71
157 152 63
158 151 69
150 145 60
151 145 54
156 149 59
153 147 63
152 146 63
149 142 58
154 148 67
143 136 58
144 137 58
141 136 54
142 135 54
131 126 47
134 128 49
138 136 42
138 140 36
136 142 28
154 163 34
158 172 30
166 184 11
171 188 19
166 186 0
167 186 0
168 189 0
168 187 0
168 188 0
170 192 0
170 190 0
167 189 0
167 188 0
171 192 0
168 189 0
173 193 0
171 192 0
168 191 0
171 191 0
172 192 0
173 194 0
172 193 0
171 193 0
170 193 0
171 194 0
174 194 0
174 196 0
171 195 0
173 195 0
172 193 0
169 192 0
171 193 0
171 194 0
173 195 0
171 192 0
171 194 0
172 195 0
172 194 0
173 196 0
170 193 0
170 194 0
172 195 0
172 194 0
172 195 0
171 194 0
173 196 0
172 195 0
174 196 0
173 195 0
174 197 0
173 196 0
173 196 0
174 196 0
176 198 0
173 195 0
174 197 0
172 195 0
174 197 0
172 196 0
173 196 0
173 197 0
173 197 0
177 198 0
173 196 0
172 196 0
174 197 0
174 197 0
175 197 0
174 197 0
173 196 0
174 197 0
173 197 0
175 198 0
173 196 0
173 196 0
174 198 0
172 195 0
173 197 0
173 197 0
173 196 0
174 197 0
174 197 0
173 196 0
174 197 0
174 197 0
173 197 0
171 195 0
174 197 0
173 196 0
173 196 0
175 198 0
172 195 0
174 197 0
174 196 0
175 198 0
170 194 0
173 196 0
173 197 0
172 196 0
175 198 0
175 197 0
175 198 0
173 196 0
176 199 0
173 196 0
175 198 0
174 198 0
172 195 0
173 196 0
175 197 0
174 198 0
176 197 0
174 198 0
175 198 0
172 196 0
174 198 0
173 197 0
173 197 0
173 197 0
175 198 0
174 197 0
174 198 0
175 198 0
175 198 0
173 196 0
174 198 0
173 197 0
173 197 0
172 196 0
173 197 0
174 198 0
173 197 0
174 198 0
174 198 0
173 197 0
173 197 0
172 196 0
173 197 0
174 196 0
174 197 0
174 198 0
173 196 0
172 196 0
172 196 0
175 198 0
174 197 0
175 198 0
172 195 0
175 198 0
173 197 0
173 197 0
171 195 0
173 196 0
172 196 0
171 195 0
174 197 0
174 198 0
174 198 0
173 196 0
173 196 0
174 197 0
175 198 0
173 196 0
175 198 0
173 197 0
172 196 0
171 194 0
172 196 0
172 195 0
171 196 0
173 196 0
174 198 0
173 197 0
172 196 0
173 197 0
172 196 0
174 198 0
173 197 0
173 196 0
175 197 0
170 194 0
173 195 0
171 195 0
172 195 0
175 198 0
170 194 0
173 196 0
170 194 0
173 196 0
172 196 0
172 195 0
171 195 0
173 197 0
174 197 0
174 197 0
174 198 0
170 193 0
174 198 0
172 196 0
173 197 0
170 193 0
172 196 0
174 197 0
174 197 0
173 196 0
171 194 0
173 196 0
171 194 0
173 196 0
176 198 0
170 194 0
173 196 0
169 193 0
175 198 0
174 197 0
170 194 0
167 191 0
171 195 25
173 196 36
174 197 25
172 194 44
172 195 36
172 195 57
174 196 57
172 195 44
174 196 57
172 195 51
176 199 51
174 196 51
173 195 36
170 193 44
170 193 72
175 198 67
171 194 44
173 195 57
172 195 36
173 195 72
175 197 57
176 197 76
170 194 25
176 198 76
174 196 57
168 191 62
173 196 36
174 196 76
168 191 36
170 192 44
172 195 44
173 196 25
166 188 36
165 189 0
165 189 36
169 192 0
165 188 0
168 191 0
151 175 65
80 110 143
61 97 156
60 96 149
62 98 157
61 98 163
61 96 155
62 98 162
62 98 166
61 98 161
61 97 165
61 97 163
61 97 157
62 99 167
62 98 167
62 99 173
62 98 163
62 99 174
61 98 164
62 99 170
61 98 165
61 97 166
62 98 162
62 98 165
62 99 172
62 98 172
61 97 163
62 99 174
61 98 167
61 97 165
62 98 171
61 98 170
62 98 167
62 98 170
63 99 172
62 98 171
62 99 169
63 99 174
62 99 170
61 98 169
62 99 169
62 98 167
62 99 171
62 98 171
62 98 169
62 98 169
62 99 170
62 99 169
62 98 169
62 99 169
62 99 171
62 98 170
63 99 170
62 98 165
62 99 170
61 97 162
62 98 167
62 98 168
62 99 171
62 98 166
61 97 162
62 98 164
62 98 161
62 98 164
62 98 167
62 98 162
62 99 165
62 98 163
61 97 159
62 99 165
62 98 163
62 98 160
61 97 154
63 99 166
62 98 164
62 97 163
61 98 163
62 98 160
61 97 161
61 97 158
62 97 156
61 97 156
60 95 149
61 96 151
61 96 155
59 93 145
61 95 150
67 90 115
58 67 68
61 64 22
73 75 20
85 86 35
77 78 32
81 84 37
96 98 39
105 104 45
91 91 32
103 102 46
113 112 48
109 108 51
121 120 50
129 127 56
128 127 51
125 123 57
131 128 58
133 129 54
139 135 57
141 137 56
142 139 60
148 143 60
145 141 66
151 146 63
148 143 65
149 144 63
149 144 62
156 150 65
156 150 63
157 150 65
155 149 61
155 148 62
152 146 61
152 147 56
155 149 65
156 150 57
151 146 56
151 145 63
148 143 47
154 147 68
150 144 59
147 142 58
148 142 61
147 141 56
147 142 59
147 141 57
145 139 47
147 141 54
137 132 45
134 129 48
138 133 47
135 129 47
139 136 45
142 141 47
137 138 32
146 153 39
154 160 42
152 159 25
160 177 16
163 180 16
167 189 11
170 190 0
167 188 0
171 190 0
170 189 0
168 188 0
171 191 0
166 187 0
170 191 0
167 187 0
170 189 0
172 192 0
170 192 0
171 194 0
168 189 0
171 192 0
172 194 0
171 191 0
170 191 0
172 193 0
172 194 0
171 192 0
170 192 0
167 189 0
171 192 0
170 191 0
173 194 0
172 195 0
172 195 0
173 196 0
170 192 0
172 194 0
173 196 0
173 195 0
172 195 0
174 196 0
173 195 0
172 195 0
173 196 0
173 196 0
172 195 0
174 196 0
173 195 0
174 197 0
172 195 0
173 196 0
169 192 0
172 195 0
172 195 0
171 195 0
174 196 0
175 197 0
172 195 0
172 195 0
173 195 0
174 197 0
171 194 0
172 195 0
173 195 0
175 197 0
173 196 0
175 198 0
175 198 0
174 197 0
174 198 0
174 197 0
174 197 0
173 197 0
174 198 0
173 196 0
172 195 0
174 197 0
174 197 0
173 196 0
174 197 0
174 197 0
175 197 0
174 196 0
172 196 0
174 197 0
174 196 0
173 196 0
174 197 0
173 196 0
175 197 0
173 196 0
175 198 0
174 197 0
173 197 0
174 197 0
173 197 0
174 197 0
173 197 0
174 196 0
174 198 0
174 197 0
176 199 0
175 198 0
172 196 0
173 197 0
175 198 0
173 196 0
174 198 0
173 196 0
175 198 0
172 196 0
175 198 0
175 197 0
174 198 0
172 195 0
174 197 0
174 198 0
173 197 0
173 197 0
174 197 0
173 197 0
173 197 0
173 197 0
176 198 0
175 197 0
174 197 0
174 197 0
172 196 0
175 198 0
172 195 0
175 198 0
173 197 0
173 197 0
176 199 0
173 197 0
175 198 0
174 198 0
172 196 0
174 197 0
172 195 0
174 197 0
174 197 0
175 198 0
174 197 0
175 198 0
174 197 0
174 197 0
174 197 0
171 195 0
172 196 0
174 197 0
172 195 0
174 197 0
169 193 0
171 195 0
174 198 0
174 197 0
175 198 0
173 197 0
172 196 0
172 196 0
173 196 0
172 196 0
174 198 0
173 196 0
172 196 0
171 195 0
174 197 0
173 197 0
171 195 0
174 197 0
173 197 0
173 197 0
171 195 0
173 196 0
173 197 0
173 196 0
173 197 0
175 198 0
175 198 0
172 196 0
171 195 0
173 196 0
173 197 0
174 197 0
173 196 0
172 196 0
174 197 0
174 198 0
173 196 0
173 197 0
174 197 0
174 197 0
174 196 0
175 197 0
173 196 0
172 195 0
173 196 0
172 195 0
171 194 0
173 196 0
170 194 0
174 197 0
173 196 0
172 194 0
171 194 0
171 195 0
170 193 0
171 195 0
173 196 0
170 193 0
172 195 0
170 194 0
173 196 0
171 193 0
170 193 0
173 196 44
172 195 0
171 194 36
173 197 44
175 197 62
173 196 51
172 196 36
173 196 62
177 199 62
174 197 67
175 199 72
174 197 51
176 199 76
176 199 62
177 199 72
175 197 67
174 197 76
172 195 80
177 199 84
173 196 67
180 202 95
177 197 84
178 200 102
174 196 72
175 198 76
174 197 76
172 194 72
175 198 62
173 195 44
172 194 67
172 195 67
173 195 51
173 196 51
174 197 76
169 192 0
170 193 44
166 189 25
172 195 36
170 192 25
168 190 25
167 190 0
144 168 76
81 112 144
62 97 147
62 97 152
62 98 162
61 97 153
61 97 160
61 97 160
62 98 163
61 97 157
62 98 164
61 97 163
61 98 164
61 98 163
62 98 173
62 99 168
62 99 172
61 97 162
61 98 171
62 99 172
61 98 166
61 97 166
63 99 173
63 99 176
62 99 170
61 98 170
62 99 171
62 99 164
61 98 167
62 98 168
63 99 171
62 99 168
63 99 169
63 100 178
61 98 165
62 99 172
63 99 173
62 98 166
62 99 168
62 99 174
62 98 171
63 100 176
62 99 171
62 98 170
62 98 167
63 99 174
62 99 170
61 97 162
63 99 170
62 99 173
62 99 173
61 97 159
61 98 163
62 99 166
62 98 165
61 97 163
62 99 171
62 98 170
62 99 169
63 100 178
63 100 172
62 99 170
62 99 168
62 98 164
62 98 165
62 99 169
62 98 165
61 97 161
62 98 163
61 97 159
63 98 161
62 98 160
62 98 161
62 98 165
61 97 156
61 96 154
62 98 159
62 98 162
62 98 162
62 98 158
61 97 160
61 97 160
62 98 162
61 96 155
59 92 143
60 94 145
60 94 146
58 89 129
72 80 67
86 85 23
83 83 29
65 68 28
83 85 21
84 84 35
87 89 30
99 98 40
103 103 33
107 106 40
104 103 37
108 107 36
122 120 46
118 116 58
132 128 53
130 126 57
133 130 46
127 125 54
131 128 48
135 131 54
141 137 48
139 135 50
145 139 54
146 141 57
145 140 57
148 143 60
143 139 59
146 140 59
145 141 50
147 142 51
153 147 62
148 143 58
147 142 58
159 152 67
144 138 52
152 146 59
156 149 66
151 145 59
148 142 59
151 145 58
148 143 54
148 142 59
136 131 42
141 136 41
143 138 47
154 148 59
142 137 51
147 141 53
141 136 45
138 133 45
136 131 47
137 132 39
139 136 49
135 136 39
148 149 37
136 145 16
153 162 28
157 173 11
163 177 22
159 176 0
167 185 0
170 190 0
168 188 0
168 188 0
168 187 0
165 185 0
168 187 0
169 189 0
169 190 0
169 190 0
169 188 0
164 186 0
172 193 0
170 190 0
170 191 0
170 191 0
168 190 0
172 194 0
171 193 0
168 188 0
169 190 0
174 196 0
173 194 0
172 195 0
173 196 0
172 193 0
172 194 0
174 197 0
173 195 0
173 194 0
170 193 0
172 192 0
173 195 0
167 188 0
172 193 0
168 190 0
172 195 0
172 195 0
173 195 0
173 196 0
174 196 0
172 194 0
174 197 0
172 195 0
173 196 0
171 194 0
172 195 0
175 197 0
172 195 0
174 197 0
176 198 0
172 195 0
174 197 0
173 196 0
173 195 0
175 197 0
172 195 0
175 198 0
175 197 0
172 195 0
175 198 0
176 198 0
173 196 0
172 195 0
175 196 0
173 197 0
174 197 0
171 194 0
173 197 0
175 198 0
173 196 0
174 198 0
174 197 0
173 196 0
172 195 0
174 197 0
175 198 0
174 198 0
174 197 0
174 197 0
173 195 0
174 197 0
173 197 0
175 198 0
174 197 0
173 197 0
175 197 0
174 197 0
175 198 0
176 198 0
173 197 0
175 198 0
174 197 0
173 195 0
173 197 0
174 197 0
174 198 0
171 195 0
172 196 0
174 198 0
172 196 0
174 197 0
173 197 0
175 198 0
175 198 0
174 197 0
175 198 0
174 198 0
174 198 0
174 197 0
175 198 0
174 197 0
175 198 0
175 198 0
172 196 0
173 197 0
172 197 0
175 198 0
173 197 0
174 197 0
174 197 0
173 196 0
173 197 0
173 196 0
173 197 0
174 197 0
173 197 0
174 197 0
173 197 0
174 198 0
173 197 0
174 197 0
172 196 0
175 198 0
174 197 0
174 197 0
173 197 0
173 196 0
173 197 0
174 197 0
174 197 0
174 198 0
174 197 0
173 197 0
175 198 0
174 197 0
173 196 0
174 197 0
175 197 0
175 198 0
173 197 0
174 197 0
172 196 0
174 197 0
174 198 0
173 196 0
173 196 0
173 197 0
173 196 0
172 196 0
172 196 0
172 195 0
173 196 0
171 195 0
173 196 0
172 196 0
173 196 0
175 198 0
170 193 0
173 196 0
173 197 0
172 197 0
173 197 0
173 197 0
174 197 0
173 196 0
170 194 0
173 196 0
173 197 0
173 197 0
173 196 0
171 193 0
173 196 0
173 196 0
170 194 0
173 197 0
171 195 0
172 196 0
173 196 0
172 195 0
172 195 0
173 196 0
171 195 0
175 198 0
173 196 0
173 196 0
173 196 0
173 196 0
171 195 0
172 195 0
174 198 0
172 196 0
173 197 0
174 198 0
173 196 0
171 194 0
173 196 0
172 196 36
172 195 25
174 197 36
171 194 36
169 193 0
172 195 36
172 195 44
175 197 57
174 196 51
175 198 57
176 199 51
175 197 51
178 200 92
176 199 84
181 203 92
178 200 88
178 200 80
176 198 84
180 202 105
178 199 99
178 201 105
178 199 105
178 199 99
180 201 114
180 201 114
180 202 108
181 201 117
178 200 102
178 200 95
178 200 80
176 198 84
176 197 92
170 191 67
175 197 102
179 201 84
173 195 76
170 192 57
173 196 67
175 197 67
169 192 44
167 189 36
167 191 25
171 193 44
168 192 36
160 183 44
143 167 90
93 121 137
66 100 145
64 99 156
62 97 157
61 97 157
62 97 156
61 97 155
62 97 160
62 98 161
61 97 158
61 97 164
61 97 161
62 98 162
62 98 162
61 98 163
61 98 167
62 98 165
61 98 166
61 98 162
62 98 170
62 98 166
61 97 163
61 97 159
62 98 167
61 97 167
62 98 174
63 99 171
62 98 170
62 99 167
61 98 175
62 99 168
61 97 163
62 98 168
61 97 169
61 98 162
62 98 165
62 98 173
62 99 172
62 98 167
62 99 170
62 98 169
62 98 164
62 98 164
61 98 166
63 99 174
61 98 163
63 99 166
62 98 167
62 99 171
62 98 164
61 98 164
62 98 163
62 99 166
62 98 166
62 98 169
62 98 162
62 99 167
63 99 170
62 99 172
62 98 165
62 99 164
62 98 166
62 98 166
63 99 171
62 99 169
61 97 154
62 98 162
63 99 165
62 99 172
62 99 167
62 98 160
61 97 157
61 96 154
63 99 165
63 99 167
62 99 166
61 97 153
61 97 155
61 97 158
62 97 154
61 96 155
61 96 151
61 95 146
63 99 164
60 95 147
60 93 145
56 87 137
78 88 78
89 89 26
72 74 28
80 82 25
78 79 19
67 70 24
89 89 27
95 95 31
92 92 33
95 94 40
102 101 32
102 101 40
109 108 37
114 112 33
122 119 45
123 120 55
131 127 52
138 133 56
125 122 53
141 136 58
134 130 50
146 141 57
138 134 57
149 144 54
147 143 57
139 134 51
144 140 57
145 139 53
144 140 56
149 144 57
150 144 56
153 147 64
149 143 59
153 147 53
149 143 59
146 141 57
149 142 54
149 143 52
148 141 53
146 140 57
154 148 62
153 147 64
141 136 49
148 143 49
144 137 53
147 141 51
138 133 41
145 140 49
143 137 51
133 129 36
135 129 49
142 137 51
140 136 45
135 137 32
142 147 32
152 162 22
152 163 16
154 168 19
158 174 11
164 182 0
168 187 0
172 193 0
168 188 0
172 192 0
168 188 0
169 189 0
169 189 0
172 193 0
171 191 0
172 193 0
170 190 0
165 187 0
170 192 0
170 190 0
169 189 0
170 191 0
169 191 0
173 194 0
171 192 0
174 194 0
170 192 0
172 192 0
172 194 0
171 192 0
170 190 0
172 193 0
172 194 0
173 195 0
172 194 0
173 195 0
172 194 0
171 194 0
172 194 0
171 193 0
172 195 0
173 196 0
174 197 0
170 192 0
171 195 0
172 195 0
172 193 0
173 196 0
175 197 0
172 195 0
172 194 0
173 195 0
171 194 0
173 196 0
171 194 0
173 196 0
173 195 0
172 195 0
171 193 0
172 195 0
171 194 0
168 192 0
174 197 0
174 196 0
175 198 0
171 194 0
173 196 0
171 194 0
175 197 0
172 195 0
174 198 0
174 197 0
174 197 0
174 198 0
174 197 0
174 197 0
174 197 0
172 195 0
173 196 0
173 196 0
172 195 0
173 196 0
173 196 0
175 198 0
174 198 0
173 197 0
174 197 0
175 198 0
175 198 0
176 198 0
173 196 0
174 197 0
174 196 0
174 197 0
175 197 0
175 197 0
175 198 0
173 196 0
174 197 0
174 197 0
172 196 0
174 197 0
174 198 0
173 196 0
175 198 0
174 197 0
174 197 0
171 195 0
175 198 0
174 197 0
174 198 0
176 198 0
173 197 0
174 197 0
174 198 0
173 197 0
175 198 0
174 197 0
174 197 0
174 197 0
175 198 0
174 197 0
175 197 0
174 198 0
173 197 0
174 197 0
173 197 0
173 196 0
173 197 0
174 198 0
173 197 0
174 197 0
174 197 0
174 198 0
173 197 0
175 198 0
173 196 0
175 198 0
173 197 0
172 196 0
174 198 0
173 196 0
175 198 0
172 197 0
174 197 0
173 197 0
173 196 0
174 197 0
174 198 0
168 192 0
173 197 0
173 197 0
173 197 0
172 195 0
173 197 0
170 194 0
174 197 0
173 197 0
172 195 0
174 197 0
172 196 0
174 197 0
172 196 0
173 196 0
173 197 0
175 198 0
174 197 0
171 195 0
175 197 0
173 197 0
172 196 0
173 195 0
173 197 0
173 196 0
173 197 0
174 198 0
171 195 0
171 195 0
173 197 0
174 197 0
174 197 0
172 196 0
174 197 0
172 196 0
172 196 0
173 197 0
172 196 0
168 192 0
169 193 0
174 197 0
173 197 0
174 198 0
173 197 0
172 195 0
172 196 0
172 196 0
172 195 0
173 196 0
169 193 0
172 196 0
170 192 0
173 196 0
172 195 0
170 193 0
174 197 0
173 196 0
173 196 0
171 195 0
172 196 0
172 195 0
173 196 0
172 195 0
171 195 0
175 198 44
172 195 44
169 193 25
171 195 25
172 195 25
172 196 36
176 199 51
173 195 57
173 197 72
175 198 92
177 200 80
180 202 95
180 201 88
177 199 88
177 198 105
183 204 128
180 203 102
181 203 120
180 202 108
182 203 117
184 205 120
182 203 125
180 201 122
185 205 117
186 206 130
179 201 105
185 206 133
177 199 95
185 206 133
186 206 147
181 202 120
179 201 108
177 199 95
181 202 135
177 200 105
178 200 92
179 200 105
175 198 76
175 196 95
173 195 76
167 189 51
170 193 62
174 196 57
166 188 70
156 180 60
142 166 100
94 122 136
73 106 143
65 99 144
65 99 154
61 96 149
63 97 153
60 95 155
60 96 156
60 97 160
62 99 168
60 96 158
62 98 167
62 98 165
61 97 162
62 98 168
61 98 163
61 97 167
61 97 157
62 98 167
61 97 167
62 99 171
61 97 166
62 99 169
61 97 161
62 98 170
62 98 171
61 98 169
61 98 171
62 98 165
62 99 174
61 98 170
62 98 172
62 99 173
62 99 169
62 98 167
62 98 167
61 97 165
62 99 168
62 99 172
62 99 166
61 97 160
61 98 166
62 98 162
62 98 165
62 98 165
62 98 170
63 99 165
63 99 172
62 98 167
62 98 164
62 99 171
61 98 164
62 98 168
63 99 165
63 99 171
61 98 168
62 98 167
62 98 163
63 99 166
62 98 161
62 98 163
63 99 170
62 98 160
60 96 151
62 98 163
62 98 164
63 99 162
61 97 152
62 98 161
62 99 166
62 98 160
62 99 167
61 97 153
62 98 160
62 98 157
61 97 158
61 97 154
62 98 157
62 98 163
62 97 156
60 96 153
61 97 153
60 95 141
61 96 152
59 93 143
58 92 140
62 91 134
67 76 65
87 87 27
73 73 22
77 78 24
75 76 24
90 89 25
92 93 26
110 108 40
102 103 24
100 99 32
104 105 29
113 112 40
114 112 38
122 120 37
122 120 33
120 116 38
127 123 55
127 123 41
131 127 54
126 122 56
134 131 45
145 140 58
143 139 53
139 134 51
145 141 56
141 137 56
145 140 55
142 138 57
154 149 55
142 137 53
143 139 46
150 144 51
144 138 58
149 143 58
147 142 53
142 138 49
151 146 56
146 141 45
142 136 51
149 143 53
144 140 49
141 137 45
139 135 48
147 142 58
133 128 47
139 135 42
138 133 47
133 127 45
128 124 39
133 127 41
134 131 32
132 133 32
144 147 41
148 153 34
147 153 30
149 159 32
161 175 28
164 181 11
164 183 0
167 183 0
167 188 0
169 187 0
166 186 0
170 189 0
168 188 0
167 186 0
171 192 0
168 187 0
168 187 0
169 190 0
172 193 0
171 193 0
171 191 0
169 191 0
169 191 0
169 190 0
173 193 0
171 194 0
173 195 0
173 195 0
169 190 0
171 193 0
171 191 0
172 193 0
172 194 0
172 193 0
172 195 0
171 192 0
170 191 0
171 193 0
170 192 0
172 196 0
171 193 0
173 196 0
171 193 0
172 195 0
174 197 0
172 195 0
171 193 0
172 195 0
172 194 0
173 196 0
175 196 0
172 194 0
172 196 0
172 195 0
172 195 0
173 195 0
172 196 0
173 195 0
172 195 0
172 194 0
173 196 0
172 196 0
171 195 0
173 195 0
174 197 0
173 196 0
174 198 0
172 195 0
174 197 0
173 196 0
176 198 0
174 197 0
174 197 0
174 196 0
173 196 0
174 197 0
174 197 0
175 198 0
174 197 0
173 197 0
172 195 0
175 198 0
173 196 0
172 195 0
174 197 0
172 196 0
172 195 0
172 195 0
174 197 0
176 198 0
175 197 0
174 197 0
173 196 0
174 197 0
171 195 0
174 198 0
174 197 0
174 198 0
172 195 0
174 198 0
176 199 0
173 197 0
174 198 0
174 197 0
175 198 0
175 198 0
174 197 0
172 196 0
175 198 0
174 197 0
175 198 0
173 197 0
172 196 0
174 198 0
173 197 0
173 197 0
174 197 0
175 198 0
173 197 0
173 197 0
173 197 0
175 198 0
174 197 0
174 198 0
172 196 0
174 197 0
173 197 0
175 198 0
174 198 0
174 198 0
173 196 0
176 199 0
174 198 0
174 197 0
172 195 0
174 197 0
172 195 0
175 197 0
174 197 0
173 197 0
173 197 0
172 196 0
174 197 0
174 197 0
174 197 0
174 197 0
173 195 0
174 197 0
174 197 0
173 196 0
175 198 0
174 198 0
174 198 0
174 197 0
173 197 0
174 198 0
175 198 0
173 197 0
176 199 0
174 197 0
172 196 0
174 197 0
174 198 0
170 194 0
172 196 0
174 197 0
170 194 0
172 195 0
172 196 0
171 195 0
172 195 0
173 197 0
174 197 0
172 196 0
173 196 0
174 198 0
174 197 0
172 196 0
172 196 0
174 197 0
173 196 0
171 194 0
172 195 0
174 197 0
171 196 0
174 197 0
172 195 0
173 197 0
173 196 0
171 195 0
172 196 0
173 196 0
174 197 0
171 195 0
172 195 0
172 196 0
174 196 0
172 196 0
173 196 0
172 195 0
169 192 0
172 195 0
173 196 0
172 196 0
175 198 0
171 194 0
171 194 0
171 195 0
173 196 0
171 194 0
170 194 0
173 196 25
172 195 25
172 196 25
172 195 0
176 199 44
173 196 44
172 195 44
175 198 62
175 198 62
173 196 57
177 199 76
179 202 95
174 196 99
180 201 117
179 200 95
179 200 105
181 201 125
184 205 128
182 203 105
186 206 128
184 205 128
186 206 133
191 211 161
187 208 135
186 207 133
187 207 151
187 206 149
188 208 140
188 207 153
194 213 165
190 211 153
186 207 142
185 206 133
197 216 186
190 210 157
184 205 133
190 209 153
184 205 133
178 199 114
178 199 111
178 200 111
180 202 102
177 197 117
169 192 80
174 196 76
179 201 102
174 197 84
162 185 65
152 175 88
147 170 108
100 127 147
74 106 153
71 104 159
77 109 154
66 100 144
62 97 163
60 96 153
64 99 155
63 98 158
61 97 159
61 97 158
62 98 161
61 98 165
61 97 159
62 98 164
61 97 165
61 98 165
61 97 159
61 97 162
61 98 164
61 97 163
61 97 166
61 98 165
62 99 172
62 99 169
61 97 168
62 98 166
62 98 169
61 98 162
62 99 169
62 98 170
62 98 165
62 99 170
61 98 166
61 98 168
62 98 166
62 99 166
62 99 169
61 98 170
61 98 167
61 97 160
62 99 169
61 98 162
61 97 157
62 98 165
62 99 167
62 98 163
61 98 163
62 98 166
62 99 171
62 98 166
62 99 168
62 99 168
63 99 172
62 99 169
61 97 161
61 97 160
61 98 161
63 99 165
62 98 163
62 98 160
61 98 165
61 97 155
62 99 167
60 96 152
62 98 162
62 98 165
61 97 154
61 97 156
62 98 164
61 97 161
62 98 167
62 98 156
61 97 156
61 97 155
62 98 158
63 99 165
62 97 160
61 96 157
61 96 155
61 96 150
61 96 155
60 95 143
61 96 153
60 94 147
59 93 146
65 92 127
58 70 70
71 73 17
87 84 14
81 81 18
88 87 20
96 94 29
85 85 22
86 86 17
98 96 25
97 96 25
102 100 35
118 116 33
115 113 36
126 123 39
119 117 44
113 111 38
124 122 42
118 117 36
121 119 42
124 121 43
138 133 51
132 129 49
137 132 48
146 142 49
138 134 48
142 137 56
150 144 58
139 134 42
136 132 43
142 137 45
150 145 45
141 135 44
142 136 52
144 139 53
149 143 52
149 143 54
146 141 47
146 141 49
147 141 54
151 145 52
135 130 36
146 140 48
147 140 54
142 136 49
133 127 41
137 131 47
131 126 37
133 130 39
128 122 42
128 125 36
132 129 36
138 140 30
145 148 34
143 150 28
148 157 32
156 166 30
163 177 19
164 183 0
165 182 0
167 186 0
167 187 0
166 183 0
168 188 0
170 188 0
165 185 0
168 188 0
168 187 0
167 186 0
168 190 0
170 191 0
167 188 0
170 191 0
169 190 0
169 187 0
170 191 0
173 193 0
169 189 0
171 193 0
171 192 0
171 193 0
170 191 0
168 189 0
164 185 0
172 193 0
173 194 0
173 194 0
170 191 0
171 195 0
171 193 0
171 191 0
174 196 0
173 195 0
170 193 0
169 193 0
173 194 0
170 193 0
171 193 0
174 197 0
173 195 0
173 196 0
169 192 0
170 193 0
175 197 0
172 194 0
171 195 0
174 197 0
173 196 0
173 196 0
172 194 0
174 196 0
173 196 0
173 196 0
171 194 0
173 196 0
174 198 0
172 196 0
172 195 0
173 196 0
171 195 0
170 193 0
174 197 0
175 197 0
175 198 0
174 197 0
173 196 0
173 196 0
173 196 0
172 195 0
173 195 0
174 197 0
174 198 0
172 196 0
171 195 0
173 196 0
173 196 0
174 197 0
175 198 0
174 197 0
174 197 0
174 197 0
174 198 0
172 196 0
175 198 0
174 197 0
174 197 0
173 196 0
171 195 0
176 198 0
173 196 0
174 197 0
174 197 0
173 197 0
175 197 0
174 197 0
174 197 0
174 198 0
175 198 0
174 197 0
173 196 0
174 197 0
175 198 0
174 198 0
173 197 0
172 196 0
174 197 0
173 197 0
172 195 0
174 197 0
174 197 0
174 197 0
174 197 0
172 196 0
174 198 0
173 197 0
174 198 0
173 197 0
175 198 0
174 198 0
173 197 0
174 197 0
172 196 0
174 198 0
176 199 0
173 197 0
173 197 0
175 198 0
171 196 0
176 199 0
172 196 0
173 197 0
173 197 0
174 198 0
172 196 0
174 198 0
175 198 0
174 197 0
173 197 0
175 198 0
174 197 0
174 197 0
174 198 0
174 197 0
173 196 0
174 197 0
175 198 0
173 196 0
173 197 0
174 197 0
173 196 0
175 198 0
171 195 0
172 195 0
172 196 0
174 197 0
174 197 0
174 197 0
173 197 0
171 195 0
173 197 0
170 194 0
174 197 0
172 196 0
174 197 0
173 196 0
174 197 0
175 198 0
172 196 0
174 197 0
173 196 0
171 195 0
173 197 0
170 194 0
172 195 0
172 196 0
172 196 0
172 195 0
172 195 0
170 193 0
172 195 0
172 196 0
173 197 0
173 196 0
172 196 0
172 196 0
173 196 0
173 196 0
174 197 0
171 195 0
173 196 0
173 197 0
174 197 0
172 196 0
173 197 0
174 197 0
171 195 0
172 196 0
172 195 0
172 195 0
173 196 0
172 196 0
172 196 0
170 194 25
174 197 25
172 195 44
172 194 25
173 196 25
169 192 25
174 197 51
174 197 62
175 198 62
177 199 80
175 198 80
175 198 72
177 199 80
182 204 105
177 200 105
182 202 114
183 204 114
187 208 137
186 207 133
191 210 157
188 207 151
189 209 142
193 212 165
193 212 167
194 214 167
191 211 161
193 213 167
192 211 161
191 211 155
196 215 175
191 211 159
187 207 144
189 209 157
193 213 165
196 215 179
191 211 167
192 212 169
190 210 157
191 211 159
186 206 144
186 206 140
188 208 144
184 204 133
185 205 128
188 208 137
180 200 120
178 199 80
177 199 92
182 202 115
152 176 100
142 165 105
143 165 114
89 118 141
95 122 155
74 106 150
76 108 157
66 100 154
63 99 155
61 97 157
66 101 159
65 100 166
63 98 159
61 97 161
61 97 162
61 97 160
62 98 168
62 98 168
61 97 159
61 97 163
61 97 163
61 97 160
61 97 166
61 97 163
62 98 170
61 97 163
62 98 168
61 98 167
62 98 166
61 97 160
61 98 165
62 99 172
62 98 170
61 98 162
62 98 170
62 98 166
63 99 170
61 97 158
62 98 169
62 99 167
62 98 168
63 99 172
61 97 162
62 98 166
62 98 166
61 97 160
61 97 159
62 99 164
62 98 161
63 99 166
62 99 163
63 99 170
62 98 164
62 98 162
62 98 165
62 98 164
62 98 162
62 98 164
63 99 162
62 98 162
62 98 158
62 98 165
62 98 164
61 97 161
63 99 166
60 96 151
62 98 161
62 98 161
62 98 162
62 97 157
62 99 168
62 98 157
63 99 164
62 98 161
61 97 154
62 98 162
62 98 159
62 98 155
60 96 155
62 98 165
62 98 158
61 97 154
61 96 149
62 98 158
61 97 155
62 97 154
61 96 152
60 95 151
58 92 134
64 94 145
69 80 89
75 75 16
82 81 18
78 78 16
85 84 17
90 89 12
86 85 24
98 96 22
99 98 31
100 99 24
111 110 26
111 108 40
116 114 38
111 110 39
120 118 29
119 116 40
122 120 39
133 130 46
126 122 43
129 126 40
141 136 45
134 130 44
133 128 46
132 126 45
140 136 49
129 125 45
142 137 44
142 135 51
141 136 47
139 134 51
140 134 42
140 135 44
145 139 51
148 143 47
148 143 53
136 130 32
141 137 45
138 133 45
144 139 51
143 138 39
140 135 45
129 123 39
133 129 36
136 130 47
138 133 41
130 125 41
129 124 32
136 130 51
136 130 42
140 138 39
134 136 32
140 142 34
140 148 22
150 160 11
155 166 11
155 168 11
155 169 0
162 178 0
162 179 0
166 182 0
166 184 0
163 182 0
168 188 0
166 184 0
169 187 0
168 186 0
167 187 0
167 187 0
168 188 0
167 186 0
168 188 0
169 188 0
169 188 0
170 191 0
170 192 0
170 192 0
166 184 0
169 190 0
171 191 0
170 191 0
169 191 0
168 190 0
172 192 0
167 190 0
171 193 0
169 190 0
173 195 0
169 193 0
172 195 0
172 194 0
173 196 0
172 193 0
171 194 0
170 193 0
173 194 0
171 194 0
171 193 0
171 193 0
171 195 0
170 191 0
173 196 0
171 195 0
172 194 0
175 198 0
173 196 0
171 193 0
173 196 0
173 195 0
174 196 0
173 195 0
174 197 0
174 196 0
173 195 0
173 196 0
173 197 0
171 194 0
174 196 0
174 197 0
172 194 0
173 196 0
174 196 0
173 195 0
173 196 0
172 195 0
174 196 0
173 196 0
174 197 0
175 198 0
175 198 0
173 195 0
174 197 0
173 196 0
173 196 0
171 195 0
174 197 0
173 196 0
174 197 0
174 197 0
173 197 0
173 197 0
173 197 0
174 198 0
174 196 0
175 197 0
173 197 0
175 197 0
172 195 0
171 196 0
173 197 0
172 195 0
173 197 0
172 195 0
173 197 0
175 197 0
173 196 0
173 197 0
174 198 0
173 196 0
173 196 0
174 198 0
172 196 0
173 197 0
173 197 0
174 197 0
175 197 0
173 197 0
173 196 0
174 197 0
173 197 0
173 197 0
175 198 0
174 197 0
173 197 0
175 198 0
172 196 0
172 195 0
174 198 0
173 197 0
175 198 0
175 198 0
174 198 0
174 197 0
174 197 0
173 196 0
174 198 0
175 198 0
175 198 0
175 198 0
174 197 0
175 198 0
174 197 0
173 197 0
174 198 0
175 198 0
174 198 0
174 198 0
171 195 0
172 195 0
175 198 0
174 197 0
175 198 0
175 198 0
172 196 0
173 197 0
174 197 0
174 197 0
171 194 0
173 197 0
172 196 0
174 198 0
171 195 0
173 197 0
173 197 0
172 195 0
173 197 0
172 196 0
172 196 0
170 194 0
174 198 0
174 198 0
173 197 0
171 195 0
174 198 0
172 195 0
172 195 0
171 194 0
174 197 0
174 197 0
173 197 0
172 195 0
173 197 0
174 197 0
173 196 0
171 196 0
172 196 0
169 193 0
173 197 0
171 195 0
176 199 0
174 197 0
173 197 0
173 197 0
168 193 0
171 194 0
171 195 0
175 198 0
172 195 0
170 193 0
172 196 0
170 194 0
171 194 0
173 197 0
171 194 0
170 193 0
172 195 0
171 195 0
171 195 0
171 194 0
173 196 0
174 197 0
170 193 0
174 197 51
175 198 57
172 196 51
174 197 57
174 197 44
170 194 44
174 196 67
178 201 92
178 200 80
176 198 80
183 205 108
180 201 105
184 206 120
184 205 128
187 208 133
184 204 130
189 209 149
191 211 165
187 208 149
193 213 159
197 216 184
197 216 177
192 211 163
199 217 191
195 214 175
199 217 194
193 213 177
198 216 194
192 212 167
197 216 188
198 217 188
196 216 179
193 213 175
200 219 196
197 216 184
191 210 163
194 214 175
201 220 196
194 213 173
190 210 161
190 209 163
195 214 173
188 208 149
191 211 157
187 207 137
186 207 135
188 208 149
180 201 125
179 201 128
157 179 128
148 171 139
136 158 143
92 119 141
88 117 151
75 106 150
81 111 159
67 101 160
77 108 153
62 98 156
69 103 150
64 99 156
63 98 159
62 98 160
61 97 161
61 98 166
61 97 162
61 98 161
62 98 168
60 96 155
61 97 164
62 98 167
60 96 160
61 98 169
61 98 170
62 98 164
61 97 165
62 98 167
62 98 164
62 98 162
62 98 166
61 97 166
61 97 157
63 99 169
61 97 162
62 98 169
61 98 167
61 97 161
62 98 163
62 98 169
62 99 167
62 98 161
61 98 162
62 98 161
61 97 160
62 98 164
62 98 168
63 99 168
62 98 164
61 97 162
61 98 165
61 98 165
62 98 160
61 97 159
61 97 157
62 99 165
63 99 171
62 98 163
62 98 163
62 98 161
62 99 164
60 96 149
62 98 163
63 99 168
63 98 164
63 99 162
61 97 155
62 97 156
62 98 166
62 98 166
62 98 160
62 98 164
62 98 163
61 97 158
61 97 156
62 97 160
62 98 159
62 97 155
61 96 150
61 97 157
61 97 160
61 97 156
61 96 147
62 97 149
61 96 150
61 96 152
61 97 155
60 95 149
59 93 144
62 90 120
80 86 53
83 81 14
86 82 0
83 83 17
93 91 14
87 85 9
95 94 24
88 87 23
100 99 14
97 96 18
104 102 19
112 110 32
109 106 32
108 106 27
120 118 27
125 121 35
118 114 35
119 116 40
115 112 38
118 116 36
122 119 35
129 125 42
139 135 45
136 132 37
143 137 46
134 130 45
141 135 47
145 139 49
128 124 37
132 127 41
134 131 44
143 138 44
149 144 49
142 138 47
143 138 48
150 144 48
142 135 44
145 140 42
138 132 45
141 136 48
135 130 39
137 132 37
138 133 42
132 127 36
130 124 36
133 126 39
129 124 37
144 142 44
140 136 39
130 131 30
140 142 34
146 153 19
145 153 25
155 165 28
154 168 11
159 174 0
161 176 0
163 181 0
166 185 0
166 184 0
166 184 0
162 178 0
167 186 0
168 186 0
168 187 0
167 187 0
167 186 0
166 185 0
167 187 0
169 189 0
170 191 0
169 189 0
168 187 0
170 191 0
169 190 0
169 189 0
167 186 0
166 187 0
170 191 0
173 194 0
171 192 0
171 193 0
171 193 0
173 195 0
171 193 0
171 192 0
172 195 0
173 196 0
173 195 0
171 193 0
172 194 0
170 191 0
172 194 0
170 193 0
173 194 0
171 192 0
170 193 0
171 193 0
173 195 0
173 196 0
170 192 0
174 197 0
169 192 0
172 195 0
174 197 0
173 196 0
174 197 0
172 195 0
170 194 0
174 196 0
173 195 0
174 196 0
173 195 0
171 193 0
174 197 0
172 195 0
173 194 0
174 197 0
175 198 0
172 195 0
175 198 0
173 196 0
173 196 0
174 197 0
173 196 0
175 198 0
174 196 0
174 197 0
172 196 0
173 196 0
173 197 0
173 197 0
175 197 0
174 197 0
172 195 0
173 197 0
172 195 0
171 195 0
173 196 0
174 197 0
173 197 0
173 196 0
173 197 0
172 195 0
174 198 0
173 197 0
175 198 0
171 194 0
174 198 0
172 196 0
175 198 0
173 197 0
172 196 0
174 197 0
173 197 0
173 197 0
173 196 0
176 199 0
173 196 0
172 195 0
175 198 0
175 198 0
174 197 0
174 197 0
174 198 0
175 198 0
175 198 0
173 196 0
175 198 0
172 196 0
174 198 0
172 196 0
172 196 0
173 196 0
176 199 0
175 198 0
175 198 0
175 198 0
173 197 0
173 196 0
174 198 0
174 197 0
172 196 0
174 198 0
174 197 0
168 193 0
175 198 0
173 196 0
173 196 0
174 198 0
176 198 0
172 196 0
176 198 0
172 196 0
174 198 0
174 197 0
174 198 0
175 198 0
174 197 0
173 196 0
172 196 0
173 197 0
172 195 0
175 198 0
173 197 0
172 195 0
173 197 0
173 196 0
174 198 0
173 197 0
172 197 0
171 195 0
173 197 0
173 197 0
175 198 0
175 198 0
175 198 0
174 198 0
175 198 0
172 195 0
174 197 0
173 196 0
171 195 0
173 196 0
174 198 0
175 197 0
173 197 0
174 197 0
174 198 0
172 195 0
173 197 0
171 195 0
171 194 0
173 196 0
173 195 0
171 195 0
174 197 0
173 196 0
175 198 0
172 195 0
171 194 0
171 194 0
171 195 0
175 198 0
174 197 0
171 194 0
172 196 0
172 196 0
173 196 0
172 196 0
173 196 0
172 196 0
171 194 0
171 195 0
171 196 0
172 195 0
171 194 0
169 193 0
171 195 0
173 197 44
171 195 25
173 195 51
176 198 67
172 195 44
176 198 67
171 195 44
181 203 92
180 202 92
178 201 80
182 204 108
185 205 114
187 207 137
187 207 135
186 206 133
188 208 144
189 209 135
187 207 142
192 211 159
193 213 171
196 215 184
192 212 165
194 214 175
195 214 177
194 214 181
201 219 198
202 221 206
200 219 198
198 217 194
200 219 196
202 220 204
197 216 184
199 218 199
200 218 193
205 224 218
203 221 214
198 217 196
200 219 194
195 214 179
200 219 198
204 222 207
201 220 203
201 220 198
200 218 194
196 215 186
193 212 177
199 217 184
190 209 157
193 212 175
185 206 125
180 200 168
158 179 172
144 166 158
129 153 147
107 134 154
92 120 154
87 116 156
83 113 156
77 108 155
70 104 158
62 97 156
68 101 153
64 99 163
60 95 153
61 96 156
60 96 155
60 96 155
61 97 159
62 98 164
62 98 165
61 98 164
61 97 164
61 97 163
62 99 170
61 97 155
61 97 162
62 98 167
62 98 171
61 97 166
61 98 162
61 98 163
62 98 164
61 98 165
62 98 163
61 98 163
61 97 164
62 98 166
62 98 165
62 98 162
61 98 164
62 99 170
62 98 162
63 99 169
61 98 166
62 98 169
62 99 169
62 99 167
62 98 166
62 98 166
62 98 164
63 99 169
62 98 165
61 98 164
62 99 167
63 99 166
62 98 162
62 98 158
62 97 159
62 98 162
61 97 160
62 98 165
62 99 169
62 98 167
62 98 163
62 99 165
61 98 161
62 99 162
62 98 161
62 98 163
61 96 159
63 99 163
62 97 155
62 98 158
61 97 158
62 98 161
61 96 154
61 97 150
62 97 155
61 97 158
63 98 165
61 97 152
60 95 138
62 97 152
61 97 158
60 95 147
62 97 155
61 96 141
61 95 149
60 95 141
59 93 144
66 91 121
84 91 76
83 82 11
94 91 16
80 80 8
82 79 2
85 84 14
94 93 22
89 88 16
97 94 27
106 102 20
105 103 29
104 102 27
126 123 29
102 100 26
113 111 27
124 120 31
125 121 26
117 114 30
124 120 44
121 117 33
127 123 38
125 122 36
127 123 37
124 122 24
129 125 39
131 127 30
126 123 32
139 136 34
145 140 45
139 134 40
145 139 43
138 133 44
143 137 42
135 129 45
134 129 39
140 135 42
135 128 47
141 135 44
134 130 37
136 131 39
142 137 44
140 134 32
133 128 37
135 129 42
133 127 36
121 116 36
119 115 28
141 140 41
134 135 25
142 145 25
144 152 19
143 151 19
152 165 11
162 176 19
160 174 11
155 168 0
164 182 0
161 178 0
169 188 0
163 180 0
169 189 0
162 180 0
166 186 0
166 183 0
167 186 0
169 188 0
169 187 0
170 190 0
169 189 0
171 192 0
170 190 0
166 185 0
166 186 0
169 188 0
170 190 0
170 191 0
169 189 0
170 192 0
172 193 0
166 188 0
171 192 0
170 192 0
171 191 0
168 190 0
174 195 0
173 195 0
171 194 0
171 193 0
168 190 0
172 193 0
172 194 0
172 193 0
171 192 0
170 193 0
171 193 0
172 193 0
174 197 0
171 195 0
170 192 0
171 193 0
174 196 0
172 195 0
170 194 0
173 196 0
169 191 0
171 193 0
170 193 0
172 194 0
173 196 0
176 198 0
170 193 0
173 195 0
174 196 0
172 195 0
176 196 0
173 196 0
175 198 0
172 195 0
173 196 0
173 196 0
173 197 0
174 197 0
172 195 0
169 193 0
172 195 0
173 197 0
174 196 0
172 195 0
175 198 0
175 198 0
176 198 0
173 196 0
176 198 0
174 197 0
176 199 0
174 197 0
174 197 0
174 197 0
173 196 0
175 198 0
172 195 0
174 197 0
172 196 0
174 197 0
173 197 0
175 198 0
175 198 0
171 194 0
175 197 0
174 197 0
175 198 0
173 196 0
174 197 0
173 196 0
175 198 0
172 196 0
174 197 0
173 196 0
171 195 0
174 197 0
174 197 0
175 198 0
173 197 0
173 197 0
173 197 0
174 197 0
173 196 0
175 198 0
173 197 0
173 197 0
174 198 0
174 198 0
175 198 0
173 197 0
174 197 0
173 197 0
173 197 0
173 197 0
174 197 0
172 196 0
173 197 0
172 196 0
173 197 0
174 198 0
174 197 0
173 197 0
174 197 0
171 195 0
173 197 0
175 198 0
172 196 0
174 197 0
171 195 0
175 198 0
174 197 0
174 197 0
171 195 0
174 197 0
174 197 0
173 197 0
171 196 0
173 197 0
174 197 0
175 198 0
172 196 0
173 196 0
173 197 0
170 194 0
173 197 0
174 198 0
173 196 0
174 197 0
174 197 0
174 197 0
174 198 0
173 197 0
172 196 0
173 196 0
173 197 0
171 195 0
175 198 0
175 198 0
173 197 0
175 198 0
173 196 0
174 197 0
173 196 0
174 197 0
174 197 0
173 196 0
172 196 0
173 196 0
173 197 0
172 195 0
171 195 0
175 198 0
173 197 0
176 199 0
173 196 0
170 194 0
174 197 0
170 194 0
171 195 0
173 196 0
173 196 0
173 197 0
172 196 0
170 193 0
174 197 0
174 197 0
171 194 0
172 195 0
168 192 0
170 194 0
169 193 0
174 197 0
171 195 25
168 192 25
174 197 36
172 195 44
170 193 44
171 195 25
174 196 51
174 196 62
173 196 25
175 197 84
178 200 88
180 201 108
182 203 105
187 207 128
187 207 137
188 208 147
184 204 137
190 210 153
193 212 179
194 213 169
197 216 184
193 212 171
198 217 193
198 218 189
198 217 191
204 222 212
199 219 196
199 218 196
200 219 193
199 218 204
202 220 204
201 220 207
200 219 207
203 221 212
199 219 201
203 222 218
206 224 223
203 222 214
204 222 220
205 223 217
205 223 214
203 222 212
202 221 204
201 220 199
200 218 204
205 223 215
200 219 194
199 218 191
198 217 189
198 217 188
195 214 171
193 212 167
187 207 164
175 195 175
156 177 169
152 172 170
120 144 148
105 132 151
95 122 161
77 109 161
77 109 153
65 100 161
73 105 147
72 106 161
65 99 157
61 97 161
61 97 159
63 97 156
63 98 156
63 99 160
61 97 159
61 97 159
61 98 167
60 96 155
61 98 162
60 97 160
61 96 160
61 97 164
61 97 161
62 98 164
61 97 161
62 98 165
61 97 165
61 97 157
60 96 157
62 98 166
62 98 170
61 97 162
62 98 165
61 98 166
62 98 168
61 97 162
61 97 162
61 97 163
62 98 161
62 98 160
62 98 164
63 99 170
63 99 169
62 98 167
61 97 156
63 99 169
62 98 164
62 98 165
62 98 168
62 98 162
61 97 158
62 98 163
62 98 170
60 96 157
63 99 166
63 99 169
61 97 161
63 99 164
62 98 163
62 98 167
62 98 158
62 98 163
60 96 154
62 98 163
61 96 159
61 97 156
62 98 164
62 98 160
61 97 155
62 98 161
61 96 147
61 97 155
62 97 158
62 97 154
63 98 159
62 98 157
61 97 149
63 99 167
62 98 160
62 98 159
60 95 146
60 95 147
60 95 146
60 94 142
60 95 148
59 93 133
60 94 141
55 85 118
86 92 68
85 86 14
85 84 12
89 86 11
78 76 0
88 85 16
84 83 16
92 92 8
90 88 11
107 105 18
89 88 16
95 94 22
108 106 29
116 112 21
113 112 26
112 109 27
118 116 26
118 116 35
123 118 36
131 126 37
127 123 33
122 118 32
124 121 29
132 127 34
131 127 32
126 121 46
125 121 26
133 129 39
132 128 40
134 127 34
130 126 28
137 131 53
141 136 39
133 127 37
138 133 41
133 127 36
132 127 28
134 129 39
131 127 28
128 123 28
140 135 44
133 127 37
132 126 42
122 116 32
127 124 30
132 126 39
134 131 28
127 129 19
125 126 30
133 137 25
142 150 19
155 167 22
156 167 0
164 179 11
168 186 0
162 179 0
165 182 0
161 177 0
161 177 0
167 184 0
171 190 0
161 179 0
167 185 0
162 178 0
163 179 0
167 187 0
165 183 0
160 177 0
168 188 0
169 188 0
169 191 0
168 187 0
169 191 0
168 189 0
166 188 0
170 190 0
168 189 0
172 193 0
172 192 0
171 191 0
169 191 0
169 190 0
168 189 0
169 190 0
174 195 0
170 192 0
172 193 0
171 194 0
170 191 0
172 193 0
172 194 0
169 191 0
174 195 0
168 190 0
170 192 0
171 194 0
172 194 0
173 196 0
173 195 0
173 195 0
170 194 0
172 194 0
172 194 0
173 196 0
171 194 0
171 194 0
172 195 0
171 193 0
169 193 0
172 196 0
170 193 0
174 196 0
172 196 0
170 193 0
172 195 0
172 195 0
173 196 0
173 197 0
171 194 0
172 194 0
174 197 0
174 197 0
173 195 0
172 194 0
174 197 0
175 196 0
173 196 0
175 198 0
174 197 0
172 195 0
176 198 0
174 197 0
175 198 0
174 196 0
176 199 0
174 198 0
173 197 0
172 196 0
172 196 0
173 196 0
172 196 0
174 197 0
174 197 0
173 197 0
173 197 0
175 197 0
172 196 0
174 197 0
171 194 0
175 197 0
174 197 0
172 195 0
174 197 0
175 198 0
174 197 0
174 197 0
175 198 0
173 197 0
175 198 0
174 197 0
175 198 0
175 198 0
174 197 0
174 196 0
174 198 0
175 198 0
173 197 0
172 195 0
174 197 0
174 197 0
172 195 0
171 194 0
172 195 0
172 196 0
175 198 0
173 196 0
172 196 0
172 196 0
173 197 0
173 196 0
176 198 0
175 198 0
175 198 0
174 198 0
174 197 0
172 196 0
175 198 0
174 197 0
175 198 0
173 197 0
174 198 0
174 197 0
173 197 0
174 198 0
174 197 0
176 198 0
174 198 0
175 198 0
172 196 0
175 198 0
174 197 0
172 196 0
174 197 0
174 197 0
172 196 0
173 196 0
173 197 0
174 197 0
174 196 0
173 196 0
174 197 0
174 197 0
171 195 0
173 197 0
173 197 0
174 198 0
171 194 0
174 198 0
172 196 0
174 197 0
172 196 0
172 196 0
175 198 0
173 197 0
173 196 0
173 196 0
169 193 0
172 196 0
174 197 0
173 196 0
173 196 0
174 197 0
173 196 0
173 196 0
171 194 0
172 196 0
173 196 0
174 197 0
174 197 0
173 197 0
171 195 0
172 196 0
174 197 0
171 194 0
173 197 0
174 197 0
172 196 0
172 195 0
171 194 0
170 194 0
174 197 0
168 193 0
172 196 0
174 197 0
173 196 0
172 195 0
174 197 0
171 194 25
175 198 36
174 197 36
174 196 72
174 197 67
174 197 67
181 203 108
180 202 92
182 203 117
183 204 117
182 204 114
184 205 122
186 206 130
192 212 157
189 209 151
196 215 175
197 216 181
193 213 177
197 216 191
197 216 189
199 218 196
201 220 206
200 219 199
203 222 211
201 220 199
204 223 217
203 222 214
203 221 211
201 220 206
207 225 223
207 225 223
205 223 217
206 223 218
203 222 215
207 225 227
206 224 221
206 224 220
207 225 226
200 219 211
208 226 231
203 222 212
204 222 209
204 222 215
201 220 201
206 224 220
203 222 212
205 223 218
200 218 194
203 221 209
205 222 207
199 217 191
188 207 192
174 193 192
148 169 181
147 168 190
115 139 180
116 140 173
114 139 167
94 123 166
78 110 169
77 109 156
76 108 166
67 101 163
61 97 160
74 106 159
64 98 143
63 98 161
63 98 156
60 96 165
62 98 163
60 96 158
62 98 166
61 97 162
60 96 164
61 97 160
61 98 162
62 98 162
61 97 164
61 98 162
62 98 162
61 97 163
60 96 159
61 98 162
63 99 169
62 98 164
62 98 164
61 97 162
61 98 163
61 97 164
61 97 163
62 98 165
61 97 161
62 98 165
61 97 161
62 98 164
61 98 164
62 98 162
61 98 169
62 98 162
62 98 159
62 98 160
62 98 164
61 98 160
61 98 162
62 98 162
61 97 159
62 98 157
61 97 151
62 98 167
62 98 165
62 97 160
62 98 161
62 99 165
62 98 162
61 97 154
61 97 152
62 98 161
62 97 160
61 97 159
62 98 163
61 96 150
61 96 149
62 98 158
61 97 157
61 96 147
62 98 155
62 98 160
62 98 159
62 98 159
62 97 159
62 97 159
61 97 151
62 97 155
61 96 154
62 98 160
62 97 149
61 96 148
59 94 139
60 95 149
60 95 147
61 95 140
59 92 139
71 95 119
91 101 60
95 95 0
90 88 11
90 87 11
93 92 0
86 84 16
98 94 19
96 93 21
88 87 16
108 105 18
105 102 12
107 104 16
98 95 19
116 112 21
109 105 20
113 111 31
108 105 25
120 117 22
117 114 29
118 115 31
126 122 31
128 124 29
126 123 37
123 118 34
125 120 37
124 122 22
130 126 28
127 123 35
130 126 30
133 130 30
133 130 34
131 126 37
126 121 19
130 126 25
134 129 28
126 123 30
130 125 41
135 130 34
126 121 37
126 121 32
129 124 32
130 123 32
129 124 36
126 122 32
129 125 34
135 135 16
142 145 28
135 140 22
140 143 11
141 147 11
149 161 11
152 164 11
151 167 0
158 173 0
169 187 0
162 179 0
162 178 0
166 178 0
164 181 0
163 180 0
165 182 0
164 183 0
163 179 0
167 184 0
162 181 0
164 182 0
167 186 0
166 185 0
169 189 0
170 189 0
168 187 0
169 188 0
172 191 0
168 187 0
166 186 0
170 190 0
170 190 0
164 185 0
171 192 0
170 192 0
168 189 0
172 193 0
173 194 0
170 190 0
170 191 0
172 193 0
169 190 0
171 192 0
172 195 0
170 190 0
170 191 0
170 191 0
173 195 0
169 191 0
171 192 0
168 191 0
172 195 0
170 194 0
170 192 0
173 194 0
172 194 0
174 196 0
172 194 0
173 195 0
173 196 0
173 196 0
172 193 0
172 195 0
171 194 0
174 196 0
172 195 0
173 196 0
173 196 0
174 197 0
174 197 0
174 196 0
172 195 0
175 197 0
174 196 0
174 196 0
173 196 0
173 196 0
174 196 0
173 196 0
173 196 0
172 195 0
171 194 0
173 197 0
171 194 0
171 194 0
173 196 0
173 195 0
172 196 0
173 197 0
173 196 0
173 196 0
172 195 0
172 196 0
173 197 0
174 197 0
174 197 0
171 194 0
172 195 0
174 198 0
174 197 0
175 198 0
174 197 0
173 197 0
173 197 0
174 198 0
175 198 0
172 196 0
174 197 0
173 197 0
174 197 0
172 197 0
172 196 0
173 197 0
173 197 0
173 196 0
173 196 0
174 198 0
173 196 0
174 197 0
174 197 0
173 197 0
177 199 0
173 197 0
174 198 0
174 198 0
175 198 0
176 198 0
172 195 0
172 195 0
175 198 0
174 197 0
173 196 0
174 198 0
173 197 0
172 195 0
176 198 0
176 198 0
175 198 0
174 198 0
173 197 0
174 198 0
174 197 0
174 197 0
174 197 0
174 197 0
173 197 0
174 197 0
174 198 0
174 197 0
174 197 0
174 197 0
173 196 0
173 196 0
173 196 0
173 196 0
175 198 0
174 197 0
174 197 0
174 197 0
174 197 0
173 197 0
174 197 0
172 195 0
176 199 0
173 196 0
173 197 0
173 197 0
173 196 0
175 198 0
170 194 0
174 197 0
175 198 0
175 198 0
174 197 0
175 198 0
171 195 0
172 196 0
174 198 0
173 197 0
174 198 0
175 198 0
173 196 0
173 196 0
174 197 0
174 197 0
174 197 0
173 196 0
172 195 0
172 195 0
170 194 0
175 198 0
172 196 0
173 197 0
174 197 0
169 194 0
174 196 0
174 198 0
171 195 0
171 194 0
171 195 0
173 197 0
174 197 0
174 197 0
170 194 0
170 194 0
172 196 0
171 195 0
172 195 0
171 194 0
173 196 0
167 191 0
176 199 62
172 195 44
175 197 72
173 195 72
175 197 51
175 197 76
174 197 80
178 200 102
177 199 102
182 204 114
188 209 137
187 208 142
190 210 151
193 213 165
190 210 157
192 211 165
199 217 188
197 216 188
198 217 193
199 218 196
201 219 203
201 220 204
205 223 220
205 223 220
202 221 206
206 224 221
204 222 211
207 225 227
209 226 228
207 226 230
208 225 224
208 226 228
205 223 218
205 223 215
212 229 236
209 227 234
208 226 230
209 227 230
205 223 220
207 225 227
210 227 236
208 226 227
208 225 224
209 226 227
208 225 223
206 223 218
205 223 218
205 223 221
208 226 230
205 223 221
200 219 204
199 218 200
190 209 201
173 192 198
155 175 200
161 181 201
144 165 202
122 146 186
104 130 176
98 126 164
83 114 165
87 116 153
90 119 163
76 107 158
71 104 160
64 99 148
64 99 164
65 100 154
65 100 161
60 96 153
63 98 156
60 96 151
61 96 156
61 96 155
60 96 158
61 97 161
61 97 159
61 96 157
61 96 157
61 97 155
60 96 164
62 98 161
61 98 164
61 97 160
62 98 164
61 98 160
61 97 156
62 99 169
62 99 165
61 97 157
61 97 158
62 99 168
61 97 160
61 97 162
61 98 163
61 97 150
61 98 160
62 98 164
62 98 163
61 97 159
62 98 161
63 99 164
62 98 164
62 98 168
63 99 168
63 99 170
62 98 160
62 98 158
62 98 165
62 97 156
61 97 158
62 98 156
62 98 158
63 99 160
62 98 160
60 96 149
61 97 154
61 97 157
61 98 161
62 97 156
62 98 158
61 97 148
63 99 160
62 97 152
62 98 156
61 96 143
62 97 155
62 98 161
60 96 154
61 97 154
62 98 156
61 96 150
61 96 149
63 98 160
61 97 150
61 96 149
61 96 146
61 96 153
60 95 145
60 95 145
61 95 144
60 94 143
60 93 133
82 98 108
81 84 58
92 93 11
104 102 14
103 101 0
98 97 14
86 83 0
93 92 14
83 81 14
86 84 19
96 92 0
86 85 14
103 102 14
92 90 12
100 98 0
106 103 21
110 107 18
116 113 16
111 108 30
120 118 25
107 103 24
126 122 26
124 121 19
123 119 29
118 114 26
116 112 19
129 124 30
127 122 30
124 119 32
119 115 22
127 124 21
132 128 32
126 122 28
136 132 32
132 128 26
125 122 30
140 135 37
130 123 39
133 127 30
123 119 25
121 118 16
125 118 30
122 118 22
129 127 19
129 129 19
132 131 28
133 133 22
134 133 25
137 142 16
145 152 16
149 155 11
145 155 0
164 178 0
156 169 11
159 175 0
158 172 0
159 176 0
160 174 0
165 182 0
166 183 0
161 177 0
166 183 0
164 182 0
165 183 0
168 186 0
165 182 0
164 183 0
172 191 0
167 185 0
166 185 0
166 186 0
166 185 0
169 188 0
168 188 0
172 193 0
168 189 0
171 190 0
168 188 0
171 192 0
170 190 0
169 190 0
168 188 0
171 192 0
171 191 0
171 193 0
171 193 0
168 190 0
173 195 0
169 189 0
170 193 0
172 193 0
171 192 0
172 194 0
172 194 0
168 190 0
170 194 0
169 190 0
172 195 0
172 195 0
168 189 0
172 195 0
172 194 0
173 196 0
171 194 0
173 195 0
171 194 0
172 193 0
172 194 0
171 194 0
169 192 0
172 195 0
171 195 0
170 193 0
173 195 0
171 193 0
172 195 0
170 194 0
171 193 0
172 195 0
172 195 0
174 197 0
173 196 0
172 194 0
172 194 0
172 195 0
175 197 0
174 197 0
173 196 0
173 196 0
173 197 0
175 198 0
171 194 0
174 197 0
174 197 0
174 197 0
175 198 0
171 194 0
173 196 0
173 196 0
173 196 0
174 197 0
175 198 0
172 196 0
174 197 0
173 195 0
173 196 0
173 197 0
173 196 0
173 195 0
174 197 0
174 197 0
174 197 0
173 196 0
174 197 0
175 198 0
173 196 0
175 198 0
175 198 0
174 198 0
173 196 0
175 197 0
173 197 0
170 195 0
174 197 0
175 198 0
174 197 0
173 197 0
173 197 0
175 198 0
174 197 0
173 197 0
172 196 0
170 194 0
175 198 0
173 197 0
176 198 0
173 197 0
175 198 0
174 198 0
175 198 0
174 198 0
173 197 0
174 198 0
174 197 0
174 197 0
174 198 0
175 198 0
175 198 0
172 196 0
175 198 0
174 197 0
172 196 0
174 197 0
174 198 0
172 196 0
173 197 0
174 197 0
173 197 0
173 196 0
173 197 0
175 198 0
171 195 0
173 196 0
172 195 0
172 195 0
171 195 0
172 196 0
172 196 0
171 195 0
172 196 0
174 197 0
174 197 0
174 197 0
173 197 0
174 197 0
173 196 0
172 196 0
171 195 0
174 197 0
172 196 0
174 198 0
175 198 0
172 196 0
173 197 0
171 195 0
173 197 0
172 196 0
172 196 0
172 195 0
172 195 0
172 195 0
174 197 0
173 197 0
171 195 0
174 197 0
173 195 0
172 196 0
174 197 0
171 194 0
171 194 0
172 195 0
172 196 0
174 197 0
173 196 0
174 198 0
170 194 0
171 194 0
172 196 0
171 195 0
173 197 0
171 195 0
172 195 0
173 196 0
171 195 0
175 198 25
169 192 25
172 195 25
176 199 57
174 197 44
176 198 57
178 200 67
175 197 76
180 202 88
181 203 102
178 199 111
185 205 133
180 202 114
187 208 137
188 209 144
190 210 157
195 215 181
199 218 191
199 219 194
201 220 204
201 219 204
205 223 217
199 218 196
205 223 212
204 222 214
207 225 223
206 224 223
208 226 227
206 224 220
206 224 224
207 225 227
208 226 233
206 224 227
209 227 236
212 229 240
209 226 231
209 227 236
210 227 238
207 225 226
207 225 226
209 226 230
211 228 233
208 226 226
206 224 226
207 224 223
208 226 234
211 228 238
208 226 224
208 226 228
209 227 228
209 226 231
207 225 220
207 224 226
206 224 217
205 224 217
186 205 214
176 194 221
167 186 220
149 169 203
139 161 199
120 143 193
120 144 177
106 132 180
85 114 173
84 115 169
69 103 164
80 111 158
73 105 153
64 99 161
66 100 154
67 100 158
60 96 156
63 98 160
69 103 153
64 100 163
62 98 159
61 97 161
60 96 159
62 98 160
61 97 162
61 96 161
61 97 160
61 97 161
60 96 156
61 97 168
61 97 162
61 97 157
61 97 161
61 97 160
60 96 159
61 97 154
62 98 164
61 97 160
62 98 165
62 98 163
62 98 159
61 97 161
61 97 160
61 97 157
60 96 159
61 97 156
61 97 159
61 96 153
61 98 161
61 97 161
62 98 162
61 97 154
62 98 156
61 97 157
61 96 152
61 97 155
62 98 159
62 98 159
62 97 155
61 97 151
61 97 155
62 98 165
63 99 165
63 99 163
61 97 154
62 98 167
60 96 154
62 98 155
61 96 151
62 97 154
60 96 151
61 96 148
63 98 160
62 98 151
61 96 154
61 97 152
62 97 156
60 95 137
61 96 143
62 98 154
63 98 159
61 96 149
61 96 150
62 97 148
61 96 140
62 97 154
60 95 145
60 94 136
60 95 141
59 92 145
57 91 123
74 93 113
96 98 33
107 105 16
88 86 0
88 89 8
100 99 8
94 91 8
90 88 0
102 98 8
88 85 8
100 97 11
89 84 11
103 98 11
101 97 11
106 103 11
109 105 16
115 110 18
113 110 16
111 106 22
123 118 21
113 110 19
104 102 11
118 114 22
115 111 28
116 113 30
118 114 25
121 116 16
118 113 25
128 124 28
122 117 28
121 115 28
128 124 28
128 123 32
127 122 16
124 119 32
128 122 30
117 112 22
122 116 22
127 124 16
130 124 22
118 116 32
128 125 19
132 130 19
130 128 22
131 132 22
127 125 34
142 145 19
143 147 30
152 160 16
148 157 16
155 164 16
157 168 0
162 176 0
158 170 0
164 179 0
161 175 0
166 182 0
166 182 0
160 174 0
167 184 0
163 179 0
162 180 0
164 181 0
166 183 0
164 181 0
168 186 0
170 191 0
166 185 0
169 188 0
161 179 0
163 181 0
170 190 0
166 185 0
164 184 0
169 188 0
168 188 0
167 188 0
172 193 0
171 191 0
166 187 0
170 190 0
170 192 0
166 186 0
168 190 0
170 190 0
173 194 0
171 192 0
167 188 0
170 191 0
172 195 0
170 192 0
173 194 0
171 193 0
171 192 0
169 190 0
173 194 0
171 192 0
170 193 0
170 192 0
171 193 0
172 194 0
171 194 0
173 195 0
169 191 0
171 194 0
174 197 0
173 196 0
172 195 0
173 195 0
172 196 0
174 196 0
173 195 0
174 195 0
173 195 0
169 191 0
172 195 0
171 194 0
173 197 0
173 196 0
172 195 0
171 194 0
175 196 0
174 195 0
173 196 0
173 195 0
173 196 0
171 194 0
173 196 0
174 197 0
173 196 0
173 196 0
173 196 0
174 198 0
171 194 0
173 196 0
172 195 0
174 196 0
173 197 0
173 196 0
174 196 0
174 196 0
173 195 0
171 195 0
175 197 0
173 197 0
173 196 0
174 197 0
174 197 0
174 197 0
174 197 0
174 198 0
173 196 0
173 195 0
172 196 0
172 195 0
174 197 0
172 195 0
175 198 0
172 196 0
175 197 0
175 197 0
173 196 0
174 196 0
175 198 0
174 197 0
173 197 0
173 196 0
174 198 0
173 196 0
170 194 0
176 198 0
173 197 0
171 195 0
174 197 0
172 196 0
174 197 0
174 198 0
174 197 0
174 197 0
175 198 0
175 198 0
174 198 0
174 197 0
174 197 0
175 198 0
174 197 0
174 198 0
174 197 0
173 197 0
174 197 0
176 198 0
174 197 0
174 198 0
173 196 0
174 197 0
172 196 0
174 197 0
174 198 0
174 197 0
171 195 0
173 196 0
174 197 0
174 198 0
171 195 0
173 197 0
172 195 0
173 197 0
174 196 0
174 197 0
173 197 0
175 198 0
171 195 0
173 196 0
173 197 0
173 197 0
173 196 0
174 197 0
171 195 0
172 195 0
172 196 0
175 198 0
173 197 0
174 197 0
172 196 0
173 197 0
172 196 0
171 195 0
173 197 0
173 197 0
174 197 0
174 197 0
173 196 0
170 194 0
171 195 0
174 198 0
174 198 0
173 196 0
173 196 0
171 195 0
169 193 0
172 196 0
173 196 0
170 194 0
172 196 0
169 192 0
170 193 0
171 194 0
175 198 0
172 195 0
170 194 0
172 196 0
170 193 0
172 195 0
171 195 0
174 197 44
170 194 51
173 197 62
171 195 36
176 198 67
179 201 88
177 198 84
175 198 76
178 200 84
181 202 102
189 209 147
192 211 167
188 208 157
193 212 161
194 214 169
196 215 184
194 214 175
200 218 196
200 219 204
199 218 199
202 221 214
206 224 224
205 223 214
205 223 215
208 225 228
208 226 230
204 222 220
210 228 234
212 229 241
210 228 236
209 227 236
209 226 230
210 227 231
207 224 226
209 226 231
203 221 214
206 224 224
206 223 218
205 224 220
203 222 207
203 222 214
205 223 226
208 225 227
206 224 220
201 220 201
203 221 217
210 227 234
207 224 224
208 225 223
208 225 226
203 222 211
211 227 228
208 226 224
210 227 230
207 224 233
198 215 231
172 190 219
167 186 213
151 171 206
140 162 202
144 166 211
122 146 195
113 138 184
105 131 182
91 120 179
74 106 162
78 110 167
75 107 160
72 105 160
67 100 161
68 103 172
66 100 160
65 98 155
59 95 158
63 98 159
65 99 147
62 98 157
62 97 149
61 97 158
60 96 156
61 97 163
61 97 163
60 96 156
61 96 158
61 97 160
61 98 160
61 97 161
61 97 160
62 98 162
61 98 163
61 97 160
62 98 163
61 97 161
63 99 171
62 97 157
60 96 154
61 97 155
61 97 159
61 97 155
62 97 158
62 98 163
61 97 157
61 98 164
62 98 161
61 97 154
62 98 161
61 98 160
61 97 159
62 98 158
62 97 151
62 98 162
61 97 159
62 97 153
62 99 165
61 97 151
61 97 154
63 99 162
61 97 154
61 97 151
62 98 162
62 97 153
62 98 163
61 96 156
61 97 154
61 96 145
61 97 156
62 97 155
62 98 158
63 98 163
61 97 150
61 97 153
61 97 157
61 97 152
59 95 144
61 97 151
62 97 153
62 97 153
60 94 139
61 96 154
61 96 150
61 96 138
61 96 146
60 94 135
59 93 139
60 94 135
62 94 139
84 94 73
94 97 0
102 104 8
96 97 11
85 85 0
102 101 8
92 94 11
98 95 0
96 93 0
85 82 0
83 78 0
95 91 0
87 84 0
103 100 11
100 96 11
106 102 16
106 103 11
111 107 11
108 104 19
117 110 19
99 97 16
107 103 19
119 115 22
122 117 18
113 109 16
114 110 22
108 105 19
120 115 22
115 111 19
119 113 22
109 105 19
130 127 30
124 120 16
119 114 14
122 118 16
125 118 32
125 120 22
121 117 25
124 120 34
125 122 22
126 124 16
127 124 30
124 124 11
127 125 22
134 136 28
133 138 19
139 148 11
140 144 16
144 153 11
157 169 16
150 161 0
153 165 11
156 170 0
160 173 0
164 177 0
165 181 0
167 183 0
162 176 0
164 179 0
166 183 0
157 169 0
164 179 0
167 184 0
166 182 0
167 184 0
164 181 0
164 180 0
172 192 0
165 183 0
167 188 0
167 186 0
167 185 0
169 188 0
168 187 0
168 187 0
168 187 0
169 188 0
171 191 0
169 189 0
169 187 0
170 191 0
167 185 0
169 191 0
171 192 0
170 192 0
172 194 0
172 193 0
174 195 0
168 189 0
172 193 0
171 194 0
172 192 0
170 193 0
172 193 0
172 193 0
172 195 0
171 193 0
173 195 0
170 191 0
169 191 0
172 194 0
174 196 0
170 193 0
172 194 0
172 193 0
175 196 0
170 193 0
173 196 0
172 195 0
170 192 0
173 195 0
173 195 0
173 196 0
173 195 0
174 197 0
172 195 0
172 195 0
170 193 0
172 196 0
171 195 0
174 196 0
174 197 0
171 195 0
174 196 0
171 194 0
172 196 0
175 198 0
172 196 0
173 196 0
174 198 0
174 197 0
174 197 0
173 197 0
174 197 0
173 197 0
173 197 0
172 195 0
173 196 0
172 196 0
174 198 0
175 198 0
174 197 0
175 198 0
173 197 0
171 195 0
171 195 0
173 196 0
173 196 0
172 196 0
174 197 0
174 198 0
173 196 0
174 197 0
174 197 0
173 197 0
172 195 0
174 198 0
174 198 0
174 197 0
174 198 0
172 195 0
173 196 0
174 197 0
175 198 0
175 198 0
172 196 0
174 198 0
171 196 0
175 198 0
173 197 0
173 197 0
174 197 0
174 197 0
174 198 0
174 198 0
174 197 0
174 197 0
174 198 0
172 196 0
173 197 0
174 197 0
173 196 0
172 195 0
173 197 0
173 197 0
174 197 0
174 197 0
176 198 0
173 197 0
174 197 0
172 195 0
174 197 0
172 196 0
173 197 0
174 198 0
173 197 0
173 197 0
174 198 0
173 197 0
176 198 0
173 197 0
173 197 0
170 194 0
174 197 0
174 197 0
174 197 0
172 196 0
176 198 0
171 195 0
173 197 0
174 197 0
172 196 0
173 196 0
173 196 0
175 198 0
174 197 0
170 194 0
173 196 0
175 198 0
172 195 0
173 196 0
170 193 0
174 197 0
174 197 0
171 195 0
172 196 0
173 197 0
173 197 0
173 197 0
173 196 0
173 196 0
171 195 0
174 196 0
174 197 0
172 196 0
171 195 0
171 195 0
173 197 0
171 195 0
175 198 0
170 194 0
172 195 0
172 196 0
173 196 0
171 195 0
172 194 0
173 197 0
172 196 0
173 196 0
172 196 0
170 194 0
173 196 25
174 197 36
172 195 57
175 197 57
175 198 36
178 200 72
174 197 72
176 198 80
180 202 95
181 203 102
183 204 111
181 202 114
193 213 159
192 211 157
191 210 153
196 215 175
195 215 177
197 217 184
196 215 182
201 220 201
202 221 207
206 224 224
203 222 214
204 223 217
209 227 230
209 227 236
209 226 231
206 224 223
207 225 226
207 225 226
212 229 238
205 224 218
204 222 224
207 225 231
207 225 220
202 221 207
205 223 218
203 221 206
197 217 196
201 220 203
195 214 196
200 219 203
196 216 188
201 219 198
198 217 188
197 217 191
205 223 211
199 218 201
199 217 196
201 220 206
206 223 224
199 218 206
200 219 198
204 222 214
205 223 218
204 222 215
207 224 226
196 214 223
185 203 221
176 195 227
162 181 210
142 164 205
133 156 200
131 154 194
135 158 203
124 147 196
101 127 180
89 118 180
87 117 178
81 112 173
68 103 169
77 109 162
68 103 160
66 101 159
63 98 162
63 99 160
64 98 150
61 97 153
61 97 159
60 95 154
60 95 155
60 96 151
61 97 158
61 96 149
60 96 158
60 96 158
61 97 166
61 97 159
61 97 156
61 97 162
61 97 158
62 98 168
61 96 157
61 97 159
62 97 163
61 97 158
61 97 159
60 96 161
61 97 161
62 98 165
61 97 157
61 97 160
61 97 162
61 97 157
62 98 158
61 97 153
62 98 160
62 98 154
62 98 158
62 97 155
62 98 159
62 97 155
62 98 164
62 98 161
63 99 163
61 97 154
62 99 163
61 97 156
62 97 151
60 96 145
62 98 164
61 97 157
61 97 152
61 97 156
61 96 148
61 96 149
62 98 157
61 97 151
62 97 150
62 97 152
61 97 159
62 97 156
60 96 152
62 97 152
62 97 150
61 96 148
62 98 151
61 95 146
61 96 144
61 96 153
61 96 145
62 98 154
61 96 149
61 96 140
61 96 152
60 94 144
59 92 134
60 94 140
59 87 112
86 99 84
110 114 18
109 111 0
101 102 0
103 105 0
100 101 3
95 94 0
96 93 8
94 94 8
90 88 8
98 95 0
96 95 0
103 101 0
94 89 11
103 98 3
103 97 0
87 84 0
111 107 18
103 100 16
103 98 16
99 97 11
110 105 11
115 111 11
92 87 11
109 104 0
126 121 22
119 114 19
113 110 11
114 109 19
111 108 11
122 118 22
121 117 19
123 120 11
123 120 22
121 119 11
117 112 16
118 115 19
127 124 32
120 116 22
123 118 16
130 129 11
127 127 11
136 135 25
133 136 11
137 139 16
144 150 11
145 151 0
148 153 11
152 166 0
155 166 0
154 165 0
155 166 0
159 173 0
154 166 0
164 178 0
163 180 0
162 176 0
162 178 0
160 173 0
156 172 0
164 180 0
165 182 0
166 183 0
162 180 0
163 178 0
163 178 0
162 181 0
169 188 0
169 189 0
170 190 0
163 181 0
164 182 0
167 187 0
164 184 0
169 190 0
169 189 0
167 187 0
169 188 0
165 184 0
167 186 0
168 189 0
170 190 0
168 189 0
166 187 0
169 191 0
170 192 0
174 193 0
166 186 0
166 186 0
169 190 0
170 192 0
173 194 0
171 192 0
172 193 0
171 192 0
171 194 0
171 193 0
171 192 0
171 192 0
171 194 0
170 191 0
170 193 0
170 192 0
172 196 0
171 194 0
173 195 0
173 195 0
171 193 0
171 193 0
172 194 0
171 195 0
173 196 0
175 197 0
171 193 0
173 196 0
175 198 0
172 194 0
170 192 0
173 196 0
173 196 0
174 197 0
174 196 0
173 196 0
172 195 0
173 197 0
174 197 0
174 197 0
171 193 0
171 194 0
172 197 0
175 198 0
172 195 0
173 196 0
173 196 0
174 196 0
173 196 0
172 195 0
175 197 0
175 197 0
173 196 0
173 196 0
173 195 0
173 197 0
174 196 0
174 197 0
174 197 0
176 198 0
175 198 0
174 196 0
173 197 0
174 197 0
174 197 0
174 197 0
171 195 0
172 195 0
174 197 0
172 195 0
173 196 0
173 196 0
174 197 0
173 196 0
174 197 0
175 197 0
172 196 0
173 197 0
173 196 0
174 197 0
174 197 0
171 195 0
174 197 0
174 198 0
174 198 0
174 197 0
173 196 0
175 198 0
171 195 0
173 197 0
174 197 0
174 197 0
174 197 0
173 196 0
175 198 0
173 196 0
173 197 0
174 197 0
173 197 0
172 196 0
174 197 0
173 197 0
172 196 0
173 196 0
173 196 0
172 195 0
176 198 0
174 197 0
174 198 0
175 198 0
174 197 0
175 198 0
174 197 0
173 197 0
175 198 0
173 196 0
173 197 0
173 197 0
175 198 0
173 197 0
174 197 0
175 198 0
173 196 0
172 196 0
173 196 0
172 196 0
173 197 0
173 197 0
172 197 0
175 198 0
171 195 0
172 196 0
173 197 0
174 198 0
173 196 0
174 197 0
172 195 0
173 197 0
171 195 0
175 198 0
173 197 0
173 197 0
174 197 0
171 194 0
173 196 0
170 194 0
173 196 0
172 196 0
175 197 0
170 194 0
173 196 0
172 196 0
171 195 0
173 196 0
172 195 0
170 193 0
171 194 0
169 193 0
173 197 0
168 192 0
173 196 0
173 197 0
173 197 0
170 193 0
173 195 25
171 194 44
172 196 36
170 193 51
171 195 25
177 199 76
175 198 67
175 197 88
181 203 105
189 209 140
184 206 122
188 208 135
186 207 135
191 211 157
197 216 182
195 215 182
201 219 194
199 218 196
203 222 209
205 223 217
206 224 221
200 219 201
206 224 223
206 224 223
212 229 238
209 227 233
211 228 234
206 224 223
210 227 231
201 220 204
204 223 217
202 221 211
200 219 204
199 217 201
195 214 184
197 216 193
197 216 189
195 215 182
193 213 169
196 216 184
192 212 179
193 213 171
188 209 155
190 211 161
190 211 169
193 213 177
192 212 169
193 213 177
194 214 175
194 213 177
201 220 206
197 216 194
194 213 173
198 217 196
199 218 193
203 222 211
194 213 199
187 206 212
175 193 215
165 184 207
155 176 213
149 170 206
136 159 199
139 161 204
133 156 199
118 143 191
109 135 186
108 134 183
87 117 182
94 122 178
74 106 170
68 103 169
81 112 168
72 105 160
67 101 156
69 102 158
66 101 153
60 95 153
65 100 158
62 97 166
59 94 144
67 100 148
61 97 158
62 98 162
61 96 152
61 97 158
60 96 157
62 98 164
60 96 161
62 98 163
60 95 153
60 96 155
61 97 164
62 98 160
61 98 161
62 98 163
62 98 161
61 96 156
60 96 156
62 98 165
61 97 158
62 98 160
62 98 161
60 95 147
61 97 157
62 98 162
62 98 161
62 98 159
62 98 159
61 97 152
63 99 161
61 97 157
62 98 162
60 95 156
60 96 148
61 97 152
62 98 157
62 98 163
62 98 155
61 97 152
62 98 154
63 99 157
62 98 156
61 97 151
62 97 152
62 98 157
61 97 155
62 97 153
62 97 151
62 98 155
61 97 151
61 97 154
61 96 149
61 97 152
62 97 157
62 97 159
60 96 142
61 96 143
61 97 151
62 98 155
62 97 151
61 96 145
60 94 143
61 96 143
60 94 142
60 94 134
60 94 138
58 91 128
66 91 116
105 117 57
122 129 0
107 112 0
103 105 0
80 79 0
103 106 0
104 105 0
107 107 0
88 86 0
95 94 0
105 102 0
96 98 0
93 92 0
110 104 0
95 89 11
107 102 0
112 108 0
106 101 8
104 101 0
107 101 0
110 106 0
107 100 8
110 105 0
103 98 0
100 95 0
111 107 0
116 111 11
111 107 0
109 103 16
111 106 11
113 108 0
119 116 0
101 93 19
111 106 11
123 118 0
112 107 19
117 116 11
124 124 11
119 118 16
127 127 11
139 139 16
135 135 0
136 138 19
141 146 11
134 138 11
139 143 11
140 147 11
150 160 0
151 160 0
155 167 0
157 167 0
147 156 0
158 171 0
157 171 0
157 173 0
163 176 0
161 176 0
159 174 0
163 181 0
165 181 0
168 183 0
163 180 0
161 179 0
165 182 0
165 183 0
167 184 0
163 180 0
167 185 0
166 185 0
163 181 0
165 185 0
164 182 0
168 186 0
167 187 0
165 185 0
166 183 0
168 187 0
166 187 0
167 186 0
165 185 0
168 187 0
169 191 0
173 195 0
169 190 0
171 191 0
173 194 0
172 193 0
167 187 0
170 193 0
169 189 0
170 191 0
173 195 0
171 192 0
172 195 0
172 194 0
170 193 0
172 195 0
172 193 0
171 194 0
172 194 0
167 189 0
170 193 0
173 195 0
173 196 0
173 194 0
170 194 0
173 195 0
172 196 0
171 193 0
174 197 0
174 196 0
172 195 0
173 196 0
174 197 0
171 195 0
173 195 0
172 195 0
172 195 0
172 193 0
173 196 0
173 197 0
173 196 0
174 197 0
173 196 0
173 195 0
173 197 0
173 196 0
173 195 0
172 194 0
171 195 0
172 195 0
172 196 0
169 192 0
172 195 0
173 196 0
176 197 0
172 195 0
174 196 0
171 195 0
174 196 0
173 197 0
174 197 0
173 194 0
173 196 0
173 197 0
171 195 0
173 196 0
175 198 0
174 197 0
173 197 0
172 195 0
175 198 0
172 196 0
173 196 0
174 197 0
174 196 0
172 195 0
174 198 0
173 196 0
174 197 0
174 197 0
173 196 0
174 198 0
175 198 0
174 198 0
173 197 0
173 196 0
171 196 0
175 198 0
174 198 0
174 198 0
174 198 0
173 196 0
173 196 0
176 198 0
173 196 0
172 196 0
174 197 0
172 196 0
175 198 0
174 198 0
174 197 0
174 198 0
172 195 0
172 195 0
174 198 0
173 197 0
173 197 0
174 197 0
173 197 0
173 197 0
173 196 0
173 197 0
171 196 0
174 197 0
174 197 0
173 197 0
172 195 0
172 196 0
172 196 0
174 197 0
175 198 0
173 197 0
173 197 0
172 195 0
171 194 0
173 197 0
174 196 0
173 196 0
172 197 0
172 195 0
174 197 0
173 197 0
172 196 0
172 195 0
174 197 0
174 197 0
173 197 0
172 196 0
174 197 0
171 195 0
173 196 0
173 197 0
174 197 0
172 196 0
173 196 0
173 197 0
173 196 0
172 196 0
174 197 0
173 197 0
172 196 0
168 192 0
170 194 0
171 194 0
172 195 0
174 197 0
171 195 0
173 197 0
173 197 0
172 196 0
174 197 0
172 195 0
174 197 0
170 195 0
172 196 0
173 196 0
173 197 0
172 196 0
173 196 0
174 197 51
172 195 25
175 197 57
173 195 62
177 199 72
175 198 57
175 198 57
183 204 105
181 204 114
178 200 105
188 208 130
189 208 147
189 209 151
192 212 151
198 217 181
196 216 177
198 217 186
200 220 199
201 220 198
207 225 221
203 221 211
205 223 215
204 223 218
206 224 221
209 227 230
205 223 218
205 223 218
206 224 221
205 224 221
204 222 212
202 221 207
199 218 193
201 219 198
193 213 171
193 213 179
190 211 161
192 212 175
190 212 169
185 206 142
189 209 153
180 202 130
188 209 144
184 205 147
190 211 157
182 205 128
185 206 135
184 206 137
181 203 122
185 206 144
188 209 161
186 207 144
190 211 161
190 211 153
188 209 159
196 216 182
191 211 175
187 208 165
181 200 193
176 195 203
158 177 201
155 176 205
152 173 205
140 163 199
141 163 200
142 164 201
133 156 195
122 146 198
113 138 190
112 137 187
84 115 175
98 126 182
81 111 169
74 107 166
78 110 165
69 102 165
75 106 166
70 104 163
69 102 151
62 97 155
62 98 158
64 98 156
61 96 159
61 97 154
60 96 160
61 96 152
62 98 159
61 96 154
60 96 158
61 96 157
60 96 157
61 96 158
61 97 154
60 96 152
61 97 159
60 96 154
60 96 158
62 98 161
61 96 155
60 96 151
61 97 159
61 97 154
61 96 150
61 97 160
62 99 166
61 96 153
61 97 162
60 96 153
62 98 156
62 97 153
61 97 158
62 98 159
62 97 158
62 98 156
61 97 153
62 98 158
62 98 160
62 97 154
61 97 157
62 97 153
61 97 156
61 96 158
60 96 147
62 98 153
62 97 155
61 96 149
61 97 152
61 97 151
62 97 154
61 97 154
61 97 147
61 96 140
62 98 155
61 96 147
62 97 152
62 97 150
61 96 143
61 96 150
60 95 143
61 96 147
60 95 143
61 97 144
61 96 145
61 97 154
61 96 153
61 95 142
59 93 130
59 92 130
59 93 132
59 93 130
76 99 109
106 113 36
109 116 0
115 118 0
100 103 0
83 82 0
105 106 11
104 109 0
97 96 0
93 91 11
106 107 8
80 78 0
103 100 11
96 94 0
97 95 0
102 99 0
100 93 16
96 92 0
105 102 0
96 92 0
109 104 0
104 97 0
104 98 0
108 102 0
105 102 11
119 113 0
106 100 0
104 99 0
116 107 16
104 99 16
110 104 11
124 119 16
117 112 16
120 115 11
121 118 11
127 123 11
112 112 0
115 112 11
118 113 16
127 123 11
122 125 16
133 132 19
138 146 0
129 132 11
134 137 0
148 157 0
151 162 0
146 154 0
155 165 11
150 158 0
153 165 0
154 165 0
160 173 0
160 175 0
158 172 0
158 171 0
160 173 0
163 177 0
161 176 0
165 182 0
160 175 0
163 178 0
165 183 0
164 179 0
158 175 0
168 186 0
171 190 0
160 180 0
164 182 0
168 188 0
168 189 0
167 187 0
166 184 0
164 184 0
169 187 0
166 186 0
169 190 0
167 185 0
171 194 0
167 186 0
168 187 0
172 195 0
168 186 0
167 190 0
170 190 0
168 189 0
172 193 0
168 186 0
169 191 0
172 192 0
169 191 0
168 190 0
170 191 0
171 191 0
171 193 0
171 194 0
171 193 0
173 194 0
171 194 0
170 191 0
172 193 0
170 193 0
171 192 0
169 192 0
173 196 0
171 195 0
172 195 0
173 195 0
172 195 0
173 195 0
172 195 0
173 194 0
173 195 0
173 196 0
172 194 0
172 195 0
172 195 0
173 195 0
175 197 0
175 198 0
172 195 0
172 194 0
173 195 0
173 196 0
173 195 0
173 196 0
172 195 0
174 195 0
172 195 0
173 196 0
173 197 0
174 197 0
172 194 0
174 198 0
175 198 0
173 196 0
173 196 0
173 196 0
174 197 0
174 197 0
174 197 0
171 194 0
171 195 0
171 194 0
173 196 0
173 197 0
173 196 0
173 195 0
171 194 0
173 196 0
174 197 0
173 196 0
175 198 0
174 197 0
175 198 0
171 193 0
174 198 0
174 198 0
174 198 0
174 197 0
173 197 0
174 198 0
174 197 0
174 197 0
176 198 0
174 197 0
172 196 0
174 197 0
175 198 0
173 197 0
175 197 0
171 195 0
175 198 0
174 198 0
175 198 0
174 198 0
174 197 0
175 198 0
176 198 0
175 198 0
174 198 0
173 197 0
174 197 0
174 198 0
173 197 0
173 196 0
171 194 0
173 197 0
172 196 0
173 196 0
173 197 0
172 196 0
174 197 0
173 197 0
172 196 0
176 198 0
173 197 0
171 195 0
173 197 0
174 198 0
173 197 0
173 196 0
173 196 0
174 198 0
174 197 0
175 198 0
173 197 0
172 196 0
170 195 0
172 196 0
173 197 0
174 197 0
174 197 0
173 197 0
175 198 0
171 195 0
172 196 0
173 197 0
174 197 0
173 196 0
172 196 0
174 197 0
174 197 0
172 195 0
175 198 0
172 196 0
171 195 0
173 196 0
170 194 0
173 196 0
174 197 0
172 195 0
175 198 0
172 196 0
172 196 0
172 196 0
173 196 0
170 194 0
170 194 0
174 197 0
173 197 0
169 193 0
173 196 0
173 197 0
169 193 0
173 196 0
173 197 0
171 195 0
175 198 25
172 196 0
172 196 25
173 197 36
171 194 25
170 194 25
175 198 57
174 198 62
175 198 72
179 201 80
179 201 88
185 206 125
189 209 147
188 208 142
193 213 167
191 211 155
196 216 182
197 216 182
202 221 203
199 218 193
203 222 211
200 219 198
209 226 231
208 225 224
206 224 218
204 222 217
204 222 212
209 226 230
205 223 215
205 224 221
194 214 182
197 217 194
197 216 189
197 216 194
196 215 182
191 211 169
189 210 159
184 205 135
186 208 147
185 207 142
186 208 144
177 200 102
178 201 111
175 198 108
178 201 105
177 201 111
181 203 114
182 204 114
181 203 125
183 205 125
176 198 88
180 202 114
180 202 120
180 202 122
179 201 102
181 203 128
181 203 108
182 205 130
177 198 126
189 209 178
173 194 177
157 179 194
154 175 195
150 171 202
135 158 191
137 159 197
137 159 190
122 147 192
114 139 181
109 135 187
103 130 185
114 139 191
106 132 189
91 120 179
92 121 181
76 108 178
81 112 176
69 102 162
68 102 164
74 107 162
61 97 160
68 101 161
65 99 153
62 97 155
63 97 152
68 101 149
59 94 145
60 95 145
62 97 157
61 97 151
61 96 154
60 96 154
62 97 159
60 96 155
61 97 160
61 97 159
60 96 154
60 95 151
61 97 157
60 96 161
61 96 151
61 96 154
60 96 149
62 98 159
63 99 163
61 97 157
62 98 157
61 97 155
62 98 159
61 96 152
61 97 156
62 98 163
61 97 152
62 98 159
61 97 153
61 96 150
61 97 153
63 98 161
62 97 154
61 97 155
62 97 156
61 97 153
62 98 156
62 98 157
60 96 142
60 96 150
62 97 154
62 97 152
61 97 149
62 97 154
62 97 152
59 95 137
61 96 147
61 96 152
62 97 150
61 97 148
62 98 158
62 97 153
61 96 147
61 97 145
62 98 153
60 94 140
62 97 150
61 96 136
61 96 147
59 94 135
59 94 136
59 93 134
60 95 140
62 96 145
58 92 125
65 96 126
90 104 79
113 121 41
105 107 0
110 115 11
118 120 0
112 114 0
104 102 0
115 117 0
105 107 0
93 92 0
91 91 0
88 88 0
99 98 8
82 80 0
102 102 0
104 100 0
94 91 0
100 98 0
99 95 0
104 101 0
99 95 11
104 100 0
118 112 0
100 96 0
93 88 0
108 103 11
113 109 0
93 90 0
114 110 11
115 113 0
114 112 16
118 114 0
116 115 16
119 115 0
128 124 19
116 113 11
128 125 11
126 124 11
126 126 19
133 130 11
131 132 16
130 133 11
135 139 11
143 147 0
142 149 0
142 147 11
143 147 0
151 159 0
153 164 0
147 157 0
155 167 0
156 169 0
153 166 0
160 174 0
159 172 0
159 173 0
160 175 0
159 173 0
158 173 0
160 174 0
162 176 0
164 180 0
162 179 0
160 177 0
168 187 0
166 186 0
162 181 0
163 182 0
165 184 0
167 185 0
167 186 0
169 189 0
169 188 0
165 183 0
167 186 0
167 189 0
168 187 0
168 189 0
166 185 0
168 187 0
167 187 0
167 186 0
170 191 0
172 194 0
171 192 0
172 193 0
172 193 0
173 194 0
171 194 0
171 192 0
172 194 0
169 189 0
170 190 0
172 194 0
166 186 0
170 191 0
171 193 0
169 191 0
171 193 0
172 194 0
170 192 0
171 193 0
172 194 0
171 193 0
171 192 0
171 193 0
169 191 0
171 194 0
172 194 0
173 196 0
174 197 0
173 195 0
171 193 0
173 196 0
171 195 0
173 195 0
173 196 0
170 193 0
172 194 0
173 195 0
175 197 0
174 197 0
170 193 0
172 194 0
173 196 0
172 195 0
174 197 0
171 193 0
172 195 0
174 196 0
173 197 0
173 196 0
174 196 0
171 195 0
173 196 0
173 196 0
174 197 0
176 199 0
173 197 0
172 196 0
171 194 0
174 197 0
174 197 0
175 197 0
173 197 0
173 197 0
173 196 0
174 198 0
172 195 0
175 198 0
175 198 0
173 195 0
174 197 0
172 195 0
175 198 0
173 197 0
173 197 0
172 196 0
172 195 0
173 196 0
175 197 0
175 198 0
174 197 0
175 197 0
172 196 0
174 197 0
175 198 0
173 197 0
173 197 0
173 196 0
172 195 0
173 196 0
173 197 0
174 198 0
172 195 0
174 198 0
173 197 0
175 198 0
172 196 0
173 197 0
174 197 0
174 198 0
174 198 0
172 195 0
176 198 0
173 197 0
173 197 0
174 197 0
175 198 0
173 197 0
174 197 0
173 197 0
173 197 0
175 197 0
174 197 0
171 195 0
175 198 0
174 197 0
173 196 0
174 198 0
171 195 0
174 197 0
175 198 0
175 198 0
174 198 0
171 195 0
172 196 0
170 193 0
173 196 0
174 196 0
172 195 0
173 196 0
172 196 0
172 196 0
175 198 0
172 195 0
172 196 0
173 197 0
170 193 0
173 197 0
176 198 0
171 195 0
172 196 0
172 196 0
172 195 0
173 196 0
172 196 0
175 198 0
171 195 0
172 195 0
172 195 0
171 194 0
171 195 0
174 197 0
173 197 0
173 196 0
171 194 0
174 197 0
172 196 0
172 195 0
172 196 0
174 196 0
172 195 0
173 196 0
173 196 0
171 195 0
173 196 0
170 194 0
174 197 0
173 197 36
170 194 0
174 198 57
174 197 57
173 196 57
177 199 67
179 201 88
180 202 99
183 204 117
184 205 122
186 207 133
186 207 133
188 209 151
193 213 165
200 219 193
195 215 179
200 219 196
201 220 204
204 222 209
206 224 217
209 226 228
208 225 220
203 222 214
205 222 212
205 224 217
198 216 204
202 220 206
202 221 211
197 217 193
193 214 177
193 213 175
192 212 179
193 213 171
183 205 130
187 208 149
181 203 117
182 204 130
179 201 102
183 205 122
181 203 105
177 201 102
179 203 120
178 201 80
176 199 88
175 198 80
174 197 44
175 198 72
176 200 92
173 196 76
174 197 76
175 198 72
173 195 67
174 197 92
175 198 84
179 201 88
176 198 80
180 202 88
175 198 99
168 191 121
165 188 139
145 167 181
126 148 181
142 165 197
130 153 178
130 154 185
121 146 177
129 153 189
125 149 175
117 142 181
106 133 180
88 117 179
89 118 178
101 128 180
91 120 178
85 115 176
73 105 168
71 104 164
77 109 171
66 101 162
64 99 166
66 101 166
61 97 160
60 96 160
64 98 153
60 96 151
60 96 154
62 97 154
61 96 154
61 97 153
60 95 151
62 98 162
61 97 152
61 96 154
60 96 153
60 95 151
61 96 156
61 97 158
61 97 160
61 96 151
60 95 153
61 97 158
61 96 149
62 98 159
62 97 153
61 97 157
61 96 150
61 97 151
62 98 161
61 97 160
63 98 158
59 95 140
62 98 158
61 97 160
61 97 156
61 96 154
61 97 152
61 97 151
61 97 150
62 98 159
62 97 152
62 98 161
61 97 153
61 96 150
62 98 158
61 97 153
61 97 154
60 95 147
61 96 149
62 98 156
62 97 152
61 96 149
61 96 145
61 96 140
61 97 150
61 97 156
61 96 145
61 96 149
60 96 142
61 96 141
60 94 144
60 96 145
61 96 140
61 96 141
61 96 142
60 95 133
60 95 141
60 94 134
61 95 145
59 93 135
59 93 132
73 97 104
97 109 52
110 115 31
111 116 0
117 120 0
111 113 0
111 116 0
109 110 0
98 100 0
105 108 0
97 98 0
100 104 0
109 107 0
103 103 0
92 89 0
106 104 0
101 99 0
92 88 0
97 97 0
107 106 0
101 98 0
104 99 0
101 97 0
106 103 0
101 99 0
114 111 0
108 102 0
110 107 0
108 103 0
110 106 0
114 111 11
121 117 0
122 119 0
117 114 0
123 119 19
116 112 0
122 123 0
122 121 0
118 116 0
130 131 16
139 146 11
142 146 0
141 148 11
136 144 0
148 158 0
144 149 0
152 158 0
142 152 0
152 161 0
147 156 0
158 169 0
155 167 0
156 167 0
158 171 0
156 167 0
162 176 0
155 167 0
158 170 0
163 179 0
163 181 0
167 181 0
165 182 0
162 181 0
165 181 0
163 180 0
163 179 0
163 180 0
163 181 0
167 184 0
168 189 0
163 181 0
165 183 0
163 182 0
168 188 0
168 186 0
170 191 0
167 185 0
169 189 0
168 188 0
169 188 0
168 187 0
166 185 0
171 192 0
167 187 0
167 188 0
170 190 0
164 184 0
168 190 0
170 191 0
168 189 0
171 191 0
168 189 0
170 192 0
168 188 0
171 190 0
170 193 0
170 192 0
169 191 0
171 192 0
172 194 0
171 192 0
171 193 0
170 192 0
173 196 0
167 189 0
173 195 0
170 193 0
172 194 0
170 193 0
174 196 0
170 192 0
173 195 0
171 192 0
174 197 0
172 194 0
171 193 0
173 196 0
173 195 0
173 196 0
173 196 0
173 197 0
172 195 0
174 197 0
172 195 0
171 193 0
174 197 0
171 194 0
173 195 0
171 194 0
172 195 0
172 195 0
173 196 0
172 194 0
172 195 0
172 196 0
173 197 0
173 197 0
175 197 0
173 197 0
174 197 0
174 197 0
174 196 0
174 197 0
173 196 0
173 196 0
173 196 0
174 198 0
173 196 0
175 198 0
176 198 0
171 195 0
175 197 0
174 197 0
171 195 0
174 197 0
175 197 0
172 195 0
174 197 0
175 198 0
173 197 0
172 196 0
172 195 0
175 198 0
175 197 0
175 197 0
174 198 0
175 198 0
175 198 0
172 196 0
173 196 0
175 197 0
174 197 0
173 197 0
176 198 0
172 195 0
174 197 0
173 197 0
173 197 0
171 195 0
173 197 0
173 196 0
172 197 0
173 197 0
174 197 0
172 196 0
173 197 0
174 197 0
175 198 0
174 196 0
172 196 0
172 196 0
174 197 0
174 197 0
174 197 0
175 198 0
175 198 0
173 197 0
174 198 0
172 196 0
173 197 0
173 196 0
172 195 0
174 197 0
175 198 0
172 195 0
171 195 0
174 197 0
172 195 0
172 195 0
172 195 0
173 197 0
173 197 0
173 196 0
173 196 0
170 195 0
173 196 0
173 196 0
173 197 0
171 194 0
176 198 0
171 195 0
171 194 0
173 197 0
173 196 0
172 196 0
171 195 0
174 198 0
171 195 0
173 196 0
172 196 0
175 198 0
173 197 0
171 195 0
173 196 0
175 197 0
175 198 0
174 197 0
174 198 0
174 197 0
172 195 0
173 196 0
169 192 0
174 196 0
174 197 0
171 195 0
170 193 0
170 194 0
173 196 0
172 195 0
175 198 51
173 196 25
172 196 51
172 195 51
170 194 57
179 201 76
179 201 80
176 198 80
180 200 114
186 207 128
184 205 111
187 207 135
192 211 163
195 215 175
199 217 193
201 218 194
199 218 194
201 220 199
208 226 227
206 223 215
203 221 211
207 225 227
205 223 215
204 222 220
202 220 204
200 219 198
199 218 189
198 217 189
196 216 186
194 214 179
187 208 147
190 210 151
183 205 142
184 206 142
182 204 122
179 201 105
177 200 88
174 197 92
174 198 67
177 200 105
174 198 80
173 197 88
174 197 72
175 199 80
172 196 51
174 198 76
175 198 72
173 198 88
171 194 51
173 196 72
172 196 62
173 196 72
172 195 76
174 197 76
173 197 62
173 197 51
174 197 88
174 197 76
171 194 57
165 188 97
151 174 133
112 138 161
98 126 154
121 145 170
124 148 181
113 139 168
109 135 175
102 129 172
100 127 175
98 126 169
92 121 174
98 126 180
90 119 177
88 118 182
89 118 183
78 110 171
79 110 177
65 101 172
68 103 170
66 101 167
69 102 161
67 101 155
70 103 162
63 98 159
60 95 151
68 102 154
63 97 151
66 100 156
60 95 142
60 95 148
60 95 150
61 97 161
61 97 157
60 96 156
62 98 165
60 95 148
60 96 151
60 95 149
61 97 162
61 96 148
61 96 152
61 97 161
59 95 147
62 98 159
61 96 149
62 97 161
60 96 154
61 96 152
60 96 148
60 96 147
62 97 156
62 97 155
61 96 154
61 97 150
61 96 151
62 98 159
61 97 155
62 97 150
62 97 150
62 98 160
62 98 157
61 96 147
61 97 151
61 96 147
62 98 157
61 96 151
62 97 156
62 97 151
62 98 155
60 96 144
61 96 150
60 96 147
61 97 151
62 98 157
61 97 149
62 97 153
60 94 141
61 97 154
60 96 144
60 95 144
61 97 155
60 95 136
62 97 150
59 93 132
60 95 140
61 95 145
61 96 141
60 95 136
59 93 133
60 94 135
61 95 141
87 110 111
106 116 47
114 120 0
116 120 0
114 121 0
98 104 0
120 123 0
110 114 0
116 121 0
105 106 0
108 109 0
112 114 0
112 114 0
102 105 0
106 107 0
110 110 11
94 92 0
112 110 0
99 96 0
111 108 0
101 100 0
107 105 0
116 113 0
111 108 0
100 98 0
116 113 0
109 105 0
108 105 0
106 104 0
106 100 11
107 105 11
116 112 11
127 125 0
122 119 0
113 111 0
119 119 0
130 129 11
136 140 16
140 143 0
129 132 0
136 141 0
144 150 0
138 143 0
144 150 0
149 155 0
150 159 0
151 161 0
155 166 0
148 158 0
155 166 0
154 165 0
155 166 0
159 170 0
156 170 0
151 162 0
160 174 0
163 178 0
162 178 0
162 176 0
160 178 0
161 177 0
166 183 0
159 175 0
161 179 0
163 180 0
158 173 0
161 178 0
162 180 0
164 181 0
165 183 0
169 189 0
168 187 0
169 189 0
164 183 0
170 189 0
167 185 0
169 189 0
167 187 0
171 190 0
168 188 0
167 187 0
168 187 0
172 190 0
168 187 0
166 186 0
167 188 0
167 189 0
166 186 0
172 194 0
169 191 0
168 190 0
170 192 0
172 195 0
170 192 0
174 195 0
169 190 0
171 192 0
169 191 0
166 186 0
168 189 0
171 193 0
167 190 0
172 192 0
169 190 0
173 194 0
172 195 0
172 195 0
170 193 0
173 195 0
173 196 0
171 194 0
172 195 0
170 193 0
170 193 0
174 196 0
169 191 0
174 196 0
174 196 0
173 195 0
172 195 0
173 197 0
173 196 0
172 194 0
172 195 0
172 195 0
173 196 0
173 196 0
173 196 0
172 194 0
171 194 0
171 194 0
172 195 0
173 195 0
173 196 0
171 194 0
174 196 0
172 194 0
173 196 0
172 196 0
174 198 0
174 195 0
172 194 0
173 196 0
175 198 0
175 198 0
174 197 0
174 197 0
173 196 0
173 195 0
174 197 0
173 196 0
172 195 0
173 197 0
173 197 0
175 197 0
173 197 0
174 197 0
172 195 0
174 197 0
174 197 0
175 198 0
174 197 0
175 197 0
173 196 0
174 197 0
171 194 0
174 197 0
174 197 0
173 196 0
173 196 0
174 198 0
173 196 0
175 198 0
174 197 0
174 198 0
175 198 0
174 198 0
174 197 0
172 196 0
173 196 0
175 198 0
172 196 0
174 198 0
175 198 0
173 196 0
173 197 0
174 197 0
172 196 0
173 196 0
174 197 0
175 198 0
173 196 0
173 197 0
175 198 0
170 193 0
174 198 0
174 197 0
172 196 0
174 198 0
175 198 0
173 197 0
174 198 0
173 196 0
173 197 0
173 197 0
174 198 0
173 196 0
175 198 0
173 197 0
175 198 0
173 197 0
172 196 0
173 196 0
173 196 0
174 197 0
173 196 0
173 197 0
173 196 0
171 195 0
173 197 0
172 196 0
175 198 0
172 196 0
172 195 0
172 195 0
170 194 0
173 196 0
172 195 0
169 194 0
174 197 0
171 195 0
174 197 0
171 195 0
175 198 0
170 194 0
169 193 0
173 196 0
170 193 0
174 196 0
175 198 0
172 196 0
171 195 0
169 193 0
171 195 0
172 195 0
172 195 0
173 196 0
172 195 25
173 195 0
173 196 25
172 195 25
174 196 62
174 197 44
174 196 72
179 201 72
178 201 76
182 204 117
182 204 114
189 209 133
190 210 149
190 211 159
196 215 171
198 217 189
201 220 199
200 219 198
207 225 218
205 223 215
202 220 211
203 221 207
206 224 221
203 221 209
205 223 215
203 222 212
203 221 207
194 213 173
197 216 188
189 210 153
190 211 159
183 204 144
188 209 137
183 204 120
182 204 111
173 197 92
175 199 92
173 196 80
175 199 67
170 194 57
170 194 62
171 196 80
174 197 72
169 194 62
175 198 76
174 197 51
172 194 25
173 197 95
174 198 92
168 192 76
171 195 57
171 195 72
173 197 36
173 198 84
172 196 62
172 196 57
173 197 84
168 192 44
171 194 67
172 196 51
173 197 84
164 188 100
138 162 129
111 138 155
100 126 144
98 127 160
117 142 169
106 132 157
123 148 170
113 139 171
101 128 171
106 133 164
98 125 168
98 126 169
92 121 170
89 119 170
78 110 173
81 113 175
84 114 176
88 117 177
74 107 169
70 103 167
76 107 170
70 103 164
73 105 166
73 106 159
62 97 147
63 98 153
65 99 154
60 96 151
61 96 156
59 94 143
61 96 155
58 93 143
60 95 150
59 94 151
60 96 154
62 97 153
61 96 151
60 96 157
60 95 149
62 97 155
60 96 153
61 97 156
60 95 145
61 97 154
60 96 150
60 95 148
61 97 148
61 97 155
61 97 156
62 98 154
60 96 150
61 97 154
62 98 162
62 98 161
61 97 147
60 96 142
61 96 144
61 97 151
61 97 150
61 97 151
60 95 145
61 97 148
61 97 149
62 98 159
61 96 153
61 97 150
62 97 151
60 95 137
61 96 141
61 96 143
61 96 150
61 96 150
63 98 155
61 96 150
61 96 148
62 97 152
62 97 148
61 96 148
61 96 139
60 95 140
60 95 140
60 95 140
60 94 130
60 95 143
61 95 136
60 95 142
61 96 145
60 95 142
58 92 129
60 94 136
63 94 125
88 106 84
114 122 31
115 122 0
112 121 0
122 128 0
120 128 0
119 125 0
113 118 0
104 106 0
113 117 0
105 109 0
107 110 0
100 101 0
84 88 0
105 104 0
102 103 0
99 97 0
102 101 0
115 113 0
106 103 0
110 108 0
102 103 0
100 100 0
98 95 0
111 109 0
112 109 0
121 120 0
119 120 0
111 109 0
116 116 0
118 119 0
118 116 0
126 131 0
130 131 0
122 118 0
123 121 0
125 129 0
131 132 0
139 144 0
138 142 0
138 141 0
141 148 0
154 163 0
143 149 0
154 161 0
153 164 0
145 151 0
148 158 0
157 168 0
157 167 0
155 167 0
158 171 0
155 168 0
164 178 0
155 168 0
153 166 0
161 176 0
161 175 0
159 173 0
163 180 0
156 170 0
164 179 0
164 182 0
167 186 0
162 177 0
165 183 0
162 180 0
169 190 0
166 184 0
162 181 0
165 184 0
166 185 0
166 186 0
168 188 0
168 186 0
165 183 0
165 186 0
169 189 0
165 185 0
164 183 0
172 193 0
165 186 0
166 186 0
167 187 0
170 190 0
168 187 0
163 184 0
167 189 0
165 186 0
170 192 0
169 190 0
170 190 0
172 194 0
167 186 0
170 191 0
173 195 0
171 194 0
172 193 0
170 192 0
169 191 0
171 193 0
170 192 0
171 193 0
171 194 0
171 193 0
171 193 0
171 193 0
170 192 0
169 192 0
174 197 0
173 196 0
172 194 0
173 195 0
172 194 0
172 196 0
173 194 0
170 193 0
171 194 0
171 193 0
172 195 0
173 196 0
170 192 0
174 196 0
172 195 0
172 195 0
174 197 0
172 195 0
173 196 0
172 196 0
173 195 0
173 197 0
173 197 0
172 195 0
171 195 0
172 195 0
173 196 0
173 196 0
173 196 0
174 197 0
174 197 0
173 196 0
172 195 0
173 196 0
171 194 0
174 196 0
172 195 0
172 195 0
174 197 0
173 196 0
174 197 0
172 195 0
174 196 0
172 196 0
173 197 0
173 196 0
172 195 0
173 197 0
175 197 0
172 196 0
174 196 0
174 197 0
172 195 0
173 197 0
176 198 0
174 196 0
174 196 0
173 196 0
174 197 0
175 197 0
174 197 0
175 198 0
174 197 0
176 198 0
172 196 0
174 197 0
173 196 0
174 197 0
173 196 0
176 198 0
174 197 0
174 198 0
173 197 0
175 198 0
174 198 0
175 197 0
174 198 0
173 197 0
174 198 0
174 197 0
175 198 0
171 195 0
174 197 0
174 198 0
173 197 0
174 197 0
172 196 0
174 198 0
172 195 0
174 197 0
173 197 0
172 196 0
172 196 0
172 196 0
172 196 0
172 196 0
173 197 0
173 197 0
171 194 0
170 194 0
174 197 0
175 198 0
171 195 0
173 196 0
173 197 0
172 196 0
172 196 0
173 197 0
171 195 0
172 196 0
174 197 0
174 198 0
174 197 0
173 197 0
170 193 0
173 197 0
175 198 0
172 196 0
172 196 0
171 194 0
172 194 0
171 195 0
174 197 0
172 196 0
173 197 0
174 197 0
173 197 0
171 195 0
172 195 0
172 196 0
173 196 0
169 193 0
172 195 0
173 197 0
171 194 0
172 195 0
170 193 0
169 193 0
172 195 0
170 193 0
171 195 44
173 197 36
173 196 62
174 198 51
175 198 51
183 204 105
180 202 105
185 207 122
187 206 135
190 210 153
193 212 171
199 218 189
198 217 188
201 220 201
199 218 191
202 221 201
202 220 203
207 224 220
203 222 214
205 223 217
201 219 199
199 218 196
200 218 207
197 216 191
192 212 169
190 210 155
191 212 163
188 209 157
181 204 114
181 203 114
177 200 105
179 201 108
174 198 92
177 200 80
174 198 62
176 199 76
172 195 67
172 194 92
172 196 80
169 193 72
174 198 80
171 195 67
173 197 57
173 198 99
175 199 102
173 197 62
172 195 67
170 194 72
170 193 51
175 199 67
171 194 25
172 196 80
175 198 62
172 195 67
175 198 72
172 196 80
168 192 62
170 194 80
172 195 36
164 188 97
148 171 94
115 140 122
93 120 145
116 142 159
101 128 144
104 130 160
106 132 153
96 125 160
86 116 165
93 122 161
90 120 166
102 130 175
95 124 176
93 121 171
88 118 177
86 116 169
81 112 173
77 109 175
74 106 164
71 104 172
76 107 170
71 104 165
64 99 164
65 99 152
68 102 158
64 99 153
59 95 154
66 100 155
62 97 150
60 95 146
62 97 155
59 93 143
59 94 145
60 95 150
61 97 158
60 95 153
60 95 148
60 96 156
60 96 153
61 96 150
60 95 151
61 97 155
61 97 150
61 97 157
61 97 156
61 97 156
62 97 155
61 97 147
62 98 157
61 97 153
61 97 152
62 98 157
61 97 149
60 95 149
61 96 149
60 95 146
61 96 145
60 95 143
61 96 148
62 97 151
61 97 148
61 96 150
61 97 148
60 96 144
62 98 156
61 97 156
61 96 144
61 97 152
61 96 148
62 98 155
62 97 157
61 96 148
61 96 142
61 96 152
61 97 149
61 96 149
59 94 133
61 97 153
61 96 143
60 94 137
61 96 141
61 96 145
61 96 141
60 95 140
60 94 133
60 95 141
61 96 135
60 94 135
59 92 133
59 93 116
73 98 109
105 116 51
125 133 0
122 131 0
103 112 0
112 120 0
108 114 0
106 113 0
120 126 0
112 117 0
108 115 0
106 108 0
116 119 0
111 115 0
118 121 0
106 108 0
106 111 0
107 107 0
111 113 0
108 110 0
122 123 0
114 113 0
114 113 0
117 115 0
118 118 0
111 110 0
110 110 0
121 122 0
117 116 0
123 124 0
107 109 0
119 117 0
117 121 0
128 129 0
130 132 0
126 127 0
130 134 0
144 148 0
137 140 0
141 146 0
139 144 0
144 151 0
144 148 0
145 155 0
154 163 0
148 155 0
147 155 0
156 166 0
150 162 0
155 166 0
154 165 0
157 171 0
152 163 0
160 173 0
162 175 0
158 172 0
159 172 0
159 175 0
161 174 0
160 173 0
161 177 0
158 176 0
161 174 0
156 172 0
165 183 0
167 184 0
164 179 0
163 180 0
161 178 0
164 183 0
164 182 0
167 187 0
167 187 0
165 184 0
167 184 0
165 182 0
169 187 0
169 190 0
164 183 0
167 186 0
167 186 0
168 188 0
167 187 0
168 189 0
169 191 0
169 189 0
168 187 0
166 188 0
171 192 0
170 191 0
170 190 0
171 192 0
171 193 0
170 190 0
167 188 0
170 192 0
170 190 0
172 191 0
172 193 0
172 194 0
171 193 0
173 195 0
170 193 0
172 194 0
169 190 0
171 194 0
170 192 0
171 193 0
169 192 0
172 194 0
172 194 0
172 194 0
170 194 0
172 196 0
172 195 0
169 191 0
172 195 0
172 195 0
172 195 0
171 193 0
170 192 0
173 196 0
173 195 0
172 194 0
173 196 0
171 194 0
171 194 0
172 196 0
173 197 0
174 197 0
173 196 0
172 196 0
173 196 0
173 196 0
174 197 0
174 196 0
173 197 0
174 197 0
174 197 0
170 194 0
173 195 0
174 197 0
175 198 0
172 195 0
172 196 0
173 197 0
171 195 0
173 196 0
172 195 0
172 195 0
172 195 0
172 196 0
172 196 0
174 197 0
175 198 0
173 195 0
175 198 0
173 195 0
174 198 0
174 197 0
175 198 0
174 197 0
175 198 0
174 197 0
173 197 0
172 195 0
175 198 0
174 197 0
173 196 0
173 197 0
173 197 0
173 196 0
175 198 0
173 196 0
174 197 0
172 195 0
174 198 0
174 197 0
173 197 0
173 197 0
170 194 0
172 196 0
172 195 0
175 198 0
174 197 0
173 197 0
174 197 0
172 196 0
175 198 0
174 197 0
174 197 0
174 197 0
174 197 0
172 196 0
172 196 0
171 196 0
174 197 0
173 197 0
174 198 0
172 195 0
174 198 0
174 197 0
174 198 0
174 198 0
174 197 0
174 197 0
174 198 0
173 196 0
172 196 0
172 196 0
176 199 0
171 195 0
171 196 0
173 197 0
172 196 0
172 196 0
173 197 0
170 195 0
173 197 0
171 195 0
174 197 0
172 195 0
175 197 0
171 195 0
172 195 0
173 197 0
173 197 0
174 197 0
175 198 0
172 196 0
173 196 0
172 196 0
170 194 0
175 197 0
173 197 0
173 197 0
173 196 0
170 194 0
173 197 0
172 195 0
174 197 0
173 196 0
172 195 0
175 198 0
171 195 0
170 194 0
172 195 0
170 194 0
172 195 36
171 195 0
177 200 67
173 196 51
176 198 62
177 199 88
176 199 84
180 202 105
179 202 88
181 202 114
194 213 161
192 211 161
192 212 157
197 216 182
200 218 193
199 217 191
205 223 209
202 220 204
202 221 209
206 223 212
202 220 203
199 218 194
203 221 206
199 217 196
196 215 181
196 216 188
188 209 151
186 207 135
184 206 133
181 203 120
182 204 114
175 198 95
173 196 80
171 195 62
175 199 62
173 196 62
172 196 80
174 196 62
175 199 72
174 198 95
169 193 57
175 199 67
173 196 67
174 197 72
172 195 51
170 194 72
173 197 76
173 196 76
172 196 72
172 196 62
174 197 95
172 196 99
171 194 67
170 195 67
172 196 84
172 195 76
169 193 67
175 198 67
173 196 72
172 196 80
174 197 88
166 190 67
148 173 105
125 150 133
99 126 142
85 115 147
100 127 150
93 122 151
97 125 146
111 138 148
90 119 165
102 130 173
90 118 151
100 127 158
99 127 175
89 119 164
78 109 164
79 111 170
76 108 173
75 108 167
78 109 166
86 116 181
78 109 164
87 116 174
71 104 162
64 99 159
65 99 158
70 102 159
66 100 156
60 95 151
59 95 148
59 94 145
60 96 149
63 97 149
61 96 150
59 94 135
61 96 155
60 95 148
63 99 163
59 94 139
60 95 143
61 96 150
60 95 143
60 96 143
62 98 156
61 96 149
60 96 145
60 95 143
61 97 149
60 96 145
61 97 148
61 96 145
61 96 154
59 94 142
62 97 160
61 96 149
61 96 143
61 96 152
62 97 151
61 96 150
62 98 158
62 97 154
61 97 153
60 96 143
61 97 149
62 97 154
62 97 156
61 96 150
60 94 133
61 96 149
61 96 150
60 96 143
62 97 150
62 97 151
61 96 142
60 95 139
60 95 140
59 94 134
60 95 136
60 95 140
61 96 137
61 96 143
60 94 139
61 96 149
59 94 129
61 96 143
60 95 137
60 94 128
59 93 128
59 93 135
59 93 126
59 91 115
89 108 97
114 125 40
118 126 0
111 120 0
121 130 0
110 116 0
118 122 0
118 125 0
113 120 0
111 115 0
105 109 0
103 110 0
122 127 0
105 107 0
108 112 0
109 111 0
108 109 0
113 116 0
118 122 0
117 120 0
111 114 0
103 104 0
117 117 0
115 116 0
116 119 0
105 105 0
122 124 0
109 111 0
127 128 0
122 122 0
119 120 0
125 129 0
135 141 0
122 124 0
133 135 0
136 142 0
135 142 0
129 133 0
143 147 0
134 138 0
139 146 0
140 146 0
139 143 0
148 158 0
147 154 0
146 155 0
144 152 0
153 164 0
147 158 0
157 168 0
153 167 0
154 166 0
158 171 0
153 164 0
161 174 0
162 175 0
163 175 0
157 170 0
159 172 0
159 175 0
162 176 0
159 172 0
165 179 0
166 182 0
163 179 0
164 178 0
164 181 0
165 182 0
165 183 0
166 184 0
168 187 0
164 181 0
163 182 0
165 182 0
164 184 0
165 183 0
167 187 0
168 188 0
170 190 0
167 187 0
168 188 0
168 190 0
169 189 0
165 185 0
170 192 0
171 191 0
167 187 0
172 193 0
172 194 0
170 191 0
168 189 0
169 190 0
170 192 0
170 192 0
167 188 0
171 193 0
170 192 0
169 190 0
172 193 0
170 192 0
170 194 0
171 193 0
172 195 0
173 195 0
172 194 0
170 193 0
173 195 0
171 193 0
171 193 0
172 195 0
170 192 0
172 194 0
172 194 0
172 195 0
175 198 0
171 193 0
174 196 0
172 195 0
172 194 0
173 196 0
172 195 0
171 195 0
172 195 0
173 196 0
174 196 0
171 193 0
174 197 0
171 194 0
172 195 0
173 196 0
174 196 0
173 196 0
172 196 0
174 197 0
173 196 0
172 195 0
175 197 0
171 195 0
171 194 0
174 196 0
175 197 0
174 196 0
172 196 0
171 194 0
173 197 0
173 195 0
174 198 0
174 197 0
172 195 0
173 196 0
173 196 0
175 198 0
172 196 0
172 194 0
172 196 0
172 195 0
174 196 0
173 197 0
173 196 0
171 195 0
175 197 0
173 196 0
172 195 0
176 198 0
174 197 0
176 199 0
174 197 0
174 197 0
174 197 0
175 198 0
175 197 0
174 197 0
172 196 0
173 197 0
174 196 0
174 198 0
174 197 0
174 198 0
174 197 0
174 198 0
173 197 0
172 196 0
173 196 0
174 198 0
173 197 0
172 196 0
171 195 0
174 197 0
174 198 0
174 197 0
173 197 0
170 194 0
173 196 0
173 196 0
172 196 0
174 198 0
172 197 0
173 196 0
172 196 0
171 195 0
172 196 0
174 197 0
171 195 0
173 197 0
175 198 0
175 198 0
172 196 0
175 198 0
173 197 0
175 197 0
173 196 0
176 199 0
172 196 0
171 195 0
172 196 0
172 195 0
174 198 0
173 196 0
171 195 0
174 197 0
172 196 0
171 195 0
173 196 0
173 197 0
174 197 0
169 192 0
174 197 0
172 195 0
173 196 0
172 196 0
171 194 0
172 196 0
171 194 0
174 197 0
171 194 0
173 197 0
172 196 0
172 195 0
174 197 0
171 194 0
170 195 0
174 197 0
172 196 0
172 196 0
170 194 0
173 196 0
171 194 0
171 195 0
170 195 44
171 195 25
172 195 36
169 192 36
176 198 72
175 197 72
178 199 102
182 203 111
182 204 120
186 207 135
190 211 153
193 212 165
199 217 186
198 216 182
204 222 206
201 219 196
205 223 209
205 223 214
206 224 218
204 222 212
199 217 189
197 217 186
198 218 191
192 212 167
188 209 149
188 208 155
183 204 128
185 207 133
179 202 108
181 204 114
172 195 76
175 198 67
175 200 84
175 199 76
174 198 72
171 195 57
172 196 62
173 197 57
172 195 76
170 195 67
173 196 51
171 195 62
174 199 76
173 196 72
173 198 80
171 194 67
170 194 76
172 195 72
174 198 84
169 193 76
172 197 72
173 197 80
170 194 84
174 198 92
169 193 51
169 193 88
170 194 67
170 193 84
170 194 62
170 194 67
172 196 84
169 193 88
155 178 88
136 160 111
118 144 152
88 117 151
89 119 150
112 137 153
94 123 153
94 121 150
88 117 154
93 121 153
92 120 145
102 129 163
89 118 157
95 123 160
88 118 166
87 116 164
78 110 161
80 111 165
74 107 165
74 107 167
67 102 167
74 106 165
64 99 159
74 107 171
65 99 157
69 102 154
60 95 150
59 94 147
65 99 150
60 95 145
60 95 153
58 92 136
60 96 148
60 95 148
61 96 150
60 96 152
59 94 139
61 96 155
61 96 156
59 95 144
60 95 150
61 96 146
60 95 140
62 97 147
60 96 143
61 97 151
62 98 160
61 97 156
60 96 147
60 96 153
61 96 154
61 96 148
60 95 148
60 95 143
61 97 148
62 97 145
61 96 142
60 95 142
61 97 158
61 96 147
61 97 147
60 95 139
61 96 145
61 96 143
61 97 150
61 96 152
61 97 145
59 95 137
61 96 141
62 97 150
60 95 139
61 96 152
62 97 150
60 95 135
60 95 140
60 94 135
60 95 137
61 96 152
61 95 134
61 96 141
60 94 144
60 95 128
59 93 139
60 95 135
60 95 130
61 96 145
60 95 131
59 93 126
57 90 118
70 98 120
105 120 67
129 140 18
119 130 0
114 122 0
109 120 0
115 125 0
123 131 0
122 129 0
120 127 0
114 119 0
116 121 0
102 107 0
117 124 0
111 116 0
120 126 0
113 117 0
116 119 0
118 121 0
113 115 0
117 120 0
114 119 0
112 114 0
125 126 0
116 120 0
122 123 0
122 123 0
133 140 0
125 128 0
122 125 0
129 136 0
125 129 0
131 135 0
129 132 0
129 133 0
132 136 0
136 142 0
142 149 0
138 145 0
145 151 0
149 154 0
140 146 0
143 151 0
141 149 0
151 163 0
152 161 0
151 162 0
149 159 0
153 163 0
155 166 0
157 168 0
154 164 0
155 170 0
155 168 0
159 172 0
165 179 0
152 164 0
158 172 0
161 173 0
159 175 0
160 175 0
162 178 0
159 174 0
167 184 0
159 173 0
158 174 0
163 178 0
161 177 0
165 183 0
167 186 0
167 187 0
166 185 0
167 184 0
165 183 0
164 182 0
167 185 0
166 186 0
167 186 0
169 189 0
167 185 0
170 191 0
166 185 0
171 192 0
169 189 0
167 187 0
166 187 0
168 190 0
168 189 0
172 194 0
167 187 0
170 191 0
169 190 0
166 187 0
169 189 0
169 191 0
169 190 0
165 187 0
171 194 0
171 193 0
171 194 0
166 188 0
172 194 0
171 193 0
173 195 0
170 192 0
168 190 0
170 192 0
172 194 0
169 192 0
173 197 0
170 193 0
170 192 0
170 192 0
174 197 0
171 194 0
172 194 0
171 194 0
173 196 0
171 195 0
173 197 0
173 195 0
173 196 0
171 194 0
172 196 0
171 194 0
171 193 0
174 197 0
173 196 0
174 197 0
173 197 0
172 195 0
173 196 0
172 196 0
170 194 0
173 196 0
172 196 0
174 196 0
172 196 0
173 196 0
175 197 0
170 194 0
174 197 0
173 196 0
175 197 0
174 197 0
175 197 0
174 197 0
173 197 0
174 197 0
175 198 0
175 198 0
172 195 0
172 195 0
173 197 0
176 198 0
175 198 0
173 196 0
172 195 0
172 196 0
174 197 0
175 198 0
174 197 0
172 195 0
173 197 0
174 197 0
174 196 0
173 196 0
172 196 0
172 196 0
173 197 0
173 197 0
173 197 0
173 197 0
175 198 0
174 197 0
174 197 0
173 196 0
175 198 0
175 198 0
172 196 0
171 194 0
173 197 0
174 197 0
174 198 0
173 196 0
175 198 0
172 196 0
175 198 0
173 197 0
173 196 0
172 196 0
174 198 0
174 197 0
171 195 0
173 196 0
174 198 0
173 197 0
171 194 0
175 198 0
174 198 0
172 196 0
172 196 0
172 195 0
172 196 0
172 196 0
174 198 0
174 198 0
173 196 0
170 193 0
171 195 0
173 197 0
174 197 0
174 197 0
174 197 0
172 195 0
174 197 0
174 198 0
173 196 0
173 197 0
170 194 0
172 195 0
173 197 0
173 196 0
172 195 0
175 197 0
173 196 0
173 197 0
172 196 0
172 196 0
172 196 0
172 195 0
172 196 0
172 196 0
172 196 0
172 196 0
170 194 0
172 196 0
174 197 0
174 197 0
174 197 0
174 197 0
172 196 0
172 194 0
171 194 0
169 194 0
168 192 0
176 198 0
171 195 0
172 196 25
176 199 51
172 195 25
176 199 44
171 194 67
179 202 92
180 202 102
180 201 117
189 209 142
191 210 147
189 210 151
196 215 181
195 215 175
198 217 184
204 222 204
199 218 199
207 225 221
200 219 198
201 220 201
201 220 199
199 218 193
202 220 196
198 216 186
193 212 167
189 210 149
188 209 144
183 204 122
181 204 117
175 198 80
172 195 76
173 196 67
170 194 51
169 194 80
174 198 88
169 193 57
172 196 84
171 195 80
171 195 67
172 196 44
176 199 76
172 196 80
169 193 72
172 196 80
171 195 72
171 195 95
172 196 72
173 197 67
169 193 62
169 192 51
173 197 80
172 196 57
170 194 80
166 190 72
168 192 76
168 192 80
170 193 44
169 193 72
168 192 76
163 186 72
166 190 80
173 196 76
171 195 72
170 194 76
167 191 84
158 181 97
123 148 124
91 120 137
90 119 149
100 127 145
94 122 147
90 119 142
91 120 156
106 133 155
92 120 153
92 121 164
83 113 155
103 130 160
84 113 161
84 114 164
92 121 171
88 117 174
71 104 163
69 103 164
70 104 165
64 99 161
67 101 165
64 98 159
71 104 156
64 98 156
67 100 160
64 98 153
62 96 146
61 96 149
63 97 147
60 95 139
60 96 149
59 94 144
57 92 133
61 96 149
61 96 150
60 96 140
61 96 145
60 94 136
61 96 149
61 97 162
62 97 157
61 97 152
61 96 154
59 94 136
61 97 158
59 94 136
61 96 149
60 96 143
61 96 148
60 95 140
60 95 146
61 95 145
61 96 150
62 98 155
61 96 148
61 97 151
62 98 160
61 96 150
61 97 147
61 96 152
61 96 142
60 96 144
60 95 141
60 95 137
62 97 149
61 96 143
60 95 145
60 95 139
59 94 131
62 97 145
60 95 139
60 95 134
61 96 147
60 95 140
61 96 144
60 95 134
60 95 137
60 94 139
60 95 140
60 96 137
60 95 135
60 95 139
60 95 140
59 94 132
59 93 128
57 90 113
62 94 111
90 106 73
107 119 36
111 119 0
117 127 0
121 131 0
127 137 0
131 142 0
124 132 0
119 128 0
116 123 0
113 118 0
109 114 0
117 125 0
116 123 0
123 128 0
115 120 0
110 116 0
121 129 0
131 139 0
126 128 0
121 126 0
109 111 0
124 130 0
116 118 0
119 127 0
124 128 0
124 128 0
125 128 0
128 132 0
130 133 0
135 139 0
124 127 0
126 131 0
134 139 0
126 131 0
134 137 0
144 148 0
149 156 0
140 149 0
133 138 0
148 155 0
146 155 0
147 155 0
148 158 0
144 153 0
147 158 0
150 158 0
151 162 0
154 165 0
153 165 0
154 163 0
158 170 0
160 174 0
158 170 0
153 167 0
152 164 0
158 172 0
160 173 0
157 171 0
163 180 0
159 173 0
156 172 0
162 178 0
162 178 0
161 175 0
165 184 0
163 179 0
164 180 0
165 184 0
164 181 0
168 186 0
167 184 0
163 180 0
166 184 0
164 182 0
167 188 0
165 185 0
165 187 0
170 189 0
171 191 0
167 187 0
166 186 0
167 186 0
165 185 0
172 194 0
167 185 0
171 192 0
169 189 0
170 191 0
171 191 0
169 188 0
168 188 0
168 189 0
170 192 0
166 188 0
171 192 0
167 188 0
171 193 0
171 190 0
172 195 0
170 192 0
169 191 0
171 193 0
168 190 0
171 193 0
168 190 0
171 194 0
172 195 0
172 194 0
172 194 0
172 195 0
173 196 0
173 195 0
172 195 0
173 195 0
170 193 0
170 192 0
172 194 0
172 194 0
173 195 0
173 196 0
172 195 0
173 195 0
172 194 0
170 192 0
171 193 0
173 194 0
173 195 0
172 196 0
173 194 0
173 196 0
172 196 0
173 197 0
171 194 0
172 194 0
174 197 0
173 196 0
171 194 0
175 198 0
171 195 0
170 192 0
173 196 0
172 195 0
172 195 0
173 196 0
174 197 0
174 198 0
172 195 0
171 194 0
173 197 0
172 195 0
174 198 0
175 197 0
175 198 0
173 196 0
171 195 0
173 197 0
174 197 0
173 196 0
173 197 0
174 197 0
172 196 0
173 196 0
173 196 0
174 197 0
174 196 0
173 196 0
172 196 0
172 196 0
172 195 0
171 195 0
174 197 0
172 195 0
172 196 0
176 199 0
173 196 0
172 196 0
174 198 0
174 196 0
173 197 0
172 195 0
174 198 0
173 196 0
174 197 0
173 197 0
172 196 0
174 198 0
173 197 0
174 198 0
175 198 0
177 199 0
172 195 0
171 194 0
173 197 0
174 198 0
172 196 0
171 195 0
171 195 0
172 196 0
171 195 0
172 195 0
175 198 0
173 197 0
175 197 0
170 193 0
171 195 0
173 197 0
172 196 0
174 197 0
173 196 0
172 195 0
175 198 0
172 196 0
174 197 0
173 196 0
172 196 0
174 197 0
172 196 0
174 197 0
173 196 0
173 197 0
173 196 0
172 196 0
173 197 0
174 196 0
175 198 0
173 196 0
172 196 0
171 195 0
172 196 0
173 197 0
173 197 0
173 197 0
171 195 0
171 194 0
172 195 0
171 194 0
173 197 0
173 196 0
170 193 0
174 197 0
172 195 0
171 195 0
170 194 0
169 193 0
172 195 0
174 197 25
171 193 0
173 197 25
175 198 51
175 198 44
175 197 44
181 202 84
185 206 125
186 206 130
186 206 128
190 209 159
191 211 149
194 214 167
198 217 181
202 220 196
200 218 193
206 223 214
204 222 207
204 222 209
201 220 196
204 222 204
198 217 189
198 217 182
194 214 182
187 208 151
188 209 147
182 204 122
182 204 122
179 201 102
178 200 76
174 197 62
172 196 88
175 198 72
176 199 72
173 196 72
171 195 51
174 197 76
174 198 105
172 196 62
168 193 67
173 197 67
172 196 67
171 196 62
170 193 62
172 196 80
169 193 62
172 196 88
175 199 88
170 194 76
170 194 67
173 196 76
170 194 57
170 194 84
170 193 76
171 194 67
170 195 88
170 194 51
170 192 62
169 193 57
170 193 36
169 193 62
170 194 57
168 192 67
167 189 88
169 193 80
165 189 76
160 183 84
131 156 118
96 124 140
81 111 145
87 116 133
96 123 153
93 121 149
98 125 146
93 121 155
92 121 159
106 132 159
98 125 151
105 131 159
94 121 150
96 124 166
98 126 151
85 114 161
79 111 162
92 120 172
74 106 170
68 102 169
68 102 166
78 108 166
68 102 170
74 106 160
66 99 154
62 98 163
65 98 146
58 93 136
61 96 138
62 96 140
59 93 142
59 93 146
62 97 148
60 95 154
60 95 143
60 95 141
61 96 147
60 95 134
60 95 141
60 95 143
60 95 142
60 95 145
61 96 149
61 96 150
60 95 148
61 97 149
61 96 149
59 94 137
62 97 150
60 95 141
61 96 141
60 95 143
60 95 137
61 96 141
62 98 155
62 97 150
62 97 150
60 95 144
62 97 154
60 95 140
62 98 155
61 96 146
60 95 141
60 94 137
60 95 141
61 96 139
62 97 147
61 96 143
62 97 144
59 94 130
60 95 134
62 97 149
62 97 149
62 97 150
60 95 134
59 93 130
61 95 135
60 94 135
62 97 147
61 96 138
60 95 136
60 95 136
60 93 129
60 95 131
59 93 126
60 94 126
73 99 104
93 112 70
109 118 25
117 129 0
102 114 0
118 131 0
121 133 0
125 135 0
129 137 0
115 125 0
113 120 0
123 133 0
125 135 0
121 132 0
127 137 0
116 122 0
112 120 0
112 116 0
116 123 0
119 123 0
117 122 0
113 119 0
129 135 0
122 128 0
127 132 0
127 133 0
127 134 0
118 118 0
134 140 0
127 132 0
135 141 0
128 132 0
139 144 0
142 146 0
137 141 0
137 144 0
133 140 0
139 146 0
135 145 0
146 154 0
144 153 0
140 149 0
148 157 0
153 163 0
145 153 0
142 153 0
154 168 0
148 158 0
146 156 0
156 167 0
152 164 0
157 169 0
156 170 0
156 171 0
157 169 0
152 164 0
160 176 0
161 176 0
158 174 0
160 177 0
157 172 0
155 169 0
158 172 0
162 178 0
162 178 0
158 175 0
162 179 0
163 181 0
164 183 0
169 188 0
165 182 0
162 181 0
164 184 0
168 188 0
167 185 0
160 180 0
169 190 0
166 186 0
166 185 0
165 183 0
165 184 0
168 187 0
169 188 0
169 190 0
167 188 0
166 186 0
161 181 0
167 188 0
170 190 0
169 192 0
166 187 0
167 188 0
170 192 0
169 191 0
169 189 0
169 192 0
172 192 0
168 190 0
171 193 0
170 192 0
170 192 0
169 189 0
170 191 0
171 192 0
172 194 0
169 190 0
170 193 0
172 195 0
172 194 0
170 191 0
172 194 0
173 195 0
173 196 0
169 192 0
172 194 0
171 193 0
174 196 0
172 195 0
170 192 0
172 195 0
171 194 0
171 193 0
173 196 0
170 193 0
171 194 0
174 197 0
175 197 0
172 195 0
170 194 0
171 192 0
171 194 0
173 196 0
172 195 0
172 195 0
171 193 0
171 194 0
172 195 0
174 197 0
173 196 0
170 194 0
172 195 0
173 196 0
174 196 0
173 196 0
175 198 0
173 196 0
175 198 0
173 197 0
172 194 0
173 196 0
170 195 0
172 195 0
171 195 0
174 197 0
174 198 0
173 196 0
173 196 0
171 195 0
175 197 0
172 195 0
174 197 0
173 196 0
173 197 0
174 197 0
175 198 0
175 196 0
174 197 0
174 197 0
174 197 0
173 197 0
175 197 0
173 196 0
174 197 0
174 197 0
171 194 0
173 197 0
173 196 0
173 197 0
174 198 0
172 196 0
172 196 0
174 197 0
175 198 0
175 198 0
175 198 0
174 197 0
173 197 0
173 196 0
173 197 0
173 197 0
172 196 0
174 197 0
173 196 0
173 197 0
172 196 0
174 197 0
174 197 0
174 198 0
172 196 0
174 197 0
171 194 0
173 196 0
172 196 0
173 197 0
173 197 0
175 198 0
173 197 0
172 196 0
175 198 0
174 197 0
174 197 0
172 195 0
173 197 0
169 194 0
174 197 0
174 197 0
175 198 0
172 195 0
171 195 0
172 195 0
173 197 0
175 198 0
172 195 0
173 196 0
172 195 0
171 194 0
174 197 0
172 196 0
176 198 0
175 198 0
174 197 0
172 195 0
172 196 0
172 196 0
172 196 0
173 196 0
172 195 0
173 197 0
172 195 0
173 196 0
171 194 0
170 194 0
173 196 0
172 196 0
171 194 0
171 194 0
174 197 25
170 193 0
175 198 36
174 196 44
174 197 44
176 199 57
176 199 51
174 197 76
185 205 120
185 206 117
185 205 133
185 206 135
194 213 167
197 216 184
195 215 171
200 218 189
205 223 207
204 222 204
202 221 201
197 216 182
198 217 186
199 217 188
199 218 191
194 213 173
190 211 161
187 208 149
182 203 114
182 204 125
178 201 102
175 198 92
174 197 72
173 197 67
174 198 76
174 197 72
174 198 72
173 197 72
173 196 51
174 197 67
174 198 67
165 189 62
174 198 84
170 195 80
174 198 80
173 197 72
170 193 84
171 194 57
173 196 57
170 193 51
171 195 84
170 193 67
170 193 72
172 195 92
169 194 72
169 192 57
165 188 57
171 195 76
168 192 72
170 195 92
168 191 76
170 194 67
168 192 67
163 186 67
168 192 80
169 193 51
167 190 62
167 190 62
165 189 92
167 190 67
144 168 103
118 143 131
83 112 139
85 113 130
99 126 147
95 123 149
103 131 152
97 125 163
91 119 145
89 117 144
92 120 153
99 127 159
101 128 145
85 115 149
86 115 152
96 124 166
95 122 162
89 117 156
77 108 158
83 113 162
76 108 167
73 106 164
73 104 160
70 102 157
71 104 163
64 98 147
64 98 147
67 98 146
59 93 139
62 95 136
62 97 147
61 95 142
62 96 128
59 94 137
60 94 147
59 93 141
61 97 151
60 95 150
60 96 145
61 97 150
59 94 136
59 94 141
60 95 141
60 95 140
59 94 137
60 96 142
60 96 151
59 94 130
61 96 145
60 96 141
59 94 140
61 95 143
62 97 145
62 97 153
60 95 147
61 96 145
59 94 136
61 96 144
62 98 156
60 95 140
61 96 140
59 94 139
60 95 135
62 97 143
60 96 144
59 95 141
61 97 147
60 95 136
61 95 140
59 94 142
61 96 144
61 96 137
60 95 145
60 95 143
60 94 129
60 95 137
59 93 126
60 94 131
61 96 143
60 94 134
60 95 142
60 94 133
61 95 133
61 95 141
55 87 102
59 92 120
97 117 90
112 122 25
117 129 0
121 131 0
127 137 0
123 132 0
115 122 0
116 127 0
125 136 0
121 128 0
122 131 0
112 121 0
128 138 0
136 145 0
125 138 0
118 122 0
113 119 0
120 129 0
126 131 0
124 131 0
127 134 0
118 125 0
122 130 0
120 126 0
116 121 0
137 144 0
136 143 0
129 133 0
132 140 0
129 135 0
128 133 0
125 133 0
131 139 0
136 141 0
146 156 0
142 148 0
149 160 0
141 148 0
143 152 0
144 150 0
153 160 0
145 153 0
149 159 0
148 159 0
150 161 0
149 161 0
148 159 0
150 160 0
145 153 0
156 169 0
157 168 0
153 165 0
150 162 0
154 167 0
158 172 0
154 169 0
159 175 0
160 173 0
162 177 0
162 178 0
158 175 0
157 173 0
167 184 0
166 183 0
160 177 0
164 180 0
163 180 0
166 184 0
163 182 0
167 185 0
164 183 0
169 187 0
163 183 0
166 184 0
164 185 0
166 186 0
168 189 0
167 186 0
169 189 0
167 187 0
166 186 0
170 191 0
168 189 0
169 188 0
171 191 0
167 187 0
167 187 0
169 190 0
165 187 0
169 192 0
172 194 0
171 191 0
170 191 0
169 190 0
169 191 0
171 193 0
172 192 0
173 194 0
171 193 0
170 193 0
170 192 0
171 193 0
168 190 0
170 194 0
171 195 0
173 195 0
170 193 0
174 195 0
171 191 0
172 195 0
170 192 0
172 194 0
167 188 0
168 191 0
171 195 0
171 193 0
171 193 0
173 196 0
169 192 0
173 195 0
175 197 0
172 195 0
173 196 0
171 194 0
171 195 0
172 196 0
174 195 0
172 195 0
174 197 0
174 196 0
173 196 0
173 196 0
171 193 0
174 196 0
173 196 0
172 195 0
173 195 0
172 194 0
173 196 0
169 192 0
173 196 0
175 198 0
173 196 0
175 197 0
175 198 0
173 197 0
173 196 0
174 197 0
171 194 0
171 196 0
171 194 0
175 197 0
174 197 0
174 198 0
174 197 0
174 197 0
173 197 0
172 196 0
172 196 0
171 194 0
174 197 0
173 196 0
173 196 0
174 197 0
173 197 0
175 198 0
173 197 0
174 196 0
172 195 0
173 196 0
174 197 0
175 198 0
172 196 0
174 196 0
172 194 0
175 198 0
172 196 0
171 196 0
175 198 0
174 197 0
172 195 0
172 197 0
175 198 0
173 197 0
174 197 0
173 197 0
175 198 0
175 198 0
174 198 0
173 197 0
170 194 0
172 195 0
175 198 0
174 197 0
175 198 0
173 196 0
173 196 0
171 195 0
174 198 0
173 197 0
172 196 0
172 197 0
172 196 0
173 197 0
174 198 0
172 195 0
172 195 0
173 196 0
173 196 0
171 195 0
173 197 0
173 196 0
173 196 0
174 197 0
173 196 0
174 197 0
171 195 0
172 196 0
172 196 0
173 196 0
170 194 0
174 197 0
173 196 0
170 194 0
172 195 0
173 196 0
172 195 0
171 195 0
173 197 0
172 196 0
169 192 0
171 194 0
172 196 0
171 194 0
170 194 0
173 197 0
171 194 0
171 195 0
173 196 0
172 196 0
173 196 0
171 194 0
173 196 0
170 193 0
173 196 0
173 196 0
176 198 44
172 195 25
175 197 44
176 198 51
173 195 36
177 198 76
174 197 76
179 200 80
186 206 120
184 205 125
189 210 142
190 211 159
195 215 177
195 214 169
199 218 184
202 220 198
199 218 188
201 219 196
202 220 198
198 217 189
196 215 182
196 215 179
195 215 182
186 207 153
184 205 135
183 205 122
174 197 102
177 200 99
176 199 80
174 197 76
172 195 67
173 197 72
172 196 67
177 201 102
176 199 80
170 193 72
173 197 62
171 195 51
172 195 84
169 193 51
172 196 95
169 194 51
171 195 76
171 196 67
169 193 72
171 195 72
170 192 76
174 198 88
168 193 84
172 195 88
169 193 84
174 198 92
168 193 88
165 190 88
169 193 51
166 190 84
167 191 72
166 191 95
170 194 72
168 192 84
163 187 51
170 193 80
170 194 84
166 189 57
159 183 36
171 195 67
166 189 44
164 188 76
163 187 88
134 158 115
100 127 138
86 115 141
85 114 144
99 126 156
85 113 129
94 121 139
96 124 137
92 120 143
85 113 145
87 116 149
92 120 148
90 118 153
97 124 166
93 121 169
83 113 166
86 116 164
87 116 160
80 110 166
79 110 169
82 112 163
74 106 163
69 102 164
66 100 164
66 99 147
60 96 153
63 97 147
66 99 151
66 99 143
60 95 146
60 96 147
61 96 144
58 93 140
60 95 147
59 94 134
61 96 148
60 95 146
60 95 136
61 96 145
60 96 144
60 96 144
61 96 149
60 95 139
61 95 145
61 96 150
60 95 140
60 95 143
60 95 137
61 96 143
59 94 137
61 96 149
61 96 153
61 96 143
61 96 145
60 95 145
61 96 145
61 96 143
61 96 144
61 96 147
59 94 131
60 96 144
61 97 151
61 96 143
62 97 142
61 97 148
61 96 145
60 95 144
61 96 141
59 94 135
59 94 137
60 94 129
60 94 130
60 94 136
60 94 131
59 94 131
60 95 136
60 94 131
61 95 135
59 93 130
58 92 113
59 94 130
59 93 126
56 89 114
60 94 132
71 98 113
96 110 70
112 124 18
117 130 0
128 141 0
117 129 0
127 139 0
116 127 0
122 131 0
129 139 0
116 125 0
126 138 0
121 129 0
117 126 0
127 136 0
124 134 0
136 145 0
117 124 0
122 132 0
130 139 0
133 143 0
124 132 0
118 126 0
128 138 0
113 120 0
129 137 0
128 135 0
136 143 0
133 138 0
136 144 0
136 141 0
137 147 0
136 144 0
130 139 0
143 151 0
136 143 0
136 143 0
144 152 0
141 148 0
145 152 0
137 145 0
142 151 0
146 157 0
157 166 0
146 155 0
146 157 0
142 153 0
145 154 0
152 165 0
148 160 0
153 168 0
156 168 0
150 165 0
157 167 0
153 167 0
157 170 0
154 166 0
162 177 0
164 180 0
153 167 0
163 180 0
160 176 0
164 183 0
161 178 0
156 169 0
159 173 0
164 180 0
167 185 0
164 182 0
163 181 0
166 184 0
166 185 0
165 185 0
165 184 0
162 178 0
168 186 0
166 185 0
168 186 0
171 190 0
165 183 0
167 187 0
166 186 0
165 185 0
168 187 0
170 190 0
165 184 0
163 181 0
169 189 0
170 190 0
168 188 0
167 188 0
170 193 0
170 191 0
170 192 0
172 195 0
171 191 0
170 191 0
168 189 0
168 189 0
171 192 0
169 191 0
171 192 0
173 196 0
168 187 0
172 194 0
170 190 0
171 193 0
170 193 0
171 194 0
172 195 0
174 196 0
170 193 0
171 193 0
170 192 0
172 193 0
174 196 0
173 195 0
172 195 0
171 194 0
169 191 0
172 195 0
173 196 0
171 195 0
173 197 0
174 196 0
171 195 0
171 193 0
173 195 0
173 197 0
170 192 0
172 195 0
171 193 0
173 197 0
172 194 0
174 196 0
172 195 0
175 197 0
172 195 0
172 195 0
173 196 0
172 195 0
174 197 0
172 195 0
171 195 0
173 196 0
173 196 0
171 195 0
174 197 0
173 196 0
173 196 0
173 196 0
174 197 0
174 196 0
174 197 0
172 196 0
172 196 0
171 194 0
173 197 0
174 197 0
174 197 0
172 195 0
171 195 0
173 196 0
173 196 0
173 196 0
174 197 0
173 197 0
173 197 0
174 197 0
176 197 0
172 195 0
173 195 0
172 195 0
175 198 0
175 197 0
174 196 0
174 198 0
175 198 0
174 197 0
173 197 0
172 196 0
174 197 0
174 198 0
175 198 0
172 196 0
174 197 0
175 198 0
175 197 0
174 197 0
174 197 0
173 197 0
175 198 0
172 196 0
175 198 0
172 196 0
173 196 0
172 195 0
175 198 0
172 196 0
174 197 0
173 197 0
173 196 0
174 197 0
172 196 0
173 197 0
172 195 0
174 197 0
173 197 0
174 198 0
174 197 0
172 197 0
173 197 0
172 196 0
174 197 0
174 196 0
172 195 0
172 196 0
171 195 0
172 196 0
172 196 0
174 197 0
174 197 0
171 195 0
174 197 0
174 197 0
174 197 0
175 198 0
173 197 0
173 196 0
172 196 0
172 196 0
170 194 0
173 196 0
171 195 0
171 195 0
170 194 0
173 196 0
173 196 0
169 193 0
168 192 0
171 195 0
172 195 0
172 196 0
172 197 0
170 194 0
165 189 0
173 197 0
171 194 0
172 196 0
173 196 51
173 197 72
174 197 44
181 203 95
179 201 80
184 205 111
183 205 128
188 208 147
192 211 167
191 210 159
198 216 177
199 218 186
199 218 186
199 217 188
198 218 189
202 220 198
199 218 191
194 213 169
197 216 184
195 215 175
190 211 157
187 208 140
181 203 117
181 202 108
179 201 84
176 200 95
176 198 67
172 195 44
176 199 80
171 195 72
172 196 80
172 196 51
174 198 80
173 197 72
173 196 51
175 198 84
169 193 25
170 193 57
172 196 67
171 196 84
172 196 80
171 194 57
167 191 62
174 197 62
171 195 72
166 190 76
172 196 92
167 191 72
172 195 80
168 192 62
169 193 72
169 193 72
164 187 36
165 190 67
170 194 76
165 188 51
169 193 76
165 189 72
169 193 84
162 185 57
166 190 72
170 192 67
163 186 51
171 195 99
167 191 92
171 193 67
159 182 62
155 177 90
110 136 117
100 128 153
108 134 152
90 117 133
99 126 151
94 122 144
95 123 155
82 112 144
96 122 154
90 118 154
94 122 145
87 116 132
95 122 154
93 121 160
83 112 154
91 119 160
81 110 156
98 126 169
68 102 158
75 106 156
78 108 161
66 100 154
65 100 160
72 104 162
66 100 164
63 97 147
63 98 143
68 101 142
60 96 147
59 94 143
59 93 139
62 96 140
60 94 125
60 95 145
59 94 136
59 94 141
59 94 139
58 93 139
59 94 130
60 94 138
59 93 129
60 96 153
59 94 136
59 94 136
61 96 144
60 94 134
60 95 139
60 95 141
60 95 141
60 95 137
61 95 137
61 96 148
61 96 148
58 92 130
58 92 134
61 96 144
60 95 143
61 96 139
59 94 126
61 96 142
61 97 144
61 96 145
59 94 133
59 94 136
60 95 148
60 95 131
60 95 137
61 96 145
60 95 135
61 95 147
59 94 130
59 93 128
58 92 128
59 93 133
60 94 134
58 93 129
61 96 143
58 92 120
60 95 133
60 94 122
59 92 131
58 91 125
69 98 118
99 115 75
107 120 31
120 133 0
120 132 0
121 135 0
128 141 0
106 116 0
122 136 0
124 135 0
121 133 0
131 144 0
123 135 0
129 139 0
136 149 0
125 137 0
119 125 0
116 129 0
124 134 0
126 137 0
128 138 0
120 127 0
125 135 0
131 140 0
131 139 0
126 136 0
130 137 0
125 130 0
135 143 0
131 141 0
140 148 0
134 143 0
134 145 0
141 152 0
134 142 0
137 148 0
142 151 0
138 146 0
141 150 0
136 144 0
146 153 0
145 156 0
146 155 0
145 155 0
148 159 0
153 163 0
153 165 0
144 153 0
153 166 0
147 156 0
151 162 0
154 166 0
151 166 0
152 167 0
154 167 0
153 165 0
158 172 0
155 170 0
162 178 0
161 176 0
160 176 0
154 168 0
164 181 0
161 176 0
164 181 0
164 182 0
165 184 0
164 182 0
160 176 0
163 180 0
163 181 0
164 182 0
162 181 0
166 185 0
167 187 0
167 184 0
163 182 0
169 189 0
166 185 0
164 184 0
164 185 0
167 187 0
164 182 0
164 183 0
167 188 0
169 189 0
165 188 0
171 192 0
165 186 0
170 191 0
162 182 0
166 187 0
171 192 0
170 192 0
171 192 0
170 192 0
169 192 0
165 187 0
170 191 0
171 193 0
168 190 0
169 189 0
171 192 0
172 193 0
168 190 0
171 192 0
173 195 0
170 190 0
167 189 0
171 192 0
167 189 0
167 189 0
169 191 0
172 194 0
172 194 0
172 195 0
173 195 0
172 194 0
172 196 0
173 196 0
171 194 0
173 196 0
173 195 0
172 195 0
173 196 0
170 194 0
173 196 0
171 194 0
171 194 0
171 193 0
171 195 0
174 196 0
174 197 0
174 196 0
173 197 0
173 196 0
173 196 0
172 194 0
171 194 0
174 196 0
174 197 0
174 196 0
172 196 0
172 195 0
173 197 0
172 196 0
171 194 0
171 194 0
172 195 0
175 198 0
174 197 0
171 194 0
172 195 0
174 197 0
174 198 0
173 196 0
173 197 0
173 196 0
174 197 0
172 196 0
175 197 0
173 197 0
173 196 0
174 196 0
173 197 0
174 197 0
175 198 0
175 197 0
173 197 0
174 197 0
172 195 0
173 197 0
174 197 0
172 195 0
172 196 0
174 197 0
173 197 0
173 197 0
174 197 0
175 198 0
174 197 0
176 198 0
173 197 0
172 196 0
173 196 0
174 197 0
174 197 0
175 198 0
173 197 0
174 197 0
172 195 0
172 195 0
172 196 0
175 198 0
175 198 0
172 196 0
175 198 0
173 197 0
172 195 0
174 197 0
176 198 0
173 197 0
172 196 0
175 198 0
174 198 0
174 197 0
172 196 0
169 193 0
173 196 0
172 195 0
173 197 0
174 197 0
173 196 0
174 198 0
174 197 0
172 196 0
171 195 0
172 196 0
172 195 0
171 194 0
171 195 0
172 196 0
171 195 0
171 195 0
172 196 0
172 195 0
172 196 0
173 196 0
173 196 0
172 196 0
172 196 0
171 194 0
175 198 0
174 197 0
172 196 0
171 195 0
172 195 0
172 196 0
172 196 0
169 192 0
169 192 0
172 195 0
174 198 0
169 192 0
172 195 0
173 196 0
170 194 0
172 196 25
171 195 0
171 195 36
174 197 36
172 196 44
176 199 62
179 201 88
180 202 102
187 207 122
185 206 125
185 206 137
195 214 169
194 214 167
199 217 191
201 219 191
203 221 199
203 220 196
195 214 177
194 214 173
197 215 182
197 217 188
194 214 173
189 209 144
182 204 130
183 205 122
179 201 95
178 201 88
173 197 76
173 196 62
172 195 76
174 198 76
173 196 76
172 196 72
171 195 80
170 193 57
168 191 72
172 196 72
172 196 67
171 195 51
166 191 80
172 196 62
170 194 88
174 198 72
167 191 62
171 195 51
171 195 67
169 193 57
172 195 62
168 192 67
168 192 95
168 191 67
169 193 80
167 191 62
173 197 80
168 193 80
172 196 84
170 194 76
168 193 95
166 190 72
168 192 92
167 191 67
168 191 57
164 189 67
162 185 72
164 188 51
164 187 57
166 189 57
163 186 57
166 189 80
157 180 76
155 179 80
134 157 99
100 127 136
83 111 137
99 125 141
103 129 132
105 132 149
95 123 140
88 116 142
98 124 143
94 122 156
89 117 141
101 126 139
95 122 145
89 117 157
93 121 156
90 119 158
86 115 149
89 117 161
84 114 163
71 104 166
67 101 159
72 105 156
69 101 151
67 100 149
67 101 155
63 97 142
66 99 152
65 98 144
65 98 143
60 94 133
58 92 129
61 94 131
61 95 125
59 94 135
58 93 137
61 96 145
60 94 130
61 96 145
60 95 141
60 95 142
60 95 144
59 94 136
60 95 141
61 97 147
60 94 142
59 94 126
61 96 141
59 94 134
60 95 140
60 95 139
61 96 141
60 95 131
59 93 128
60 95 134
60 95 139
61 96 149
62 97 147
59 94 134
60 94 140
59 94 137
61 96 133
60 94 142
60 95 140
60 95 136
60 93 133
61 96 139
59 94 128
58 93 128
61 96 140
59 93 126
60 94 134
60 95 139
61 96 140
59 92 122
60 94 135
59 93 124
58 92 126
57 90 117
59 93 128
58 91 124
58 92 126
61 94 116
80 103 95
113 128 44
113 127 0
127 139 0
120 134 0
118 131 0
126 139 0
127 141 0
117 127 0
117 131 0
128 140 0
124 137 0
125 135 0
122 131 0
118 130 0
126 138 0
130 141 0
125 137 0
127 137 0
132 142 0
118 129 0
124 134 0
129 138 0
130 140 0
130 141 0
130 139 0
137 146 0
128 137 0
132 139 0
128 136 0
135 146 0
131 141 0
130 136 0
137 147 0
144 153 0
144 152 0
138 147 0
142 153 0
137 146 0
145 157 0
146 154 0
142 154 0
152 165 0
146 156 0
145 156 0
150 161 0
151 164 0
155 168 0
148 160 0
159 172 0
153 165 0
151 163 0
155 167 0
155 169 0
160 173 0
161 179 0
156 171 0
157 171 0
162 178 0
162 179 0
160 174 0
161 175 0
163 179 0
159 177 0
163 180 0
156 174 0
167 182 0
164 181 0
159 177 0
163 182 0
164 184 0
165 185 0
166 185 0
166 186 0
162 180 0
163 182 0
167 188 0
165 185 0
164 182 0
165 186 0
166 186 0
168 188 0
161 181 0
165 185 0
165 186 0
166 186 0
164 186 0
167 186 0
169 190 0
165 187 0
170 190 0
165 185 0
166 185 0
167 188 0
171 193 0
171 193 0
167 189 0
164 186 0
169 190 0
174 195 0
172 195 0
168 190 0
168 188 0
171 194 0
172 195 0
167 189 0
172 196 0
169 190 0
171 193 0
171 193 0
171 193 0
169 190 0
175 197 0
171 193 0
171 193 0
171 192 0
172 193 0
169 191 0
170 194 0
170 193 0
173 195 0
170 193 0
172 195 0
171 192 0
172 194 0
173 195 0
172 195 0
171 194 0
173 196 0
172 195 0
171 193 0
174 196 0
173 195 0
175 198 0
173 195 0
173 197 0
174 196 0
172 195 0
173 195 0
172 195 0
173 197 0
174 197 0
172 196 0
172 196 0
174 197 0
172 195 0
173 197 0
171 195 0
173 196 0
173 196 0
173 196 0
173 196 0
173 196 0
172 195 0
172 195 0
174 197 0
173 196 0
173 196 0
175 197 0
174 197 0
175 197 0
174 197 0
173 197 0
173 197 0
175 197 0
172 196 0
172 195 0
172 196 0
173 197 0
172 196 0
172 195 0
173 195 0
171 194 0
174 196 0
172 196 0
173 197 0
174 197 0
173 196 0
171 194 0
174 197 0
174 197 0
174 197 0
173 197 0
173 197 0
174 198 0
173 196 0
174 198 0
172 196 0
173 197 0
172 196 0
174 197 0
173 196 0
171 195 0
176 198 0
173 197 0
173 196 0
173 197 0
171 195 0
174 197 0
172 195 0
176 199 0
174 198 0
174 197 0
173 196 0
175 198 0
172 195 0
174 197 0
172 196 0
174 197 0
174 197 0
171 195 0
171 195 0
173 197 0
173 197 0
175 198 0
171 194 0
173 196 0
173 197 0
174 197 0
172 196 0
174 198 0
173 196 0
172 196 0
174 197 0
173 197 0
173 197 0
171 194 0
173 196 0
172 196 0
174 197 0
173 196 0
172 195 0
171 195 0
170 194 0
173 197 0
173 196 0
173 196 0
173 196 0
173 196 0
173 197 0
174 197 0
169 194 0
174 197 0
172 195 0
173 196 0
169 193 0
172 196 0
171 195 25
174 197 0
173 197 36
176 199 36
176 198 51
175 198 76
177 200 88
180 202 95
183 204 114
187 208 133
188 209 144
196 215 173
198 217 191
198 217 184
197 216 179
199 217 189
203 221 196
198 217 184
195 215 177
197 216 182
190 210 155
191 211 153
187 208 147
182 204 114
182 204 120
177 200 76
177 199 88
175 199 80
173 197 62
173 198 92
172 196 57
174 198 80
168 191 67
173 196 76
172 196 92
174 198 88
171 195 72
174 197 76
172 197 95
168 192 80
170 194 76
171 195 62
173 198 72
171 195 67
169 193 62
169 193 84
162 185 57
170 193 67
171 194 67
169 194 88
168 191 76
168 192 72
171 195 76
163 186 51
170 193 76
169 194 80
169 193 76
164 188 76
164 188 72
168 193 88
167 192 67
168 193 92
159 182 51
165 187 67
162 186 67
168 192 88
160 183 72
159 183 88
165 188 62
161 184 72
158 182 72
149 172 92
123 147 105
81 110 135
92 121 148
88 116 129
88 116 136
101 128 155
89 116 139
95 123 155
96 123 147
97 124 155
97 124 153
87 116 141
104 131 159
96 124 143
94 122 162
81 111 153
92 119 164
77 108 147
76 108 168
76 106 148
71 102 153
74 105 158
64 98 148
75 105 151
73 103 156
65 97 137
61 96 140
61 96 141
64 99 147
59 94 142
61 96 143
61 96 140
59 93 133
60 95 140
59 94 134
59 94 136
58 93 134
59 94 142
59 94 134
59 93 128
59 94 133
60 95 139
61 96 148
60 96 147
60 94 140
60 95 135
60 94 140
60 95 140
60 95 143
59 94 136
60 95 142
62 97 148
60 95 142
59 93 128
61 97 142
60 95 128
60 95 140
60 95 145
59 93 131
59 94 133
61 96 137
60 95 139
60 95 139
61 96 142
59 94 133
59 94 126
60 95 131
58 92 128
59 94 130
59 93 131
58 92 126
59 93 121
58 92 131
59 94 129
58 92 118
60 94 131
57 91 114
58 91 125
57 89 114
58 92 118
80 106 99
106 124 75
117 133 25
125 139 0
118 131 0
116 128 0
122 135 0
116 128 0
131 144 0
126 138 0
120 130 0
125 137 0
126 137 0
130 142 0
121 134 0
131 143 0
130 142 0
129 140 0
128 138 0
118 129 0
132 145 0
122 133 0
126 136 0
124 134 0
122 133 0
135 145 0
135 145 0
125 133 0
139 150 0
130 139 0
133 144 0
145 156 0
139 152 0
135 147 0
142 153 0
145 156 0
146 158 0
138 149 0
141 152 0
150 160 0
144 153 0
146 160 0
151 163 0
152 166 0
154 165 0
150 165 0
148 161 0
155 169 0
151 162 0
157 172 0
154 168 0
157 170 0
156 168 0
153 168 0
158 173 0
160 175 0
158 173 0
151 165 0
160 175 0
160 176 0
157 171 0
160 177 0
155 171 0
156 169 0
161 177 0
162 180 0
162 178 0
163 182 0
163 181 0
163 180 0
162 179 0
164 181 0
166 182 0
159 178 0
168 188 0
160 179 0
164 184 0
161 182 0
166 185 0
169 191 0
167 187 0
165 184 0
165 187 0
167 188 0
167 188 0
166 186 0
169 190 0
159 177 0
170 191 0
167 189 0
168 187 0
171 194 0
168 190 0
168 188 0
170 192 0
168 190 0
169 191 0
169 189 0
166 190 0
169 191 0
168 190 0
167 189 0
171 192 0
169 189 0
172 194 0
171 192 0
170 192 0
172 194 0
171 193 0
169 191 0
171 193 0
172 192 0
170 192 0
167 190 0
171 193 0
170 193 0
174 196 0
171 194 0
170 193 0
174 197 0
173 195 0
170 193 0
171 193 0
170 192 0
173 195 0
173 195 0
173 195 0
172 194 0
171 194 0
173 196 0
169 191 0
172 195 0
172 195 0
170 193 0
173 196 0
172 195 0
173 196 0
171 195 0
172 195 0
172 195 0
171 194 0
174 195 0
172 195 0
172 196 0
175 197 0
173 195 0
173 196 0
171 194 0
170 194 0
172 195 0
172 195 0
174 197 0
172 195 0
173 196 0
172 196 0
172 195 0
172 195 0
175 198 0
172 195 0
173 196 0
173 196 0
172 195 0
173 196 0
174 197 0
171 194 0
174 197 0
174 197 0
172 196 0
172 196 0
172 195 0
173 196 0
172 195 0
174 197 0
172 196 0
173 195 0
172 195 0
173 196 0
171 194 0
175 198 0
172 196 0
174 198 0
172 196 0
173 197 0
174 197 0
174 197 0
174 197 0
172 196 0
173 196 0
173 197 0
174 198 0
173 197 0
171 195 0
175 198 0
174 197 0
174 197 0
173 197 0
174 197 0
173 197 0
171 195 0
174 197 0
172 195 0
174 198 0
174 197 0
170 194 0
173 197 0
171 195 0
173 196 0
172 196 0
173 197 0
175 198 0
171 195 0
174 197 0
171 195 0
172 195 0
174 197 0
170 194 0
171 195 0
173 196 0
173 196 0
170 194 0
172 196 0
172 196 0
172 196 0
172 195 0
170 193 0
171 195 0
172 196 0
172 196 0
171 195 0
175 198 0
172 196 0
172 196 0
175 198 0
173 197 0
173 197 0
169 193 0
169 193 0
170 194 0
171 195 0
168 192 0
173 197 0
171 195 0
172 195 0
174 197 0
172 195 0
172 195 0
173 196 0
172 195 25
170 194 25
174 197 44
173 196 25
175 198 25
172 196 36
174 197 62
177 200 88
188 208 128
183 204 125
186 207 135
194 214 165
197 216 175
199 218 186
195 214 165
199 217 188
197 216 186
197 215 184
196 214 179
193 213 171
190 210 157
191 211 165
187 208 142
182 204 120
174 198 62
179 201 88
173 197 67
176 199 80
174 199 92
174 198 84
171 195 76
174 198 76
168 192 62
173 196 88
170 193 80
173 197 80
168 193 51
174 197 62
166 190 62
174 198 62
169 193 62
166 190 67
170 194 80
171 195 67
174 198 67
171 195 72
170 193 72
170 194 84
172 198 80
167 191 72
167 191 57
169 192 76
169 193 76
169 192 67
168 192 72
167 191 62
163 187 80
167 190 67
166 190 80
165 189 51
162 185 57
164 188 51
164 187 44
161 185 67
167 191 62
166 190 72
162 186 80
164 189 80
161 184 51
163 187 67
161 184 88
163 186 84
165 189 95
147 170 94
103 129 117
90 117 118
86 114 133
80 110 137
90 119 151
98 125 160
93 120 143
86 114 146
91 117 122
93 120 139
101 129 158
90 118 149
83 112 131
93 120 156
89 116 141
88 115 139
94 121 160
90 117 155
73 104 147
75 106 157
70 103 155
65 98 152
66 99 149
70 102 153
69 100 147
65 97 129
59 93 139
60 96 151
59 94 137
68 100 129
63 97 128
62 96 141
58 92 129
58 92 129
59 94 136
60 95 146
61 96 143
60 95 141
60 95 139
59 94 136
59 94 131
60 94 130
58 92 125
61 96 139
58 92 129
60 95 134
61 96 139
60 95 139
60 95 137
60 94 135
60 95 134
59 94 131
60 95 137
59 94 133
60 94 131
60 95 131
59 93 130
59 94 135
59 93 129
58 93 125
61 96 142
59 93 129
60 95 129
58 93 121
61 96 137
60 94 134
57 90 118
59 93 126
59 93 126
60 94 122
58 92 121
58 92 118
60 95 130
60 94 130
60 94 126
58 92 121
56 89 113
57 90 111
60 91 113
91 113 72
127 141 40
119 132 0
119 133 0
115 128 0
123 136 0
118 131 0
129 141 0
119 132 0
130 143 0
132 146 0
124 136 0
123 136 0
135 147 0
122 135 0
120 132 0
132 145 0
134 145 0
125 138 0
125 135 0
129 144 0
131 144 0
128 139 0
129 139 0
127 137 0
139 155 0
134 147 0
140 151 0
129 139 0
133 145 0
140 150 0
131 141 0
141 153 0
144 153 0
128 141 0
140 152 0
141 155 0
156 171 0
145 156 0
141 154 0
143 152 0
139 152 0
152 166 0
143 156 0
154 166 0
149 160 0
149 162 0
147 161 0
158 171 0
150 162 0
156 169 0
146 160 0
155 171 0
161 177 0
150 165 0
157 172 0
154 169 0
151 165 0
163 177 0
160 177 0
163 179 0
158 172 0
162 179 0
160 177 0
158 176 0
163 180 0
159 176 0
161 180 0
165 184 0
160 177 0
165 181 0
166 185 0
166 186 0
162 182 0
163 182 0
160 180 0
165 184 0
169 188 0
165 184 0
165 183 0
165 186 0
161 182 0
163 183 0
170 190 0
163 183 0
166 186 0
162 181 0
166 187 0
168 191 0
167 188 0
166 186 0
171 192 0
168 188 0
169 190 0
168 190 0
172 195 0
169 189 0
169 189 0
172 195 0
167 188 0
170 192 0
168 191 0
173 194 0
170 192 0
168 190 0
169 191 0
173 195 0
171 194 0
172 193 0
170 193 0
171 193 0
170 192 0
171 194 0
171 191 0
167 190 0
173 195 0
168 189 0
173 196 0
172 194 0
171 194 0
168 189 0
171 193 0
174 197 0
175 197 0
172 194 0
171 194 0
173 195 0
172 194 0
171 195 0
175 197 0
173 194 0
173 196 0
171 193 0
172 195 0
168 190 0
173 195 0
172 195 0
173 197 0
173 195 0
175 197 0
171 194 0
173 195 0
172 194 0
173 195 0
174 196 0
173 196 0
172 195 0
173 196 0
172 195 0
173 197 0
172 195 0
173 197 0
173 196 0
171 195 0
174 198 0
173 197 0
170 194 0
171 195 0
172 194 0
173 197 0
173 195 0
172 196 0
174 197 0
172 196 0
174 197 0
173 196 0
174 197 0
172 195 0
174 197 0
173 196 0
172 195 0
174 196 0
174 198 0
174 196 0
173 197 0
174 197 0
174 196 0
173 197 0
171 195 0
174 197 0
173 197 0
172 195 0
172 196 0
174 198 0
176 199 0
170 194 0
174 197 0
175 198 0
173 197 0
174 198 0
175 198 0
174 197 0
174 197 0
173 197 0
175 198 0
174 197 0
172 196 0
174 197 0
173 195 0
173 197 0
175 198 0
172 195 0
173 197 0
175 198 0
171 194 0
176 199 0
172 195 0
171 195 0
174 198 0
175 197 0
172 196 0
173 197 0
172 196 0
174 197 0
174 197 0
175 198 0
173 196 0
173 197 0
173 196 0
173 196 0
174 197 0
171 194 0
170 194 0
174 198 0
171 195 0
171 195 0
172 196 0
171 194 0
175 197 0
171 194 0
172 195 0
173 196 0
174 198 0
170 194 0
171 195 0
172 196 0
173 197 0
172 196 0
173 196 0
173 196 0
168 193 0
173 196 0
171 194 0
173 197 0
172 195 0
173 197 0
169 193 25
169 193 25
171 195 36
171 195 44
174 197 25
174 197 57
175 198 67
179 201 80
180 202 102
185 206 120
188 208 140
191 211 161
196 215 177
190 210 155
196 215 171
199 217 181
202 220 193
197 216 177
195 215 169
197 216 175
192 212 161
189 210 144
188 209 144
184 205 130
179 202 99
173 196 62
170 194 76
173 196 51
172 196 67
171 195 76
172 196 51
175 198 76
173 196 80
172 196 76
173 196 62
175 199 76
170 194 95
170 194 76
170 194 76
170 194 76
170 195 88
168 192 88
173 196 62
169 193 57
167 191 57
168 192 84
167 191 80
168 192 72
166 191 67
170 194 80
170 194 67
172 197 84
170 194 84
168 193 84
167 190 62
169 193 84
162 187 84
164 188 67
165 189 57
160 184 72
170 193 51
170 193 80
168 192 67
163 186 57
162 186 76
164 187 62
160 183 62
165 189 95
159 182 88
159 182 84
152 174 44
165 188 67
161 183 72
157 180 67
152 175 74
139 162 105
94 122 135
99 125 124
87 115 135
96 122 129
78 108 134
90 117 140
105 131 145
84 112 141
84 113 136
95 121 144
99 126 151
86 114 146
96 124 149
100 126 156
89 117 147
80 109 141
93 121 163
84 113 154
73 105 154
75 105 150
66 99 150
68 99 142
64 98 155
69 101 146
60 94 135
68 99 131
66 100 141
59 93 148
59 94 129
62 97 133
63 96 137
58 93 127
59 93 129
60 95 136
60 95 136
60 95 141
58 93 130
59 94 133
58 93 130
61 96 140
59 94 129
61 96 142
60 95 139
60 94 145
58 92 128
61 96 140
59 93 134
59 93 130
59 94 129
62 98 151
60 94 128
60 95 136
60 94 133
58 92 122
60 95 136
60 95 142
60 95 129
60 94 129
60 94 128
60 95 133
60 95 131
60 94 135
58 92 121
58 92 124
58 92 130
59 94 130
61 95 140
59 94 128
59 93 122
59 93 122
58 92 117
58 92 122
57 90 111
59 93 121
57 90 115
56 89 107
56 88 113
75 99 86
108 124 62
129 143 0
109 122 0
115 128 0
129 141 0
122 137 0
123 136 0
117 130 0
125 138 0
130 143 0
132 145 0
128 141 0
132 145 0
122 137 0
128 141 0
124 135 0
121 133 0
132 144 0
135 148 0
124 139 0
137 149 0
135 148 0
140 154 0
133 145 0
128 139 0
134 147 0
139 153 0
131 141 0
132 143 0
140 153 0
138 149 0
137 149 0
138 150 0
149 161 0
139 151 0
139 152 0
144 156 0
144 157 0
146 160 0
155 171 0
146 159 0
152 166 0
152 162 0
156 170 0
145 157 0
154 169 0
156 171 0
148 162 0
161 175 0
149 163 0
153 168 0
155 168 0
159 173 0
150 166 0
155 171 0
157 174 0
160 178 0
155 171 0
159 173 0
154 167 0
165 183 0
165 183 0
162 177 0
163 180 0
160 177 0
163 181 0
155 169 0
161 176 0
160 177 0
165 183 0
162 180 0
163 180 0
165 182 0
165 185 0
159 177 0
166 184 0
165 186 0
167 188 0
160 178 0
166 186 0
166 186 0
168 187 0
166 187 0
167 188 0
167 185 0
168 188 0
170 191 0
169 190 0
169 190 0
169 190 0
168 190 0
170 191 0
167 187 0
169 191 0
169 190 0
167 189 0
170 189 0
168 188 0
168 190 0
170 191 0
171 193 0
170 192 0
172 193 0
170 192 0
171 193 0
165 186 0
170 193 0
173 195 0
171 194 0
172 194 0
172 193 0
170 191 0
175 197 0
171 194 0
171 194 0
170 193 0
173 195 0
172 194 0
171 193 0
172 194 0
172 193 0
170 194 0
172 195 0
169 192 0
170 194 0
172 195 0
172 193 0
168 192 0
172 194 0
174 197 0
171 193 0
171 195 0
174 197 0
173 196 0
174 196 0
172 196 0
171 193 0
171 194 0
172 194 0
174 197 0
172 194 0
174 197 0
171 194 0
175 198 0
170 193 0
173 197 0
175 197 0
173 196 0
173 196 0
174 196 0
173 196 0
174 196 0
172 195 0
173 196 0
173 196 0
171 195 0
172 195 0
173 196 0
173 197 0
172 196 0
170 192 0
174 197 0
172 195 0
174 197 0
172 195 0
173 196 0
173 197 0
174 197 0
174 197 0
174 196 0
172 195 0
174 197 0
173 197 0
172 196 0
174 197 0
174 197 0
174 197 0
173 196 0
174 197 0
171 194 0
173 197 0
175 198 0
173 197 0
172 196 0
173 196 0
172 196 0
174 198 0
175 198 0
173 197 0
175 198 0
174 198 0
174 198 0
173 197 0
173 197 0
171 195 0
176 199 0
172 196 0
171 195 0
172 195 0
171 195 0
173 197 0
173 197 0
171 195 0
174 197 0
174 197 0
172 195 0
173 197 0
174 197 0
175 198 0
173 197 0
173 197 0
173 197 0
173 197 0
172 195 0
173 197 0
172 196 0
172 196 0
173 197 0
172 195 0
173 196 0
173 197 0
170 194 0
172 196 0
174 198 0
171 194 0
173 196 0
173 196 0
171 195 0
174 197 0
173 197 0
169 192 0
174 197 0
173 196 0
173 196 0
172 196 0
173 197 0
171 195 0
171 195 0
173 196 0
172 196 0
170 194 0
172 195 0
173 197 0
173 196 0
170 193 0
171 194 0
172 196 0
171 194 0
173 196 36
175 197 36
171 194 51
178 200 67
180 202 84
182 203 108
185 206 120
188 208 135
191 211 153
194 213 161
193 212 163
187 208 137
196 216 175
197 216 177
193 212 169
196 215 177
195 214 171
195 214 171
188 209 149
187 208 144
179 202 117
182 203 120
174 196 80
177 200 102
174 197 67
171 195 57
174 197 92
171 194 67
175 198 62
172 196 72
173 196 76
170 195 62
173 197 72
170 194 76
168 192 72
172 196 84
175 199 80
173 198 95
170 193 62
172 195 76
173 197 84
171 194 62
172 196 72
165 189 51
171 195 76
169 193 80
169 193 76
170 195 76
165 189 57
164 188 84
168 192 67
172 196 95
167 191 67
165 189 84
164 188 72
165 189 80
166 188 80
159 182 62
160 183 57
158 182 67
164 188 72
165 190 102
166 190 67
163 186 76
161 185 80
159 183 62
160 184 84
162 185 67
161 183 72
151 173 25
162 186 67
155 177 76
154 178 76
151 174 94
115 141 115
98 125 134
86 114 134
90 117 142
89 116 131
89 117 134
81 109 137
90 118 147
106 131 138
89 116 136
95 121 134
100 127 144
99 124 142
81 109 141
87 115 137
84 113 144
89 117 151
96 122 145
71 103 151
77 108 160
73 104 155
67 99 143
69 100 143
62 97 142
61 96 143
66 98 137
62 95 129
64 96 127
63 96 126
60 94 133
57 91 128
59 94 135
59 94 134
60 95 145
60 94 131
60 94 129
60 95 137
59 94 137
58 92 131
62 97 147
59 94 136
59 93 121
59 93 129
60 95 137
59 94 133
59 94 122
60 95 140
60 95 139
60 95 133
60 95 137
59 94 133
60 95 135
59 94 137
60 95 133
60 94 130
60 95 141
60 95 135
60 94 136
60 94 135
59 94 121
60 94 129
60 94 129
59 93 129
60 94 126
59 93 124
60 95 134
60 95 133
58 92 117
56 90 120
57 91 110
58 92 125
59 94 125
58 92 121
57 90 114
56 88 111
56 89 116
75 103 110
106 122 57
107 122 18
128 144 0
119 133 0
108 121 0
115 129 0
132 147 0
104 118 0
117 130 0
124 138 0
125 141 0
123 138 0
123 139 0
127 140 0
130 141 0
132 146 0
134 147 0
141 156 0
132 146 0
135 149 0
134 147 0
129 143 0
137 150 0
135 147 0
132 145 0
136 147 0
138 150 0
138 149 0
132 142 0
142 153 0
147 160 0
138 151 0
141 154 0
148 159 0
149 162 0
145 159 0
137 148 0
147 161 0
153 167 0
149 163 0
149 164 0
143 159 0
153 170 0
146 159 0
153 169 0
137 152 0
148 163 0
155 171 0
146 161 0
150 163 0
152 166 0
152 168 0
157 171 0
157 174 0
154 168 0
157 173 0
152 169 0
158 172 0
154 171 0
164 182 0
158 175 0
159 173 0
160 178 0
158 175 0
159 175 0
164 183 0
165 184 0
164 184 0
162 179 0
162 178 0
160 180 0
161 178 0
163 180 0
161 179 0
164 182 0
159 180 0
165 183 0
167 185 0
165 184 0
163 183 0
164 182 0
164 184 0
167 186 0
167 189 0
166 184 0
170 190 0
168 189 0
169 189 0
168 189 0
164 184 0
167 188 0
169 190 0
168 189 0
168 190 0
169 188 0
165 186 0
172 193 0
169 191 0
170 191 0
170 192 0
171 191 0
167 189 0
171 193 0
172 194 0
167 188 0
169 190 0
171 192 0
170 191 0
171 193 0
167 188 0
172 194 0
171 192 0
169 192 0
171 193 0
172 193 0
172 193 0
171 192 0
171 193 0
169 193 0
172 194 0
170 192 0
172 195 0
173 196 0
171 194 0
174 197 0
170 193 0
172 193 0
172 195 0
172 195 0
172 195 0
172 195 0
171 194 0
170 193 0
171 194 0
171 194 0
171 193 0
172 195 0
172 196 0
169 192 0
171 194 0
173 196 0
173 196 0
173 196 0
173 196 0
172 193 0
173 196 0
171 194 0
174 197 0
174 197 0
171 194 0
175 198 0
172 194 0
172 196 0
170 193 0
173 196 0
172 195 0
174 196 0
174 197 0
173 195 0
172 194 0
173 196 0
174 197 0
174 197 0
174 197 0
172 195 0
175 197 0
174 196 0
173 196 0
175 198 0
174 197 0
175 198 0
172 195 0
173 196 0
173 197 0
173 196 0
175 198 0
175 198 0
173 196 0
172 196 0
176 198 0
174 197 0
173 197 0
172 196 0
174 197 0
173 197 0
172 196 0
173 196 0
174 197 0
174 197 0
173 196 0
173 196 0
175 198 0
172 196 0
175 198 0
175 198 0
175 198 0
173 196 0
174 197 0
175 198 0
172 196 0
173 197 0
173 197 0
174 197 0
173 196 0
174 197 0
174 198 0
172 195 0
174 198 0
174 197 0
174 197 0
173 196 0
170 194 0
174 197 0
173 197 0
173 196 0
172 196 0
175 198 0
174 197 0
173 197 0
171 195 0
172 196 0
173 197 0
172 194 0
172 195 0
172 196 0
171 195 0
173 196 0
174 197 0
169 193 0
170 195 0
173 196 0
172 196 0
173 196 0
172 195 0
172 195 0
172 196 0
172 196 0
172 196 0
171 195 0
172 195 0
171 196 0
175 198 0
169 193 0
167 191 0
176 199 0
173 196 0
171 194 0
169 193 0
172 196 0
173 197 36
174 197 67
175 197 62
177 199 57
178 201 67
176 199 80
183 205 120
189 209 137
191 211 149
192 211 149
198 217 182
195 214 171
197 216 173
200 218 186
193 212 163
196 215 175
193 212 161
194 213 167
191 211 151
178 201 102
180 203 122
175 198 80
175 198 62
172 196 36
177 200 72
175 199 72
174 197 62
173 196 80
170 195 72
176 200 95
174 198 102
171 195 67
170 195 84
173 197 80
171 195 67
173 197 76
167 191 80
168 191 51
170 194 72
169 194 67
173 196 51
164 188 67
168 192 44
167 192 67
169 194 84
164 189 67
166 191 76
171 195 67
166 190 80
169 193 84
170 193 95
168 193 62
171 195 88
163 187 72
165 189 67
166 190 80
167 191 57
163 187 57
169 192 51
168 193 88
167 189 57
167 191 67
159 182 72
166 190 57
162 185 72
161 185 67
158 182 95
157 181 51
160 184 99
152 174 51
153 175 67
152 175 72
159 182 80
153 175 82
134 156 95
107 132 116
95 122 132
78 107 116
90 118 140
91 117 134
90 117 139
83 110 113
97 124 144
100 127 141
95 122 141
97 123 131
97 123 141
96 122 136
90 116 132
77 107 137
90 118 145
83 112 144
88 115 155
84 113 155
70 100 138
77 106 153
68 100 143
68 100 143
69 99 141
71 101 134
59 92 135
63 95 139
61 95 127
57 91 119
60 94 121
61 94 130
58 93 126
56 89 115
58 93 120
59 93 135
58 92 131
59 94 125
61 95 144
59 93 130
59 93 131
58 92 124
60 94 138
58 92 113
59 94 136
60 94 136
59 94 125
58 92 121
59 94 120
59 94 129
60 94 130
60 94 130
59 93 125
59 93 122
60 94 128
59 93 133
58 92 126
59 94 131
60 94 126
60 94 130
60 94 128
57 91 118
60 94 129
57 90 114
60 94 131
59 93 128
59 94 134
58 91 117
58 92 118
59 93 128
57 90 118
60 94 126
57 90 110
55 88 114
55 87 92
75 102 105
115 134 57
114 128 0
113 126 0
120 137 0
109 123 0
124 137 0
126 138 0
117 132 0
114 127 0
124 138 0
122 139 0
130 143 0
122 137 0
129 142 0
139 154 0
130 145 0
132 146 0
126 139 0
130 146 0
136 151 0
122 134 0
131 144 0
134 146 0
146 159 0
137 149 0
137 151 0
133 145 0
128 144 0
141 155 0
139 152 0
142 158 0
144 156 0
142 154 0
144 158 0
144 158 0
139 151 0
138 151 0
148 161 0
144 157 0
144 159 0
151 165 0
150 163 0
148 161 0
147 162 0
138 150 0
148 163 0
150 164 0
146 158 0
154 167 0
152 163 0
161 177 0
151 166 0
150 165 0
151 167 0
153 167 0
156 171 0
154 169 0
155 172 0
155 170 0
160 175 0
162 179 0
160 176 0
150 165 0
160 179 0
162 179 0
159 176 0
161 180 0
164 183 0
165 182 0
163 182 0
162 180 0
164 182 0
165 183 0
160 180 0
160 176 0
166 185 0
166 186 0
160 180 0
167 186 0
164 184 0
163 182 0
170 190 0
168 187 0
163 183 0
157 177 0
165 185 0
165 187 0
169 190 0
166 185 0
168 189 0
168 189 0
167 189 0
168 188 0
166 187 0
173 196 0
164 186 0
167 186 0
169 191 0
166 187 0
170 191 0
170 192 0
169 189 0
170 191 0
169 191 0
168 188 0
169 192 0
172 194 0
173 194 0
166 188 0
172 194 0
169 192 0
169 193 0
171 192 0
166 188 0
170 192 0
173 195 0
169 193 0
171 193 0
173 195 0
171 194 0
172 193 0
169 191 0
171 193 0
172 195 0
173 196 0
171 193 0
170 192 0
172 195 0
170 191 0
171 193 0
170 193 0
173 196 0
173 197 0
172 195 0
172 195 0
173 196 0
173 196 0
173 196 0
169 192 0
171 195 0
174 196 0
172 194 0
170 193 0
173 195 0
173 197 0
173 197 0
173 196 0
173 195 0
173 196 0
172 195 0
171 193 0
173 197 0
170 194 0
172 195 0
174 196 0
171 195 0
173 197 0
174 197 0
174 197 0
171 194 0
174 197 0
174 197 0
174 197 0
171 195 0
173 195 0
174 197 0
173 196 0
173 195 0
174 197 0
174 197 0
174 197 0
174 197 0
172 196 0
173 196 0
172 197 0
171 195 0
175 198 0
174 197 0
172 195 0
173 197 0
175 198 0
173 196 0
173 196 0
172 196 0
173 197 0
174 197 0
175 198 0
175 198 0
175 198 0
172 196 0
176 198 0
174 197 0
174 198 0
172 196 0
172 196 0
172 196 0
174 197 0
174 197 0
173 197 0
173 197 0
172 195 0
174 197 0
173 197 0
173 197 0
174 197 0
174 197 0
173 197 0
174 197 0
171 195 0
172 195 0
173 196 0
173 196 0
174 197 0
173 197 0
173 196 0
174 198 0
174 197 0
171 195 0
171 195 0
170 194 0
173 196 0
172 195 0
172 195 0
172 196 0
173 197 0
171 195 0
173 196 0
173 196 0
170 194 0
173 196 0
173 196 0
173 196 0
172 196 0
172 195 0
172 196 0
172 195 0
173 197 0
172 196 0
173 196 0
174 197 0
173 196 0
174 197 0
173 196 0
170 195 0
172 195 0
171 195 0
174 197 0
170 194 0
172 197 0
171 194 36
172 195 51
169 193 0
172 196 36
179 202 84
181 202 99
182 203 114
183 205 122
190 211 153
196 215 169
191 210 153
195 214 169
194 213 163
195 214 171
197 216 179
190 211 151
191 211 161
190 209 157
185 206 133
184 205 140
182 204 114
175 198 72
173 196 76
171 195 51
176 200 88
172 195 62
172 195 72
171 193 80
174 198 84
172 196 67
173 196 80
174 198 57
173 197 76
173 197 88
172 197 80
170 194 72
172 196 76
168 191 51
170 195 92
169 193 62
169 193 72
170 195 84
172 195 76
168 192 84
169 193 51
171 196 88
168 193 80
174 197 72
172 197 95
167 192 67
171 196 84
166 190 72
170 194 67
167 191 84
166 191 80
168 192 76
164 189 80
162 187 57
163 187 80
164 188 67
163 188 84
155 178 84
165 190 92
162 186 67
159 183 88
159 183 80
165 190 67
161 184 62
163 188 84
155 178 76
160 182 80
152 176 67
161 185 95
146 168 62
149 171 57
150 172 78
121 143 90
86 112 114
94 120 126
96 122 124
94 120 130
98 124 141
86 113 125
95 120 144
91 118 132
99 125 132
109 134 147
81 109 131
88 116 134
90 116 129
88 116 148
88 116 143
82 110 145
86 113 149
69 102 156
77 105 137
75 105 150
83 111 145
79 106 141
68 101 143
70 100 134
67 98 137
67 99 133
64 95 125
61 94 131
60 94 115
61 94 122
62 95 122
59 94 129
58 93 120
57 90 117
60 94 137
57 90 110
58 93 126
59 93 124
59 93 120
59 94 130
61 96 134
58 92 119
59 93 124
59 93 125
58 92 118
60 95 134
59 93 137
60 94 126
60 94 134
59 94 130
57 90 118
59 94 129
60 94 125
60 94 133
61 96 136
60 94 128
60 95 134
59 93 126
58 92 115
60 95 126
58 92 124
59 93 118
59 93 134
58 91 113
59 93 122
58 92 125
61 96 143
58 92 114
56 89 105
58 90 120
58 91 115
54 85 100
71 97 88
90 110 65
105 122 18
127 143 0
120 134 0
103 116 0
122 136 0
111 124 0
118 132 0
132 147 0
118 132 0
127 142 0
123 136 0
126 141 0
130 147 0
134 148 0
124 138 0
140 155 0
127 142 0
133 148 0
124 136 0
133 145 0
131 145 0
146 161 0
122 135 0
128 141 0
133 150 0
139 153 0
137 153 0
139 153 0
142 154 0
143 159 0
145 162 0
148 162 0
144 158 0
147 159 0
141 154 0
143 157 0
145 159 0
141 154 0
152 169 0
140 155 0
152 167 0
151 166 0
150 166 0
154 167 0
157 173 0
144 156 0
142 156 0
149 166 0
149 162 0
154 170 0
149 163 0
155 170 0
158 172 0
151 166 0
148 164 0
161 176 0
159 177 0
161 177 0
161 177 0
160 173 0
162 177 0
155 172 0
161 178 0
159 177 0
160 176 0
159 177 0
162 179 0
165 183 0
160 178 0
164 182 0
165 184 0
160 180 0
163 182 0
166 185 0
164 185 0
166 184 0
160 178 0
158 178 0
169 190 0
165 183 0
164 183 0
165 185 0
163 183 0
166 185 0
167 187 0
169 191 0
166 186 0
169 189 0
169 189 0
165 186 0
168 189 0
164 185 0
169 189 0
169 189 0
168 189 0
167 188 0
170 192 0
170 191 0
169 190 0
167 187 0
166 188 0
166 188 0
173 194 0
165 186 0
171 192 0
172 196 0
172 195 0
168 189 0
169 190 0
168 189 0
170 191 0
171 193 0
171 193 0
173 195 0
172 195 0
172 194 0
171 193 0
172 195 0
173 194 0
172 194 0
170 193 0
169 190 0
170 193 0
173 195 0
171 194 0
173 195 0
171 193 0
172 195 0
173 195 0
172 195 0
171 195 0
170 194 0
171 193 0
173 195 0
171 194 0
171 195 0
173 195 0
172 195 0
173 196 0
174 197 0
173 195 0
174 197 0
174 196 0
173 196 0
173 196 0
169 192 0
171 195 0
172 195 0
171 194 0
173 195 0
174 197 0
175 198 0
173 196 0
174 197 0
173 196 0
170 194 0
172 195 0
171 194 0
170 191 0
172 195 0
171 195 0
173 196 0
172 194 0
175 198 0
173 196 0
172 195 0
173 196 0
173 196 0
175 197 0
172 196 0
173 196 0
171 195 0
175 198 0
174 197 0
173 196 0
175 198 0
174 197 0
169 193 0
174 197 0
173 197 0
172 196 0
173 197 0
172 195 0
174 198 0
174 198 0
173 197 0
174 198 0
175 198 0
171 195 0
174 197 0
175 198 0
172 196 0
172 196 0
173 196 0
173 196 0
175 198 0
173 197 0
173 197 0
173 197 0
172 196 0
175 198 0
173 196 0
173 197 0
174 197 0
175 198 0
173 197 0
174 198 0
173 197 0
172 196 0
174 198 0
172 196 0
172 195 0
172 196 0
175 198 0
173 196 0
171 194 0
173 197 0
174 197 0
170 193 0
172 196 0
173 197 0
172 195 0
171 195 0
174 197 0
172 195 0
172 196 0
173 196 0
172 196 0
174 197 0
171 194 0
169 193 0
172 196 0
172 196 0
172 196 0
174 197 0
173 196 0
172 196 0
171 195 0
172 196 0
170 195 0
171 194 0
171 195 0
168 193 0
172 195 0
171 194 0
172 196 0
171 194 0
173 197 0
176 199 36
173 196 62
173 195 25
175 198 44
174 197 51
179 201 76
176 198 57
183 204 114
189 209 135
190 210 142
194 213 163
200 218 186
197 215 173
198 217 181
193 212 157
196 215 175
191 210 159
190 210 147
191 210 155
191 210 159
182 203 114
180 203 108
177 199 99
173 196 76
172 195 72
170 194 62
174 197 95
174 198 84
171 195 57
169 193 80
173 196 76
174 198 76
173 197 72
172 196 95
174 197 99
170 194 67
175 199 99
172 196 72
172 197 88
172 196 76
171 196 76
167 191 72
168 191 36
168 192 80
167 192 99
170 194 67
170 193 57
167 191 62
166 190 57
165 189 51
168 193 72
167 192 92
169 192 72
166 191 92
170 193 57
163 186 57
160 184 51
164 189 80
167 192 99
162 186 67
161 185 88
164 188 80
164 187 72
164 188 72
164 188 88
159 182 67
164 186 84
159 183 80
163 186 84
155 178 72
155 178 84
153 176 72
141 164 76
153 177 72
159 181 88
156 179 72
151 173 76
145 166 72
119 143 103
88 115 125
79 106 113
93 119 121
90 117 134
80 109 113
93 119 137
103 128 141
85 112 134
92 118 137
95 121 125
106 129 138
91 117 139
96 123 153
105 129 140
95 121 147
85 114 148
88 115 147
83 111 152
75 105 152
70 101 145
75 103 149
71 103 149
66 97 128
64 97 133
64 96 123
58 91 128
69 99 121
63 95 121
60 93 120
58 92 129
62 96 136
60 93 114
58 91 120
59 93 129
60 95 128
57 90 119
60 94 129
58 92 122
58 92 128
60 95 140
59 94 130
60 94 130
59 93 126
58 92 119
59 94 128
59 94 130
58 92 120
59 93 125
60 94 134
60 94 129
59 94 129
59 93 124
59 93 122
60 95 130
59 93 120
59 93 128
60 94 126
60 95 135
59 93 122
58 91 115
57 90 114
58 92 120
58 92 115
57 91 117
58 92 117
57 90 113
58 91 115
59 93 122
57 90 117
55 88 105
79 104 97
99 118 67
110 125 25
118 133 0
120 135 0
108 124 0
107 122 0
121 137 0
120 137 0
123 137 0
123 138 0
131 147 0
121 137 0
130 144 0
121 134 0
134 150 0
129 145 0
133 148 0
137 152 0
132 146 0
132 145 0
134 148 0
143 159 0
138 153 0
136 153 0
135 151 0
131 144 0
136 149 0
132 145 0
146 163 0
140 155 0
141 156 0
139 151 0
144 160 0
143 159 0
148 163 0
139 154 0
141 156 0
152 168 0
148 162 0
150 165 0
152 169 0
147 160 0
145 160 0
155 171 0
142 155 0
148 163 0
153 167 0
154 168 0
151 165 0
149 165 0
149 166 0
158 172 0
157 172 0
159 176 0
154 171 0
154 172 0
160 177 0
153 169 0
156 173 0
160 176 0
158 176 0
158 177 0
160 177 0
159 176 0
160 177 0
159 175 0
158 176 0
163 181 0
161 179 0
165 184 0
159 178 0
166 184 0
163 180 0
163 180 0
162 180 0
161 179 0
167 187 0
163 182 0
161 181 0
164 182 0
164 184 0
164 184 0
169 188 0
166 186 0
167 189 0
168 187 0
168 190 0
168 187 0
167 187 0
170 190 0
169 190 0
167 188 0
171 193 0
166 186 0
170 192 0
169 190 0
170 191 0
168 189 0
169 187 0
169 189 0
169 191 0
170 192 0
169 190 0
171 193 0
169 192 0
170 193 0
171 194 0
169 191 0
168 191 0
166 188 0
170 191 0
173 194 0
172 196 0
170 192 0
173 196 0
171 193 0
169 192 0
169 191 0
167 189 0
171 192 0
173 194 0
173 196 0
170 192 0
172 195 0
171 194 0
171 193 0
173 195 0
174 196 0
173 196 0
170 193 0
172 196 0
172 195 0
170 192 0
170 192 0
171 193 0
174 195 0
171 194 0
171 195 0
173 196 0
173 197 0
170 194 0
171 195 0
174 196 0
172 196 0
172 196 0
174 195 0
172 196 0
174 197 0
173 195 0
175 197 0
171 194 0
174 197 0
173 195 0
171 195 0
174 196 0
172 195 0
172 196 0
175 198 0
173 196 0
173 196 0
171 195 0
174 197 0
172 195 0
174 197 0
173 196 0
172 195 0
172 195 0
172 194 0
173 196 0
173 197 0
172 194 0
173 195 0
173 196 0
173 197 0
173 196 0
174 197 0
174 197 0
170 194 0
174 198 0
175 198 0
172 196 0
174 196 0
174 197 0
173 196 0
173 197 0
173 197 0
175 198 0
175 198 0
173 197 0
174 197 0
173 197 0
174 197 0
176 199 0
175 198 0
171 195 0
172 196 0
175 198 0
172 195 0
173 196 0
174 196 0
173 197 0
173 197 0
175 198 0
172 195 0
173 197 0
174 197 0
173 196 0
172 195 0
173 197 0
172 196 0
176 198 0
172 196 0
172 195 0
170 194 0
172 195 0
173 196 0
174 197 0
171 195 0
171 195 0
175 198 0
172 195 0
173 196 0
173 197 0
172 196 0
172 196 0
172 196 0
173 196 0
175 198 0
174 197 0
173 196 0
171 194 0
172 196 0
172 195 0
171 194 0
172 195 0
172 195 0
172 196 0
170 194 0
171 194 0
170 194 0
168 192 0
173 196 0
173 196 0
170 194 0
171 195 0
170 194 0
170 194 0
175 198 0
170 193 0
172 194 36
172 196 0
173 196 44
171 194 36
171 194 44
176 199 57
177 199 84
178 200 84
184 205 111
190 210 149
190 210 140
191 211 151
193 212 161
200 219 188
195 214 165
194 213 167
192 212 155
193 213 157
194 214 167
190 210 155
181 203 114
181 203 95
177 200 62
175 198 72
174 197 99
167 191 51
172 196 62
169 193 57
169 194 76
172 195 44
174 198 76
174 197 67
172 196 72
173 196 80
170 195 76
172 196 62
168 192 57
171 194 62
170 194 76
167 191 72
169 194 76
169 194 76
171 196 84
174 198 88
168 193 62
167 191 62
172 196 51
171 195 76
169 193 51
170 195 57
165 189 67
164 187 67
165 190 76
162 186 67
166 190 80
168 192 76
166 189 80
163 188 72
162 185 67
165 189 84
161 185 57
163 187 67
166 191 80
167 191 76
162 186 88
165 189 76
164 188 88
160 183 62
162 187 99
165 188 80
164 188 67
154 178 76
162 185 80
157 180 76
139 162 44
153 176 84
156 179 76
148 171 67
150 171 80
145 168 84
104 129 110
88 115 130
99 125 134
86 112 113
93 119 122
74 102 116
92 117 120
83 110 117
101 126 133
93 118 132
91 117 134
88 115 133
92 120 145
98 123 139
100 125 139
95 121 143
79 109 142
92 119 150
81 107 137
72 102 134
86 110 138
71 100 137
64 96 132
64 96 124
71 101 125
68 100 128
66 98 129
63 95 120
62 95 129
58 92 118
60 93 114
59 93 126
60 95 137
59 93 133
60 94 134
58 91 113
58 91 131
59 93 117
59 93 120
58 92 119
59 94 134
60 94 126
59 93 126
59 92 120
57 91 126
59 94 122
59 93 126
58 92 129
58 92 128
59 93 128
59 93 124
58 92 118
57 90 110
61 96 137
57 91 119
58 92 113
59 93 120
59 93 126
58 92 121
60 94 117
57 91 113
58 91 114
58 92 111
56 89 103
57 90 121
59 93 115
57 91 102
57 90 105
60 89 100
71 95 74
96 112 36
116 129 18
109 124 0
111 125 0
124 138 0
124 139 0
116 131 0
128 145 0
118 130 0
122 138 0
127 140 0
127 141 0
128 142 0
129 144 0
132 150 0
135 151 0
140 156 0
127 142 0
130 146 0
131 146 0
141 156 0
147 165 0
139 155 0
131 145 0
142 157 0
143 160 0
137 152 0
136 154 0
143 160 0
138 154 0
138 153 0
141 157 0
144 160 0
141 159 0
141 155 0
135 151 0
153 169 0
146 160 0
148 164 0
147 164 0
154 173 0
156 173 0
154 172 0
150 165 0
150 166 0
149 164 0
149 166 0
153 167 0
148 162 0
144 159 0
156 170 0
156 171 0
159 176 0
157 174 0
160 175 0
156 174 0
160 176 0
152 170 0
157 174 0
158 176 0
162 178 0
164 182 0
161 181 0
157 176 0
159 178 0
163 180 0
155 173 0
162 180 0
166 184 0
165 185 0
160 179 0
164 183 0
161 181 0
160 180 0
161 179 0
168 187 0
162 182 0
165 185 0
164 185 0
162 181 0
165 184 0
165 183 0
166 187 0
169 189 0
161 180 0
168 189 0
164 183 0
165 185 0
168 189 0
167 189 0
168 190 0
169 191 0
167 188 0
169 190 0
168 189 0
166 185 0
167 188 0
171 193 0
168 188 0
167 189 0
170 192 0
168 190 0
172 194 0
170 192 0
170 191 0
164 186 0
171 193 0
170 191 0
167 190 0
169 191 0
173 196 0
170 192 0
171 194 0
170 193 0
173 195 0
167 189 0
170 191 0
168 190 0
173 195 0
172 194 0
170 192 0
170 193 0
170 192 0
171 194 0
171 193 0
170 194 0
171 194 0
171 193 0
171 193 0
171 193 0
171 194 0
173 195 0
171 194 0
172 194 0
171 194 0
173 196 0
173 195 0
172 195 0
173 196 0
173 196 0
172 194 0
171 193 0
172 196 0
172 196 0
172 195 0
170 192 0
172 194 0
171 194 0
171 194 0
175 196 0
172 195 0
173 197 0
172 194 0
174 197 0
172 195 0
174 196 0
175 198 0
173 196 0
173 196 0
173 196 0
173 196 0
173 196 0
172 195 0
173 196 0
172 195 0
175 197 0
174 197 0
173 196 0
172 195 0
173 196 0
174 196 0
174 198 0
175 198 0
175 198 0
174 197 0
174 197 0
174 197 0
173 196 0
174 198 0
173 197 0
172 196 0
173 196 0
175 198 0
174 197 0
174 197 0
172 196 0
172 195 0
174 197 0
175 198 0
176 198 0
173 197 0
171 194 0
175 198 0
173 196 0
174 197 0
175 198 0
175 198 0
173 197 0
174 197 0
176 198 0
171 195 0
173 197 0
172 195 0
173 197 0
173 197 0
175 198 0
173 197 0
171 195 0
174 198 0
174 198 0
175 197 0
175 198 0
172 196 0
173 197 0
172 196 0
172 195 0
172 195 0
174 197 0
172 196 0
170 194 0
173 196 0
175 198 0
172 195 0
171 195 0
171 194 0
172 195 0
173 196 0
171 196 0
169 194 0
170 194 0
171 194 0
173 196 0
173 196 0
172 196 0
175 198 0
171 195 0
172 195 0
173 196 0
173 196 0
171 195 0
172 195 0
171 195 0
170 194 0
171 195 0
168 192 0
173 196 0
170 193 0
172 196 0
171 194 0
171 195 25
172 195 0
172 196 44
177 199 57
172 196 36
177 200 72
178 200 80
178 201 72
181 202 92
185 205 117
191 211 151
191 211 144
190 211 149
193 213 165
197 215 171
192 211 165
191 211 155
190 210 147
188 208 140
188 208 147
190 210 151
182 204 125
179 201 92
171 194 57
174 197 84
173 197 72
174 197 76
173 197 67
176 199 57
172 195 72
170 194 72
172 196 44
175 199 62
172 195 67
167 191 57
169 193 57
173 197 88
168 192 57
171 195 72
170 194 62
166 191 62
168 192 67
171 195 62
173 196 72
166 190 80
167 192 57
173 196 67
169 192 44
171 195 62
171 195 80
166 192 80
170 194 62
169 193 92
168 191 67
167 191 62
166 190 84
169 192 88
164 188 76
168 193 80
164 187 67
165 189 62
166 189 80
165 189 57
166 190 72
162 185 51
168 191 88
157 181 84
159 182 92
160 184 76
160 183 102
159 182 84
164 186 84
155 177 67
162 184 80
153 176 67
154 177 67
158 182 80
145 166 51
154 176 80
155 178 88
145 167 67
131 153 84
102 126 100
76 103 110
96 122 135
102 127 141
86 113 125
92 118 129
95 120 124
103 127 118
102 127 140
100 126 129
97 123 140
102 127 145
102 127 132
92 119 139
97 124 141
91 115 134
97 122 144
95 118 137
89 113 139
82 108 146
80 107 139
68 98 138
67 99 128
65 97 122
66 100 133
61 93 120
64 96 110
64 97 133
57 91 117
59 93 120
60 93 118
60 94 134
56 89 113
57 91 111
58 92 122
57 90 112
60 94 130
58 93 122
59 93 122
58 93 122
60 94 126
57 91 111
60 95 129
59 94 128
59 93 122
60 94 124
59 93 129
59 93 124
59 93 124
58 92 122
59 94 126
57 91 124
58 92 122
60 94 122
58 92 120
58 92 117
56 89 120
59 93 120
57 90 108
57 90 108
57 90 113
58 92 120
58 91 120
57 90 103
56 89 110
55 87 97
57 88 100
77 101 82
102 118 40
117 132 0
109 124 0
123 140 0
109 123 0
108 123 0
108 123 0
109 124 0
127 144 0
118 132 0
114 130 0
125 141 0
126 142 0
124 138 0
124 140 0
139 155 0
143 158 0
130 145 0
132 149 0
131 147 0
139 155 0
134 150 0
144 160 0
139 156 0
130 147 0
146 163 0
132 148 0
138 156 0
137 151 0
141 156 0
137 153 0
141 156 0
149 163 0
146 162 0
146 163 0
145 160 0
152 167 0
143 159 0
147 163 0
137 153 0
142 158 0
144 160 0
151 168 0
151 167 0
151 168 0
146 162 0
148 163 0
151 167 0
156 172 0
154 170 0
160 177 0
156 173 0
156 172 0
165 182 0
156 171 0
154 172 0
157 176 0
151 166 0
161 180 0
156 175 0
165 184 0
160 176 0
159 178 0
159 179 0
154 169 0
161 181 0
161 179 0
161 178 0
162 179 0
163 182 0
160 179 0
162 181 0
166 186 0
168 187 0
163 182 0
167 187 0
161 182 0
166 185 0
162 180 0
159 177 0
160 180 0
169 190 0
163 183 0
168 188 0
166 186 0
163 182 0
166 187 0
165 185 0
168 189 0
166 185 0
166 187 0
167 187 0
168 190 0
170 191 0
167 188 0
168 189 0
166 186 0
171 192 0
165 185 0
164 184 0
168 190 0
166 188 0
168 189 0
170 193 0
169 191 0
166 188 0
171 194 0
168 192 0
170 192 0
171 194 0
171 193 0
165 189 0
169 191 0
170 193 0
168 191 0
168 188 0
171 193 0
169 192 0
171 192 0
172 194 0
172 194 0
170 193 0
172 194 0
173 195 0
169 191 0
168 191 0
171 194 0
171 193 0
169 193 0
168 190 0
168 190 0
167 191 0
170 192 0
171 192 0
172 193 0
173 197 0
171 195 0
173 195 0
169 192 0
168 190 0
171 194 0
171 194 0
172 196 0
172 195 0
176 198 0
171 194 0
172 195 0
172 195 0
173 195 0
172 195 0
174 197 0
171 194 0
173 197 0
172 194 0
173 196 0
175 198 0
173 196 0
170 193 0
173 195 0
173 196 0
172 195 0
175 197 0
175 198 0
172 195 0
173 196 0
172 196 0
174 197 0
172 195 0
171 194 0
172 195 0
174 197 0
173 196 0
173 196 0
173 197 0
174 197 0
170 194 0
174 197 0
173 196 0
172 195 0
171 194 0
174 198 0
172 196 0
174 197 0
174 197 0
172 196 0
175 198 0
174 198 0
171 195 0
174 198 0
174 198 0
173 197 0
171 196 0
172 196 0
174 197 0
173 197 0
173 197 0
172 197 0
172 196 0
173 197 0
175 198 0
175 198 0
171 195 0
176 198 0
174 197 0
173 196 0
174 197 0
172 196 0
174 197 0
173 197 0
174 197 0
172 196 0
172 195 0
173 196 0
172 196 0
173 197 0
171 195 0
172 196 0
172 196 0
172 196 0
170 194 0
174 198 0
171 195 0
173 197 0
171 195 0
174 197 0
172 196 0
173 197 0
174 197 0
175 198 0
174 197 0
172 195 0
173 196 0
170 193 0
172 195 0
171 194 0
173 196 0
172 195 0
173 197 0
169 193 0
170 195 0
174 197 0
175 198 0
172 196 0
170 195 0
171 194 0
171 194 0
169 193 0
173 197 0
171 195 0
170 193 0
174 197 0
173 197 36
172 195 36
173 197 25
174 197 44
173 196 51
176 199 80
180 202 84
179 201 88
183 203 111
192 211 153
189 210 147
191 210 151
190 211 155
192 212 161
190 210 155
189 209 142
188 208 135
191 211 161
186 207 137
183 204 117
183 205 122
178 201 92
175 197 72
177 201 95
173 196 62
172 195 67
167 191 72
172 195 51
172 196 57
169 194 72
171 195 51
170 195 84
174 197 76
171 194 67
171 196 76
172 196 67
171 194 62
172 196 95
171 196 80
172 196 62
170 195 80
168 192 76
169 193 92
169 193 92
165 190 57
165 190 62
168 192 76
166 191 84
168 192 62
167 192 102
169 193 84
172 195 88
169 193 88
166 190 67
163 187 84
168 191 80
172 194 88
169 191 72
168 191 67
158 181 51
165 188 84
163 186 84
165 187 95
164 187 95
155 179 76
156 180 84
164 186 95
166 189 92
158 182 72
156 178 88
160 183 76
157 179 92
158 180 80
152 174 67
153 175 76
145 167 44
154 176 62
145 167 62
145 167 88
142 164 57
147 168 76
132 154 90
98 123 118
90 116 105
96 123 139
92 119 117
85 111 123
90 117 131
93 119 130
105 130 144
101 125 142
92 118 135
95 120 133
97 122 131
89 116 136
90 116 131
83 111 137
75 104 133
81 107 130
85 112 146
92 115 142
62 94 136
74 102 125
66 97 120
66 97 122
65 95 112
65 95 113
68 99 109
66 97 116
62 94 111
59 92 110
62 96 115
58 92 121
57 90 114
56 89 110
57 91 110
59 94 118
58 92 124
60 94 126
56 90 114
57 90 108
57 91 120
58 93 121
57 90 110
59 93 118
59 94 122
58 92 120
59 93 129
58 91 115
56 90 115
57 91 114
56 89 103
59 93 118
55 87 114
59 93 128
58 92 124
57 90 111
59 93 124
57 91 108
57 90 107
60 94 126
58 91 120
55 88 95
56 89 103
55 88 100
55 88 100
61 93 97
77 98 65
93 110 44
115 128 0
112 127 0
98 114 0
124 137 0
118 133 0
119 135 0
120 134 0
126 140 0
119 135 0
123 139 0
115 131 0
123 140 0
140 159 0
114 130 0
136 152 0
128 144 0
132 147 0
127 144 0
131 146 0
137 153 0
142 158 0
137 153 0
139 157 0
132 148 0
137 153 0
140 157 0
132 147 0
147 165 0
147 163 0
146 163 0
142 158 0
141 159 0
138 153 0
138 154 0
141 156 0
150 165 0
142 161 0
154 171 0
144 159 0
146 162 0
149 166 0
151 167 0
149 165 0
155 174 0
135 150 0
151 167 0
160 177 0
150 167 0
151 168 0
146 163 0
148 164 0
154 171 0
155 172 0
153 171 0
160 178 0
160 176 0
153 171 0
152 168 0
157 174 0
159 176 0
159 176 0
161 181 0
158 176 0
162 181 0
162 182 0
150 168 0
159 176 0
162 182 0
159 178 0
163 181 0
160 179 0
163 183 0
159 176 0
164 184 0
159 177 0
163 182 0
165 184 0
159 177 0
169 190 0
164 184 0
164 186 0
162 181 0
162 182 0
165 186 0
166 187 0
165 184 0
167 187 0
165 184 0
169 190 0
169 190 0
162 182 0
168 190 0
165 186 0
168 190 0
165 187 0
169 190 0
170 192 0
164 183 0
168 190 0
166 188 0
170 191 0
168 190 0
165 186 0
167 190 0
172 193 0
165 187 0
167 189 0
168 190 0
170 193 0
170 192 0
169 191 0
173 195 0
166 188 0
171 193 0
173 195 0
171 194 0
171 194 0
172 192 0
172 194 0
170 192 0
172 195 0
173 193 0
171 194 0
173 197 0
171 194 0
171 194 0
169 192 0
170 192 0
171 194 0
170 192 0
169 192 0
171 193 0
171 194 0
173 195 0
173 195 0
170 193 0
174 197 0
171 194 0
174 196 0
173 195 0
172 194 0
171 194 0
171 194 0
174 196 0
170 192 0
174 196 0
171 194 0
172 194 0
173 197 0
173 196 0
174 197 0
171 194 0
171 195 0
174 197 0
173 196 0
173 196 0
172 196 0
173 195 0
172 195 0
173 196 0
172 194 0
173 196 0
174 197 0
173 197 0
173 196 0
174 196 0
174 197 0
172 196 0
172 196 0
174 197 0
173 197 0
175 198 0
172 196 0
174 196 0
173 196 0
174 198 0
174 196 0
172 196 0
173 197 0
171 195 0
175 197 0
174 197 0
173 196 0
173 197 0
174 197 0
171 195 0
173 197 0
173 196 0
174 198 0
171 194 0
175 198 0
174 197 0
174 197 0
172 196 0
174 197 0
171 195 0
173 197 0
173 197 0
171 195 0
175 198 0
172 196 0
173 197 0
174 198 0
175 198 0
171 195 0
173 197 0
172 196 0
172 196 0
173 197 0
172 196 0
173 197 0
174 197 0
174 197 0
172 195 0
174 197 0
173 197 0
172 196 0
171 195 0
174 197 0
174 197 0
171 195 0
171 195 0
174 197 0
170 194 0
171 195 0
171 194 0
175 198 0
173 196 0
172 196 0
172 195 0
173 196 0
174 197 0
174 197 0
173 197 0
172 196 0
172 195 0
173 197 0
171 195 0
171 194 0
173 196 0
173 197 0
171 195 0
172 195 0
173 196 0
170 195 0
168 192 0
175 197 0
172 195 0
172 196 0
171 194 0
173 197 25
173 197 36
170 194 25
172 196 36
174 197 36
176 199 57
176 198 67
181 202 80
184 205 117
186 207 128
186 207 133
193 212 149
196 214 163
193 212 155
190 210 151
189 208 133
187 208 135
185 206 130
185 206 130
191 211 151
182 203 117
179 201 80
178 201 95
173 197 76
170 194 72
171 193 62
172 196 72
170 193 62
169 194 72
173 197 72
175 198 95
172 196 67
173 197 80
168 192 62
170 193 62
170 194 72
172 196 76
170 193 62
171 195 84
170 194 67
172 196 88
168 193 80
166 189 57
167 190 67
174 197 67
172 196 80
172 196 72
171 194 76
167 191 80
167 191 95
168 192 62
167 192 95
172 195 92
171 195 102
170 194 105
166 190 72
172 196 105
172 195 99
167 190 76
168 190 84
162 184 72
169 191 62
163 187 84
163 187 84
167 191 99
164 187 72
166 189 95
162 185 102
158 182 92
159 181 111
161 184 57
156 179 76
158 181 76
163 185 92
153 177 76
157 179 95
155 177 92
151 173 67
149 170 76
151 173 62
150 171 72
148 169 62
143 164 72
123 145 108
107 131 113
100 125 125
86 113 129
90 116 114
101 126 124
94 119 131
91 117 124
93 118 140
99 124 124
88 115 140
95 120 138
98 123 129
97 123 128
84 111 142
89 115 146
91 115 141
83 107 137
74 102 133
85 107 127
77 103 130
79 106 125
73 102 126
67 97 118
77 106 111
61 92 107
59 92 111
63 94 111
58 92 118
59 93 128
57 91 115
57 91 114
57 91 111
59 92 120
59 92 122
58 91 126
58 91 121
56 90 107
59 93 125
57 90 103
56 89 113
58 91 115
60 94 125
57 90 113
58 91 113
59 93 124
58 91 107
57 90 103
57 90 113
59 93 128
58 91 111
58 91 117
56 89 118
57 90 108
57 91 107
55 88 105
57 90 110
59 92 121
56 89 107
56 89 110
53 85 80
57 89 108
56 88 107
72 98 88
79 99 65
108 124 25
94 107 0
118 134 0
117 132 0
113 128 0
118 132 0
119 136 0
116 131 0
118 134 0
122 137 0
128 145 0
117 134 0
126 142 0
125 141 0
127 143 0
131 149 0
140 156 0
132 149 0
130 146 0
135 152 0
138 155 0
129 147 0
131 148 0
129 144 0
124 139 0
147 164 0
141 159 0
140 157 0
142 159 0
143 159 0
143 161 0
136 154 0
140 159 0
139 157 0
140 156 0
143 161 0
145 162 0
148 167 0
146 165 0
155 171 0
147 162 0
155 173 0
144 161 0
155 173 0
149 165 0
155 173 0
152 170 0
151 169 0
147 164 0
153 171 0
147 166 0
153 169 0
154 173 0
159 176 0
160 180 0
159 177 0
152 169 0
157 176 0
157 173 0
155 174 0
161 178 0
162 180 0
152 168 0
164 181 0
161 181 0
158 177 0
160 178 0
160 181 0
158 176 0
160 177 0
161 179 0
157 175 0
157 176 0
157 176 0
157 176 0
165 182 0
167 185 0
166 186 0
157 176 0
162 182 0
164 186 0
161 180 0
162 182 0
164 183 0
166 188 0
165 186 0
162 181 0
168 188 0
170 191 0
166 188 0
169 193 0
164 184 0
168 190 0
168 188 0
169 189 0
171 193 0
167 188 0
167 189 0
167 188 0
168 189 0
171 192 0
171 193 0
166 188 0
167 186 0
170 191 0
171 193 0
170 192 0
170 192 0
171 194 0
171 192 0
173 197 0
170 191 0
168 192 0
172 194 0
171 194 0
171 193 0
172 194 0
167 191 0
172 194 0
171 192 0
168 190 0
171 194 0
172 193 0
171 193 0
170 192 0
168 190 0
168 190 0
170 193 0
171 194 0
172 196 0
170 192 0
168 192 0
173 196 0
171 194 0
170 193 0
173 196 0
172 196 0
170 193 0
172 194 0
170 193 0
173 196 0
172 195 0
172 194 0
172 195 0
173 196 0
172 195 0
173 195 0
173 196 0
173 196 0
171 193 0
172 195 0
172 195 0
173 196 0
174 197 0
172 195 0
173 196 0
171 195 0
172 195 0
174 197 0
172 195 0
176 198 0
174 197 0
171 194 0
173 196 0
175 197 0
173 197 0
172 195 0
170 193 0
173 196 0
175 198 0
174 197 0
174 197 0
173 196 0
173 197 0
175 197 0
174 197 0
173 197 0
173 196 0
174 197 0
172 195 0
173 196 0
172 194 0
174 197 0
175 198 0
172 195 0
173 197 0
174 197 0
174 197 0
173 197 0
174 197 0
175 198 0
173 196 0
172 196 0
172 196 0
173 197 0
173 197 0
172 196 0
175 198 0
175 198 0
172 195 0
172 196 0
172 196 0
175 198 0
175 198 0
172 195 0
173 196 0
173 196 0
171 195 0
173 196 0
174 197 0
172 196 0
173 196 0
172 196 0
172 196 0
173 197 0
174 197 0
170 194 0
172 196 0
173 197 0
173 197 0
173 197 0
168 191 0
171 194 0
172 195 0
170 194 0
173 196 0
173 196 0
172 195 0
172 197 0
174 197 0
169 193 0
173 196 0
171 195 0
173 196 0
171 195 0
172 196 0
171 194 0
173 196 0
173 196 0
173 196 0
174 197 0
171 194 0
170 193 0
172 195 0
171 195 0
173 197 0
170 194 0
169 193 0
173 196 0
173 196 0
169 193 0
169 193 0
173 196 0
171 195 36
172 195 25
173 195 36
173 197 44
173 196 36
177 199 67
178 201 102
185 206 128
189 209 147
186 208 130
187 207 135
191 211 151
193 212 155
192 212 151
194 213 155
186 206 133
192 212 157
186 207 130
178 201 95
178 200 99
178 201 102
174 197 76
174 198 80
173 196 72
173 196 57
169 193 51
172 196 62
175 198 51
172 195 76
173 196 84
170 194 76
175 199 95
171 194 67
172 196 67
170 194 80
170 194 51
171 195 67
171 195 76
173 197 88
169 194 57
169 194 57
166 190 84
170 195 84
166 191 95
170 194 72
167 191 76
168 192 88
172 196 99
170 193 76
168 192 80
168 191 72
169 193 80
166 191 95
164 188 76
168 192 92
165 188 84
164 187 72
166 190 92
166 189 72
158 182 72
164 186 92
168 191 125
161 185 72
166 190 107
172 195 102
161 184 76
159 182 95
163 185 76
158 180 76
154 177 44
163 186 88
161 183 76
160 180 105
151 171 62
152 174 76
150 171 84
139 160 62
148 170 72
152 174 76
133 155 67
136 157 62
139 160 67
146 166 92
124 145 92
86 112 100
95 120 118
89 114 115
96 121 131
97 122 134
96 121 113
93 118 128
90 116 128
100 124 121
97 122 137
97 122 137
95 121 130
93 120 134
81 108 123
82 108 123
80 104 127
89 112 127
80 105 128
75 101 111
80 105 115
82 107 117
66 97 121
75 104 116
66 97 113
61 93 108
65 96 107
59 91 99
63 94 114
56 89 107
55 87 100
54 87 104
56 88 95
58 92 118
57 90 111
59 93 129
58 91 120
58 92 114
57 91 115
57 90 121
57 91 114
57 91 115
57 90 111
57 91 103
58 92 115
57 90 107
56 89 103
57 91 110
56 89 103
58 91 110
56 89 102
55 88 102
58 91 120
57 91 118
55 88 102
57 91 105
56 89 105
56 89 107
56 89 110
54 86 107
64 93 90
82 106 78
82 102 60
102 119 18
114 128 18
114 130 0
115 129 0
123 140 0
114 131 0
120 135 0
119 135 0
124 143 0
117 133 0
123 142 0
116 132 0
127 143 0
128 145 0
139 156 0
126 144 0
128 146 0
122 139 0
134 151 0
140 158 0
131 150 0
132 148 0
127 143 0
135 153 0
139 156 0
145 163 0
134 153 0
140 156 0
138 155 0
138 155 0
146 162 0
146 165 0
146 163 0
143 158 0
149 167 0
151 168 0
148 163 0
156 173 0
147 164 0
146 163 0
148 165 0
151 169 0
145 162 0
150 169 0
144 162 0
158 177 0
149 168 0
151 168 0
152 172 0
156 174 0
155 173 0
150 167 0
151 170 0
155 175 0
154 172 0
164 182 0
155 174 0
158 176 0
162 180 0
151 169 0
159 179 0
162 181 0
158 177 0
159 178 0
160 180 0
161 179 0
161 179 0
159 179 0
162 182 0
164 184 0
167 187 0
161 181 0
157 176 0
162 181 0
162 182 0
162 182 0
164 184 0
158 178 0
164 186 0
164 184 0
163 183 0
170 192 0
164 185 0
165 185 0
170 192 0
168 189 0
164 183 0
165 185 0
168 189 0
166 188 0
168 189 0
165 187 0
169 192 0
169 190 0
164 184 0
164 185 0
169 190 0
168 189 0
169 191 0
168 188 0
170 193 0
169 189 0
169 190 0
166 187 0
166 188 0
170 193 0
170 191 0
169 190 0
167 188 0
169 192 0
169 189 0
168 191 0
171 193 0
170 191 0
171 193 0
172 195 0
170 193 0
171 193 0
171 193 0
169 191 0
172 195 0
170 193 0
170 191 0
169 190 0
171 194 0
170 192 0
172 194 0
171 193 0
171 193 0
171 192 0
171 196 0
171 192 0
171 193 0
172 195 0
173 196 0
170 192 0
174 197 0
171 193 0
175 198 0
170 193 0
170 192 0
170 193 0
172 193 0
172 194 0
172 194 0
171 194 0
171 195 0
173 195 0
173 195 0
172 195 0
173 196 0
173 195 0
172 196 0
172 195 0
173 197 0
171 195 0
173 196 0
172 195 0
174 197 0
172 195 0
173 196 0
173 196 0
172 194 0
172 195 0
174 196 0
171 193 0
172 196 0
172 196 0
172 196 0
174 197 0
173 196 0
174 197 0
174 197 0
175 198 0
173 197 0
173 196 0
170 193 0
175 197 0
174 196 0
175 198 0
171 194 0
170 193 0
172 196 0
174 196 0
174 197 0
174 196 0
174 197 0
172 195 0
174 197 0
173 196 0
173 196 0
172 195 0
170 195 0
173 197 0
174 198 0
175 198 0
172 196 0
174 197 0
174 198 0
173 197 0
174 197 0
172 195 0
174 198 0
174 197 0
174 198 0
172 196 0
173 197 0
171 195 0
171 195 0
173 197 0
172 195 0
173 196 0
173 197 0
173 196 0
172 196 0
172 196 0
174 197 0
171 195 0
172 196 0
173 196 0
172 196 0
172 196 0
174 197 0
171 195 0
174 197 0
172 196 0
173 196 0
175 198 0
173 196 0
174 197 0
173 196 0
174 197 0
174 197 0
172 195 0
169 193 0
172 196 0
170 194 0
174 197 0
171 195 0
171 194 0
169 193 0
172 195 0
171 194 0
172 195 0
172 196 0
170 194 0
172 195 0
172 196 0
171 194 0
170 194 0
168 192 0
169 192 0
172 195 0
173 197 0
169 192 36
172 195 36
172 195 36
173 196 51
175 198 62
180 202 80
178 200 92
181 202 105
189 209 144
190 210 144
187 208 130
194 213 163
192 211 151
190 210 149
191 211 147
184 205 117
192 212 149
183 203 125
182 204 102
172 195 62
175 197 72
176 199 95
170 194 72
174 197 88
174 197 67
178 200 72
171 195 67
171 194 57
176 199 72
171 194 72
171 195 72
171 195 62
169 193 62
164 188 72
169 193 57
171 195 57
170 195 80
171 195 76
170 194 76
170 194 62
169 194 84
171 195 62
171 195 72
169 192 84
172 195 72
168 191 99
169 194 99
166 190 62
168 191 76
167 190 92
165 188 67
172 196 111
169 193 108
165 189 88
166 189 92
170 192 95
171 194 99
160 183 84
163 187 99
172 194 120
162 185 80
169 192 108
168 191 84
160 182 76
164 187 95
165 187 99
155 177 72
163 187 105
162 185 105
156 179 92
165 188 108
154 176 76
158 178 114
162 184 84
144 166 84
155 177 84
148 169 80
152 174 102
153 174 88
153 173 105
153 173 80
139 159 95
131 150 67
139 159 80
115 137 82
87 113 108
95 119 100
88 113 102
91 117 110
92 117 129
91 116 121
95 120 126
88 115 125
87 115 125
106 128 121
83 110 122
83 110 132
86 112 133
93 119 127
94 116 132
96 119 133
89 113 117
80 104 121
82 107 119
81 107 126
73 102 111
78 106 99
75 103 114
76 104 113
63 95 117
58 91 119
57 88 99
57 90 111
60 93 111
55 88 95
57 91 108
57 89 114
56 89 97
57 90 103
55 87 113
58 92 125
58 92 117
58 91 108
57 91 114
58 92 121
56 90 103
56 90 97
56 89 111
59 93 124
56 89 118
58 92 124
57 90 105
58 91 113
57 89 103
53 84 99
57 90 118
57 90 103
54 85 97
56 89 107
56 88 97
55 87 90
54 85 86
65 90 82
75 97 60
111 127 36
104 118 18
97 112 0
103 115 0
113 127 0
102 118 0
111 126 0
108 124 0
117 132 0
116 133 0
116 133 0
131 147 0
113 131 0
117 132 0
133 150 0
125 142 0
134 152 0
129 146 0
132 150 0
137 154 0
135 152 0
131 148 0
138 156 0
134 149 0
138 157 0
140 158 0
144 162 0
137 156 0
132 148 0
148 167 0
134 150 0
142 159 0
138 158 0
140 157 0
145 163 0
153 171 0
143 160 0
148 167 0
148 167 0
151 169 0
140 160 0
153 172 0
154 173 0
150 168 0
145 162 0
151 169 0
151 169 0
148 165 0
154 173 0
155 174 0
148 164 0
151 168 0
150 167 0
147 164 0
158 175 0
149 167 0
151 169 0
153 170 0
152 170 0
154 172 0
155 173 0
152 171 0
158 178 0
156 176 0
160 180 0
154 172 0
159 180 0
160 179 0
160 179 0
155 172 0
162 180 0
160 179 0
159 179 0
164 183 0
165 186 0
159 178 0
163 182 0
159 179 0
165 185 0
163 183 0
163 184 0
166 186 0
165 185 0
163 183 0
167 187 0
164 183 0
163 183 0
163 182 0
163 182 0
166 186 0
168 188 0
161 179 0
162 183 0
170 191 0
169 190 0
166 188 0
165 187 0
168 189 0
168 191 0
165 187 0
172 193 0
167 188 0
168 190 0
169 189 0
164 185 0
168 189 0
167 188 0
167 187 0
171 192 0
165 186 0
173 196 0
168 188 0
170 191 0
170 192 0
167 190 0
170 193 0
165 186 0
169 191 0
171 194 0
168 191 0
170 192 0
171 194 0
169 192 0
173 196 0
169 191 0
171 194 0
172 195 0
170 193 0
171 193 0
173 195 0
171 194 0
171 194 0
171 192 0
168 191 0
171 194 0
172 194 0
171 194 0
171 193 0
169 191 0
170 193 0
171 194 0
168 190 0
172 194 0
169 192 0
166 190 0
171 194 0
170 193 0
174 196 0
173 196 0
173 196 0
173 196 0
169 193 0
172 194 0
170 194 0
173 196 0
173 196 0
172 196 0
171 194 0
172 195 0
173 197 0
168 192 0
175 198 0
174 197 0
173 197 0
173 196 0
172 195 0
171 195 0
172 195 0
174 196 0
175 197 0
173 196 0
174 196 0
173 196 0
174 197 0
173 197 0
172 194 0
173 196 0
172 196 0
174 197 0
173 197 0
173 195 0
173 196 0
170 192 0
172 196 0
174 198 0
172 196 0
173 196 0
176 198 0
173 196 0
174 198 0
174 198 0
173 197 0
174 198 0
173 197 0
173 197 0
174 198 0
173 197 0
174 198 0
172 196 0
171 195 0
174 197 0
173 196 0
173 197 0
174 197 0
174 197 0
172 196 0
172 196 0
173 197 0
173 197 0
174 197 0
172 196 0
173 196 0
174 197 0
173 196 0
170 194 0
171 194 0
173 196 0
168 192 0
173 196 0
172 195 0
174 197 0
170 193 0
175 198 0
172 195 0
172 197 0
170 193 0
173 197 0
171 196 0
173 197 0
170 194 0
171 195 0
172 196 0
169 193 0
169 193 0
171 195 0
174 197 0
171 195 0
172 196 0
172 195 0
167 191 0
170 194 0
174 197 0
172 196 0
171 194 0
170 194 0
173 196 0
172 195 0
171 195 0
173 197 0
171 194 0
171 194 0
171 195 0
172 196 0
172 196 0
173 197 25
171 195 36
171 194 25
173 196 62
173 196 25
176 199 57
177 200 72
179 202 84
182 203 99
184 205 114
185 206 120
186 207 122
188 209 135
192 211 149
186 207 130
186 208 133
184 205 122
192 211 155
186 207 120
185 206 122
179 201 102
178 201 108
175 198 76
174 198 92
172 195 72
173 196 72
175 198 62
167 191 72
172 195 57
171 195 76
169 193 62
167 191 57
168 192 57
174 197 62
171 195 72
172 196 88
172 196 72
170 192 67
170 194 62
173 196 72
170 194 76
171 196 67
167 190 57
172 196 76
169 193 72
170 193 80
168 192 95
173 197 102
170 194 72
169 192 108
167 191 76
169 192 88
168 192 99
169 193 108
172 195 108
167 191 95
167 191 99
166 190 111
167 191 99
162 185 95
165 189 102
168 192 111
161 184 84
165 189 105
167 190 80
164 187 95
163 187 88
156 179 105
165 188 114
158 181 92
158 180 84
159 181 99
158 181 80
159 182 92
155 177 108
158 180 88
160 181 99
156 176 102
147 169 84
156 177 76
147 168 92
137 158 44
137 158 72
146 167 84
134 154 62
147 166 108
133 152 92
118 138 107
83 108 80
92 117 117
88 112 100
106 129 136
78 105 112
81 107 113
91 115 110
103 126 129
98 122 111
109 131 126
90 117 139
89 114 129
95 119 124
94 118 126
92 114 129
99 121 115
97 119 112
90 113 117
86 110 109
81 109 108
68 98 120
63 94 103
67 96 100
65 96 104
55 87 107
57 90 102
57 89 97
58 92 114
55 87 107
56 89 102
57 90 108
57 89 108
56 89 102
59 92 114
55 89 103
58 92 114
58 91 122
59 92 111
57 89 113
58 92 120
56 89 110
56 88 102
56 89 94
57 91 111
57 90 100
56 88 105
55 87 102
56 88 103
57 89 103
54 86 97
55 87 92
55 86 103
56 88 107
57 89 92
59 85 78
79 102 74
93 111 54
94 110 18
104 120 0
106 122 0
112 127 0
106 121 0
109 126 0
109 127 0
125 141 0
117 134 0
117 134 0
121 138 0
118 134 0
122 139 0
119 136 0
127 143 0
121 138 0
114 128 0
130 147 0
127 144 0
135 153 0
129 148 0
134 150 0
142 160 0
139 157 0
148 167 0
141 159 0
139 156 0
147 166 0
143 162 0
141 159 0
139 157 0
140 157 0
140 157 0
143 162 0
143 161 0
147 164 0
145 164 0
144 162 0
147 163 0
132 148 0
143 162 0
149 168 0
152 171 0
149 167 0
149 169 0
152 169 0
152 169 0
152 172 0
149 165 0
148 166 0
154 172 0
158 178 0
150 167 0
153 171 0
151 169 0
162 182 0
153 172 0
155 174 0
160 177 0
161 179 0
156 175 0
163 181 0
157 177 0
159 177 0
156 174 0
161 182 0
158 178 0
154 171 0
155 173 0
162 180 0
163 181 0
161 180 0
159 179 0
163 183 0
159 179 0
162 180 0
162 180 0
161 178 0
162 181 0
165 185 0
166 186 0
164 184 0
161 179 0
162 182 0
166 187 0
168 188 0
171 192 0
169 188 0
159 180 0
165 186 0
160 180 0
167 187 0
164 184 0
168 190 0
167 188 0
173 194 0
167 189 0
167 190 0
167 189 0
166 188 0
166 188 0
167 188 0
171 192 0
168 190 0
173 194 0
166 187 0
169 189 0
169 191 0
168 191 0
166 189 0
171 192 0
168 189 0
171 194 0
171 191 0
168 189 0
169 192 0
168 190 0
170 193 0
169 190 0
171 192 0
168 191 0
172 195 0
168 189 0
171 192 0
164 186 0
171 194 0
174 195 0
168 191 0
173 195 0
173 195 0
172 195 0
172 196 0
170 192 0
171 193 0
173 194 0
173 196 0
172 195 0
172 195 0
172 194 0
169 191 0
173 196 0
169 192 0
173 196 0
170 194 0
170 193 0
172 196 0
169 192 0
171 194 0
170 193 0
174 196 0
170 194 0
171 193 0
172 195 0
170 194 0
171 195 0
171 193 0
171 193 0
172 194 0
172 194 0
171 193 0
174 198 0
173 196 0
171 194 0
172 196 0
170 193 0
174 197 0
173 196 0
170 194 0
173 195 0
173 197 0
175 198 0
173 196 0
173 195 0
172 195 0
173 196 0
173 197 0
174 197 0
174 196 0
172 195 0
172 195 0
172 196 0
173 196 0
170 193 0
175 198 0
172 196 0
172 196 0
174 197 0
173 197 0
174 197 0
173 196 0
174 197 0
172 196 0
174 197 0
174 197 0
172 196 0
171 195 0
173 196 0
175 198 0
175 198 0
173 197 0
172 196 0
173 196 0
173 197 0
171 195 0
173 197 0
175 198 0
173 197 0
174 197 0
174 197 0
172 195 0
176 199 0
172 196 0
173 197 0
173 196 0
172 195 0
170 195 0
169 193 0
171 195 0
174 197 0
175 198 0
175 198 0
172 196 0
169 192 0
173 196 0
169 194 0
171 195 0
172 196 0
169 194 0
171 194 0
172 196 0
171 195 0
174 197 0
172 196 0
173 197 0
174 198 0
172 196 0
172 196 0
169 192 0
170 195 0
173 196 0
169 193 0
171 195 0
169 193 0
171 194 0
170 194 0
174 198 0
170 194 0
172 196 0
174 197 0
168 193 0
171 195 0
172 196 0
174 198 0
171 195 0
173 197 0
172 195 0
173 196 25
169 193 25
175 198 25
175 198 36
175 198 0
175 198 51
180 200 95
181 202 108
182 202 125
186 207 122
185 206 125
188 209 133
188 208 140
187 207 128
188 208 135
184 205 122
184 205 117
178 200 105
178 200 99
180 201 117
174 196 76
176 199 80
171 195 76
173 196 57
173 196 76
175 198 84
171 194 67
175 198 44
170 194 76
171 195 62
170 194 62
172 195 62
173 196 67
170 193 72
172 195 57
173 197 76
173 196 80
168 192 84
173 196 84
169 193 95
171 195 62
170 194 88
168 191 92
167 191 76
171 194 92
174 197 84
171 195 84
171 194 117
163 187 88
169 193 99
172 194 92
171 195 92
170 194 92
166 190 105
168 192 99
170 194 92
167 190 111
166 190 95
168 190 99
162 185 111
162 185 65
164 186 105
162 184 84
170 193 105
162 184 88
168 189 95
165 188 99
162 186 94
161 183 114
162 185 99
158 181 88
157 180 80
161 184 99
146 167 80
158 180 111
152 173 99
157 178 105
153 175 80
145 166 76
156 178 88
149 170 88
150 171 67
148 168 84
132 151 76
135 154 80
131 150 76
125 144 74
119 140 107
97 118 80
95 119 121
84 109 108
91 116 130
100 124 125
92 118 107
99 123 113
96 121 121
95 119 120
95 119 133
91 115 120
102 125 124
103 123 106
109 128 90
107 127 88
106 127 92
88 113 95
94 117 99
86 111 102
81 108 100
74 101 90
76 102 88
57 89 105
58 88 90
63 93 90
55 87 100
56 89 111
58 91 105
56 88 95
57 90 113
56 88 111
57 90 115
57 90 114
58 91 115
58 91 111
56 88 103
57 90 110
55 87 99
57 90 108
57 90 103
56 89 101
55 88 100
56 88 100
57 90 110
55 87 90
55 87 105
56 88 103
57 90 105
56 88 88
53 85 78
54 85 92
67 95 92
84 104 65
92 110 44
101 117 18
88 103 18
115 130 0
104 120 0
90 108 0
111 127 0
104 119 0
103 118 0
120 137 0
118 134 0
123 140 0
121 140 0
126 144 0
120 138 0
127 144 0
129 147 0
118 135 0
127 144 0
123 139 0
131 148 0
140 157 0
129 146 0
126 144 0
130 148 0
137 154 0
134 151 0
140 159 0
146 162 0
146 163 0
139 156 0
143 161 0
152 171 0
134 153 0
146 166 0
143 162 0
155 175 0
145 162 0
148 167 0
143 162 0
145 164 0
149 170 0
149 168 0
147 164 0
146 166 0
153 171 0
144 161 0
148 166 0
148 165 0
157 175 0
152 169 0
153 170 0
148 166 0
155 174 0
156 173 0
152 169 0
161 179 0
155 172 0
164 185 0
160 178 0
149 167 0
162 182 0
154 174 0
162 180 0
158 177 0
159 179 0
160 178 0
163 183 0
162 182 0
160 180 0
156 177 0
162 183 0
156 176 0
161 181 0
162 182 0
162 183 0
162 182 0
160 179 0
160 178 0
162 182 0
161 180 0
157 178 0
166 185 0
162 181 0
163 183 0
163 183 0
162 183 0
166 187 0
165 187 0
165 184 0
169 191 0
166 188 0
167 188 0
166 188 0
169 190 0
167 187 0
170 191 0
161 182 0
161 181 0
166 186 0
169 190 0
166 187 0
166 188 0
168 190 0
169 191 0
168 189 0
168 190 0
166 188 0
168 190 0
171 193 0
166 189 0
174 196 0
169 191 0
169 191 0
170 192 0
168 190 0
168 190 0
169 192 0
167 190 0
170 192 0
168 190 0
167 189 0
169 192 0
172 194 0
173 195 0
170 192 0
171 193 0
173 195 0
172 195 0
172 194 0
170 193 0
171 193 0
173 195 0
173 195 0
169 191 0
171 194 0
170 194 0
168 189 0
171 195 0
171 192 0
167 188 0
172 195 0
173 195 0
173 196 0
172 194 0
171 193 0
170 193 0
172 194 0
169 192 0
173 195 0
171 193 0
172 195 0
171 195 0
171 193 0
172 194 0
172 195 0
171 195 0
172 196 0
173 197 0
172 195 0
173 196 0
170 194 0
174 196 0
172 195 0
174 197 0
171 195 0
172 195 0
173 197 0
174 197 0
174 197 0
174 197 0
173 196 0
174 197 0
172 194 0
172 196 0
173 197 0
174 197 0
173 196 0
172 195 0
172 195 0
173 196 0
171 194 0
173 197 0
174 197 0
174 196 0
176 198 0
171 193 0
175 197 0
172 196 0
174 197 0
174 197 0
172 195 0
171 195 0
174 197 0
172 195 0
173 197 0
171 194 0
174 197 0
172 196 0
174 198 0
170 194 0
174 198 0
175 197 0
174 198 0
173 197 0
174 197 0
174 198 0
174 197 0
172 196 0
172 196 0
174 197 0
173 196 0
171 195 0
175 198 0
173 197 0
172 196 0
172 196 0
169 194 0
172 195 0
172 195 0
172 196 0
172 196 0
172 196 0
173 197 0
172 195 0
171 195 0
173 197 0
173 196 0
172 196 0
172 196 0
171 194 0
173 196 0
170 194 0
173 196 0
171 194 0
170 194 0
172 196 0
174 197 0
174 197 0
173 196 0
173 196 0
173 197 0
172 196 0
175 198 0
173 197 0
173 197 0
172 195 0
172 196 0
171 195 0
169 192 0
169 193 0
171 196 0
170 194 0
171 194 0
171 194 0
170 195 0
171 194 0
170 193 0
171 194 0
171 195 0
170 193 0
174 197 0
172 196 51
176 199 62
177 199 80
176 198 84
186 206 120
186 207 117
186 206 117
189 209 133
185 206 114
187 208 125
188 208 135
194 213 161
185 206 135
178 200 111
186 207 125
181 202 102
171 195 62
176 200 95
173 197 80
173 196 62
176 199 72
173 196 67
175 198 84
173 197 88
170 194 62
170 193 67
171 195 57
174 196 57
173 197 72
169 192 36
174 197 92
172 196 67
169 193 67
171 195 72
168 191 57
172 196 88
173 197 88
173 196 84
170 193 88
173 196 80
170 193 72
171 194 95
169 192 76
170 194 122
167 191 95
169 193 105
169 192 99
173 196 102
172 195 111
173 197 99
171 194 92
161 184 88
173 196 92
168 191 108
164 187 99
170 194 122
167 191 88
163 187 95
173 196 108
168 191 92
164 188 99
164 186 95
169 190 95
160 183 77
168 190 105
161 183 105
163 185 114
152 174 62
158 181 111
165 186 122
162 183 117
159 181 95
153 175 102
155 176 88
160 181 111
163 183 114
150 171 92
151 171 80
151 171 99
145 165 95
141 161 84
128 148 72
144 164 76
135 153 95
130 150 62
112 132 74
91 113 107
87 113 107
86 110 98
90 113 96
96 120 103
102 125 117
96 120 114
98 122 111
109 132 115
100 122 100
101 123 124
101 125 115
96 118 105
102 123 97
98 120 94
110 130 102
84 108 102
78 104 99
71 99 90
61 91 92
63 91 90
66 93 89
60 90 86
66 93 86
55 86 95
58 90 97
54 85 99
54 87 95
56 89 95
55 88 99
57 90 108
55 88 95
58 91 111
55 87 102
57 90 97
56 88 97
54 86 92
54 86 88
54 86 94
54 87 99
55 87 102
52 83 78
57 90 100
55 87 107
52 83 88
54 85 94
56 88 90
60 88 84
80 103 76
77 99 60
86 104 54
92 107 25
93 108 0
101 116 0
93 108 0
102 116 0
111 126 0
111 125 0
117 132 0
111 127 0
116 133 0
119 137 0
123 140 0
120 137 0
134 152 0
136 154 0
122 138 0
124 140 0
135 152 0
129 148 0
129 149 0
142 162 0
127 145 0
124 142 0
131 150 0
134 152 0
133 151 0
140 159 0
136 157 0
134 150 0
141 161 0
138 158 0
145 163 0
144 164 0
142 161 0
143 161 0
145 163 0
148 166 0
135 153 0
151 170 0
143 161 0
150 169 0
151 169 0
148 167 0
145 165 0
147 167 0
145 164 0
147 166 0
155 176 0
143 161 0
148 167 0
144 162 0
159 178 0
149 169 0
154 175 0
157 175 0
161 179 0
159 178 0
156 174 0
161 181 0
152 170 0
155 176 0
160 181 0
158 175 0
161 179 0
155 175 0
160 177 0
162 182 0
158 179 0
159 178 0
153 174 0
156 176 0
159 180 0
160 181 0
161 181 0
161 181 0
163 182 0
162 183 0
163 183 0
161 181 0
164 185 0
158 178 0
156 177 0
166 187 0
165 187 0
162 181 0
164 182 0
166 188 0
162 183 0
164 182 0
166 186 0
166 187 0
165 185 0
163 184 0
167 189 0
167 188 0
164 187 0
163 182 0
166 187 0
170 192 0
168 188 0
171 191 0
165 185 0
166 188 0
167 189 0
168 190 0
167 190 0
163 185 0
169 191 0
172 194 0
165 187 0
168 189 0
169 190 0
172 194 0
169 191 0
164 185 0
171 194 0
167 188 0
169 192 0
171 194 0
172 193 0
170 191 0
169 193 0
170 193 0
168 191 0
171 192 0
170 192 0
169 189 0
170 192 0
170 193 0
172 195 0
172 195 0
167 190 0
169 193 0
173 195 0
171 194 0
172 195 0
171 193 0
173 194 0
171 194 0
174 196 0
170 194 0
172 195 0
169 192 0
171 194 0
171 193 0
173 196 0
170 193 0
173 196 0
173 196 0
174 197 0
167 189 0
172 195 0
174 196 0
172 194 0
170 192 0
169 193 0
173 196 0
171 195 0
175 197 0
172 196 0
170 193 0
172 196 0
173 197 0
173 196 0
173 195 0
172 196 0
172 195 0
170 192 0
174 196 0
172 196 0
174 197 0
172 196 0
173 197 0
171 194 0
174 196 0
172 195 0
174 197 0
172 196 0
172 195 0
171 194 0
174 196 0
174 198 0
173 196 0
173 196 0
176 199 0
173 196 0
174 197 0
171 194 0
173 197 0
173 197 0
171 196 0
173 197 0
173 196 0
175 197 0
174 197 0
170 195 0
172 196 0
175 198 0
173 197 0
172 195 0
172 196 0
173 197 0
175 198 0
173 197 0
172 195 0
172 196 0
172 196 0
173 196 0
174 198 0
175 198 0
173 197 0
175 198 0
173 197 0
172 196 0
171 196 0
172 196 0
173 197 0
173 196 0
172 197 0
174 197 0
174 197 0
171 195 0
174 198 0
173 197 0
173 197 0
175 198 0
172 196 0
174 197 0
170 194 0
170 194 0
172 196 0
172 196 0
173 196 0
173 196 0
172 196 0
173 196 0
173 196 0
172 195 0
173 197 0
172 196 0
172 196 0
173 197 0
171 196 0
173 197 0
173 197 0
174 197 0
173 197 0
174 198 0
171 194 0
172 195 0
172 196 0
169 193 0
169 192 0
170 193 0
169 192 0
174 197 0
169 194 0
173 196 0
172 196 0
171 195 0
172 195 25
171 195 36
170 194 25
174 198 51
177 199 72
177 200 62
178 200 84
184 205 111
187 207 125
181 202 108
182 203 105
189 209 135
186 207 125
185 206 117
182 204 114
183 204 117
183 204 111
184 205 114
180 201 111
172 195 95
173 196 80
176 199 99
174 197 80
172 194 84
173 196 72
172 196 51
171 194 62
174 197 72
170 193 88
173 196 57
172 194 57
165 190 57
171 195 76
166 189 62
173 196 72
175 199 92
168 191 57
175 199 84
170 194 80
169 193 72
174 197 76
169 193 67
168 192 95
169 192 84
172 195 84
170 193 105
175 199 99
165 189 105
174 196 111
171 195 105
168 192 99
170 193 88
163 186 76
167 191 92
172 194 108
168 192 95
166 191 102
175 198 114
170 194 108
166 191 102
163 186 105
165 189 84
167 189 105
166 189 111
164 186 88
165 188 105
162 184 102
158 180 86
153 176 84
158 180 92
157 180 76
156 178 92
162 185 107
152 174 95
153 175 84
154 175 95
153 175 84
150 171 99
155 177 99
151 172 102
148 168 92
150 170 99
147 166 92
140 161 92
132 151 72
139 158 84
134 152 72
135 154 95
118 136 65
106 125 86
109 128 102
94 117 110
90 113 97
85 110 97
96 120 112
100 124 118
97 121 113
117 137 129
108 128 90
103 123 94
119 141 92
111 130 93
104 124 99
112 134 86
103 124 88
88 111 97
80 104 90
78 103 95
88 113 82
80 107 94
61 89 90
61 89 70
62 91 77
52 83 86
55 87 84
50 81 78
53 84 95
55 87 95
54 86 102
54 86 85
55 87 94
54 85 88
55 87 97
54 86 92
55 87 102
53 85 78
53 84 84
54 87 95
54 85 90
53 85 86
56 88 102
53 84 78
50 80 74
52 80 84
66 91 74
74 96 74
87 106 62
84 101 47
98 112 0
90 107 0
102 116 0
101 115 0
101 117 0
104 119 0
107 122 0
111 127 0
110 127 0
122 139 0
124 141 0
118 135 0
112 130 0
111 128 0
112 129 0
121 139 0
124 140 0
129 146 0
122 140 0
129 148 0
129 148 0
131 150 0
134 153 0
135 154 0
140 159 0
139 156 0
123 141 0
140 159 0
141 159 0
138 154 0
138 157 0
139 158 0
140 158 0
138 157 0
137 157 0
139 157 0
142 162 0
137 156 0
142 162 0
136 154 0
144 163 0
149 168 0
141 156 0
152 173 0
146 162 0
155 177 0
153 173 0
153 171 0
153 172 0
155 174 0
155 175 0
157 176 0
145 163 0
149 167 0
156 176 0
152 168 0
150 170 0
161 181 0
158 179 0
153 172 0
153 173 0
159 177 0
143 162 0
160 177 0
158 178 0
160 181 0
159 178 0
160 179 0
156 176 0
157 178 0
161 178 0
166 186 0
156 177 0
160 179 0
167 187 0
164 185 0
162 185 0
163 182 0
164 184 0
166 186 0
165 184 0
162 184 0
160 181 0
163 183 0
164 186 0
160 180 0
162 180 0
163 183 0
164 184 0
166 187 0
167 187 0
167 186 0
163 184 0
167 189 0
167 189 0
167 189 0
165 185 0
164 185 0
166 186 0
169 192 0
167 189 0
170 191 0
166 186 0
168 190 0
167 189 0
166 189 0
168 188 0
169 191 0
164 186 0
170 192 0
170 193 0
169 191 0
172 193 0
168 192 0
170 191 0
167 190 0
172 195 0
169 191 0
170 192 0
169 191 0
169 188 0
167 190 0
166 188 0
169 192 0
169 192 0
173 195 0
171 193 0
169 192 0
172 194 0
168 190 0
170 192 0
170 191 0
171 194 0
171 194 0
170 191 0
169 191 0
171 193 0
172 195 0
171 192 0
169 192 0
169 192 0
171 193 0
170 193 0
170 193 0
173 194 0
172 195 0
173 195 0
172 194 0
174 196 0
172 195 0
172 195 0
172 193 0
172 195 0
173 196 0
173 196 0
172 194 0
172 196 0
171 195 0
172 195 0
172 194 0
171 194 0
172 195 0
169 193 0
174 196 0
172 195 0
171 195 0
173 196 0
172 195 0
173 197 0
173 196 0
174 196 0
172 195 0
173 196 0
172 195 0
173 196 0
173 196 0
171 194 0
173 196 0
174 197 0
172 196 0
174 196 0
172 196 0
175 198 0
173 195 0
173 196 0
173 195 0
172 195 0
173 195 0
173 196 0
171 194 0
173 197 0
174 197 0
174 197 0
171 195 0
172 195 0
173 197 0
174 197 0
173 197 0
172 196 0
174 197 0
173 197 0
173 196 0
174 198 0
172 195 0
173 196 0
173 196 0
172 196 0
173 197 0
174 197 0
174 197 0
172 195 0
174 197 0
173 196 0
173 196 0
171 195 0
173 196 0
173 197 0
173 196 0
174 197 0
174 197 0
172 196 0
173 197 0
169 194 0
172 196 0
173 196 0
173 196 0
173 197 0
171 195 0
172 196 0
171 195 0
172 196 0
174 198 0
171 195 0
173 197 0
172 196 0
171 195 0
171 194 0
173 197 0
173 196 0
175 198 0
171 195 0
173 196 0
172 195 0
172 196 0
173 196 0
170 194 0
172 196 0
173 196 0
173 196 0
173 196 0
172 196 0
172 196 0
171 195 0
170 194 0
170 194 0
170 194 0
170 194 0
171 195 0
171 195 0
169 193 0
171 194 0
172 195 0
175 198 36
171 194 44
171 195 44
173 196 0
172 195 44
178 200 62
179 201 92
180 202 95
182 203 102
184 205 117
182 203 102
188 208 135
184 205 108
186 207 117
184 205 111
179 202 99
181 202 105
181 203 117
181 203 108
175 197 80
172 195 51
178 201 88
174 197 57
174 196 67
170 194 67
174 196 67
170 194 84
167 191 76
175 198 80
174 197 99
173 196 72
171 195 57
170 194 95
167 191 67
174 198 92
170 194 72
172 195 92
167 191 92
173 195 72
172 196 88
173 196 99
178 201 111
174 198 108
162 186 67
173 196 105
170 193 72
172 196 102
171 194 102
171 195 117
168 191 95
168 191 105
168 191 92
167 190 95
174 197 111
167 190 95
169 192 92
172 196 114
165 188 99
167 191 99
166 190 102
166 190 95
160 183 99
169 193 114
165 188 111
160 183 95
162 185 102
153 175 76
168 190 107
156 179 90
157 179 80
153 175 90
169 192 117
166 188 95
160 182 108
154 176 99
164 185 108
156 177 102
151 172 84
160 182 102
153 173 99
144 165 92
145 166 99
154 174 92
142 161 92
140 158 102
144 162 102
137 157 80
135 154 99
126 143 76
115 132 76
109 128 74
92 113 78
101 123 100
91 115 105
97 120 95
101 124 117
96 120 114
101 123 110
105 126 100
122 142 92
121 140 87
93 115 86
132 151 84
113 131 84
99 120 76
116 138 80
99 121 80
92 112 67
89 110 65
86 107 80
77 98 67
82 104 70
75 98 65
59 88 80
62 90 90
52 82 88
51 80 74
51 81 86
55 87 94
53 84 72
54 86 84
53 85 84
55 87 97
50 80 74
54 86 90
53 85 92
51 81 78
54 86 86
58 89 92
51 81 90
57 85 80
63 88 67
76 97 60
81 99 40
75 90 31
85 99 0
94 110 18
112 127 0
91 107 0
94 111 0
97 111 0
111 128 0
114 130 0
113 128 0
102 119 0
113 131 0
123 141 0
112 129 0
114 130 0
125 141 0
108 124 0
110 126 0
124 141 0
123 141 0
135 152 0
135 152 0
137 155 0
132 150 0
129 148 0
133 150 0
134 152 0
130 150 0
141 160 0
140 159 0
137 155 0
142 161 0
134 152 0
134 152 0
133 151 0
139 158 0
145 163 0
133 149 0
147 167 0
140 157 0
137 157 0
150 168 0
142 161 0
145 163 0
137 156 0
150 170 0
147 168 0
152 172 0
145 162 0
153 174 0
148 167 0
151 170 0
155 175 0
158 178 0
145 165 0
151 172 0
154 173 0
149 169 0
158 177 0
151 170 0
156 175 0
152 171 0
158 177 0
155 175 0
147 167 0
161 181 0
154 173 0
158 178 0
149 168 0
158 177 0
156 175 0
160 180 0
159 178 0
156 175 0
162 181 0
153 173 0
159 180 0
163 182 0
165 183 0
161 181 0
160 177 0
160 181 0
164 184 0
162 182 0
162 181 0
162 184 0
161 182 0
163 183 0
169 191 0
163 183 0
163 181 0
163 185 0
162 183 0
169 190 0
163 185 0
164 185 0
164 187 0
167 186 0
167 188 0
161 182 0
168 189 0
166 188 0
167 188 0
166 189 0
166 189 0
169 189 0
169 192 0
169 190 0
162 182 0
168 190 0
167 189 0
166 187 0
166 187 0
166 187 0
166 187 0
171 194 0
172 194 0
169 191 0
171 194 0
169 191 0
169 192 0
169 190 0
170 193 0
169 191 0
168 190 0
168 190 0
171 193 0
169 190 0
170 192 0
167 188 0
169 191 0
170 193 0
168 191 0
172 193 0
169 192 0
171 194 0
172 194 0
172 195 0
172 193 0
173 196 0
169 191 0
172 195 0
170 191 0
171 195 0
171 193 0
174 196 0
170 192 0
173 196 0
170 192 0
170 192 0
170 193 0
172 195 0
172 194 0
172 194 0
170 194 0
171 194 0
173 196 0
173 196 0
173 195 0
171 193 0
168 191 0
170 193 0
172 195 0
174 197 0
172 196 0
173 196 0
170 194 0
173 197 0
173 197 0
172 196 0
173 196 0
173 195 0
174 196 0
173 196 0
172 195 0
172 195 0
174 197 0
173 197 0
173 196 0
174 197 0
172 195 0
174 197 0
171 195 0
173 196 0
175 198 0
172 195 0
173 196 0
173 196 0
174 197 0
173 197 0
173 196 0
172 195 0
173 196 0
175 197 0
174 197 0
173 196 0
172 196 0
173 196 0
171 195 0
175 197 0
173 196 0
174 197 0
173 196 0
174 198 0
174 198 0
173 197 0
173 197 0
175 198 0
172 196 0
175 198 0
173 197 0
171 195 0
173 196 0
172 196 0
173 196 0
174 197 0
171 195 0
172 196 0
173 196 0
172 195 0
173 196 0
173 196 0
172 196 0
171 194 0
174 198 0
172 196 0
175 198 0
171 195 0
175 198 0
173 196 0
170 194 0
174 197 0
173 196 0
174 197 0
175 198 0
174 197 0
171 195 0
173 196 0
173 196 0
172 195 0
172 196 0
172 196 0
171 195 0
171 195 0
172 196 0
172 196 0
173 197 0
173 196 0
173 197 0
170 193 0
171 195 0
169 193 0
172 195 0
169 192 0
173 195 0
173 196 0
171 195 0
171 194 0
169 193 0
173 196 0
170 194 0
171 194 0
171 195 0
170 194 0
170 194 0
171 194 0
171 194 25
174 197 25
173 196 44
173 196 36
171 194 51
173 196 72
178 200 76
179 201 92
183 204 102
179 201 84
183 204 114
183 205 111
185 206 120
181 204 102
180 202 99
180 202 99
177 199 76
177 200 72
174 197 72
176 200 95
175 198 84
172 196 92
172 196 72
173 197 80
166 190 44
168 192 80
174 197 62
170 195 72
169 192 72
174 197 92
173 196 84
168 192 92
166 190 62
172 196 62
168 191 44
169 193 80
170 194 95
175 198 99
172 196 99
174 197 72
170 193 95
173 196 108
170 193 105
171 195 84
169 192 108
170 193 88
167 190 92
169 192 84
168 191 102
175 199 114
170 194 108
171 194 80
168 191 88
172 195 92
160 183 84
169 193 76
170 194 102
163 186 95
161 185 111
161 184 99
163 186 108
165 188 102
162 185 114
167 190 88
168 191 111
165 188 95
168 191 124
156 179 67
166 189 103
161 182 94
159 181 92
159 182 72
153 175 88
166 188 108
152 173 99
148 170 88
153 175 88
160 181 111
151 173 99
150 171 88
148 170 95
143 164 92
152 173 95
149 169 105
152 171 95
149 168 95
139 157 92
124 141 76
129 147 72
136 154 80
127 145 88
123 141 95
100 118 99
91 113 90
98 122 97
87 112 92
92 115 102
103 125 100
106 127 95
107 128 85
119 140 70
128 147 84
122 141 74
117 135 62
111 132 80
101 121 82
104 127 65
95 116 82
95 115 65
88 110 62
85 105 57
75 96 65
79 99 36
87 105 31
87 105 44
72 93 57
63 87 57
65 89 70
69 91 54
58 86 72
61 84 60
66 91 60
68 91 60
62 87 60
66 89 62
53 80 72
72 94 72
60 82 51
69 90 51
69 86 25
75 92 31
99 114 25
88 103 0
92 107 18
91 106 0
100 116 0
102 118 0
104 119 0
108 123 0
98 114 0
109 124 0
101 118 0
123 139 0
113 129 0
101 119 0
119 135 0
118 137 0
116 134 0
135 153 0
129 148 0
130 149 0
126 144 0
108 125 0
127 145 0
133 150 0
130 148 0
130 149 0
138 156 0
134 152 0
130 149 0
133 150 0
142 163 0
141 160 0
136 156 0
136 156 0
144 164 0
140 160 0
134 155 0
141 161 0
137 156 0
147 167 0
133 152 0
142 162 0
147 166 0
152 173 0
144 164 0
146 166 0
147 167 0
146 164 0
156 176 0
140 158 0
148 168 0
150 168 0
142 162 0
148 168 0
155 175 0
146 165 0
146 165 0
150 170 0
152 170 0
154 174 0
163 185 0
156 177 0
153 174 0
156 175 0
153 172 0
157 176 0
155 175 0
151 171 0
162 182 0
160 181 0
157 175 0
159 179 0
157 175 0
166 186 0
164 184 0
156 177 0
162 181 0
159 180 0
162 184 0
162 181 0
158 178 0
162 183 0
157 177 0
167 188 0
166 186 0
164 184 0
160 179 0
163 183 0
165 186 0
166 187 0
162 184 0
159 181 0
171 193 0
158 179 0
164 182 0
163 184 0
162 183 0
164 184 0
165 187 0
165 186 0
166 188 0
165 187 0
166 187 0
164 186 0
169 192 0
166 188 0
163 185 0
170 191 0
165 186 0
167 189 0
169 189 0
168 188 0
166 188 0
170 193 0
166 188 0
170 193 0
171 193 0
165 188 0
168 189 0
170 191 0
165 187 0
168 190 0
171 192 0
171 194 0
167 189 0
168 191 0
171 193 0
169 190 0
168 190 0
172 194 0
170 193 0
169 192 0
169 191 0
167 187 0
170 193 0
169 192 0
172 194 0
171 194 0
171 193 0
170 193 0
170 193 0
171 193 0
170 194 0
171 193 0
171 193 0
171 193 0
172 195 0
170 192 0
171 194 0
171 194 0
173 197 0
174 195 0
173 194 0
170 194 0
170 193 0
172 194 0
172 194 0
172 195 0
172 195 0
169 192 0
172 195 0
172 194 0
169 192 0
172 196 0
171 194 0
172 194 0
173 196 0
174 197 0
173 197 0
173 197 0
171 194 0
172 195 0
172 195 0
171 195 0
173 196 0
171 194 0
173 195 0
169 194 0
171 195 0
171 195 0
175 197 0
170 194 0
171 195 0
172 196 0
172 195 0
172 195 0
173 196 0
174 196 0
171 194 0
171 195 0
172 196 0
173 195 0
176 198 0
173 196 0
173 196 0
172 195 0
174 197 0
173 197 0
174 197 0
175 197 0
174 197 0
175 198 0
173 195 0
175 198 0
172 195 0
172 197 0
175 198 0
172 196 0
172 196 0
171 195 0
174 197 0
174 197 0
172 196 0
171 195 0
173 197 0
172 196 0
173 196 0
173 197 0
172 196 0
173 197 0
173 197 0
173 197 0
173 196 0
173 197 0
170 194 0
172 195 0
173 197 0
172 196 0
172 196 0
175 198 0
173 197 0
173 196 0
170 194 0
173 197 0
172 196 0
174 197 0
172 195 0
172 196 0
170 195 0
172 195 0
174 197 0
172 195 0
169 193 0
172 195 0
173 196 0
173 196 0
173 196 0
170 194 0
174 198 0
171 195 0
170 194 0
172 196 0
172 196 0
173 196 0
172 196 0
173 196 0
169 193 0
173 196 0
173 197 0
169 193 0
173 197 0
174 197 0
172 195 0
169 192 0
170 194 0
172 196 0
172 195 0
171 195 0
172 195 0
169 193 0
173 196 36
169 193 25
173 196 36
176 198 36
177 199 57
176 198 76
185 206 117
183 204 102
180 202 108
185 206 111
181 203 99
182 203 95
178 200 84
182 204 99
177 200 80
181 203 108
179 201 84
178 201 108
172 195 62
170 193 51
174 197 76
171 194 72
174 197 80
171 195 80
172 195 84
174 198 76
173 197 99
175 198 88
174 197 72
172 194 62
176 199 99
172 196 92
175 198 111
168 190 72
169 193 95
172 195 84
172 195 76
175 198 111
175 198 105
170 194 72
175 199 105
174 198 102
175 199 99
172 195 108
170 194 84
172 195 105
172 195 67
165 188 95
171 194 92
169 192 99
171 195 111
169 191 108
171 195 88
169 192 105
168 191 95
162 185 99
171 194 108
163 187 92
166 189 88
162 185 84
170 193 102
154 177 92
158 182 99
167 190 114
160 183 92
159 182 82
156 179 92
158 181 76
160 183 92
153 175 88
161 183 111
157 179 102
153 175 97
164 185 99
155 177 102
150 172 72
152 174 80
158 180 105
156 177 95
149 169 84
147 166 92
144 164 84
142 162 92
142 161 76
142 161 92
138 156 111
133 152 72
130 148 88
132 150 88
114 131 57
111 127 70
111 127 57
104 123 72
96 116 99
99 121 94
94 117 105
108 129 110
104 123 88
115 133 78
124 142 80
130 148 74
119 137 78
124 141 57
119 139 62
109 129 54
114 135 60
105 124 44
85 104 60
103 123 51
87 106 47
104 122 36
99 116 25
98 113 0
87 103 31
85 101 0
95 112 25
92 107 0
75 93 44
78 94 18
81 96 31
77 92 18
86 101 31
92 108 18
76 90 31
79 95 18
86 102 25
78 90 0
85 100 0
87 101 18
95 110 0
93 108 0
92 107 0
96 112 0
94 109 0
99 116 0
96 113 0
106 123 0
117 135 0
103 121 0
87 104 0
121 139 0
107 124 0
118 136 0
125 142 0
109 124 0
111 127 0
125 143 0
113 129 0
123 142 0
121 139 0
119 138 0
134 153 0
128 147 0
128 147 0
126 145 0
133 152 0
126 146 0
130 149 0
134 153 0
137 156 0
137 157 0
136 155 0
142 162 0
148 168 0
140 159 0
146 166 0
144 161 0
145 164 0
138 157 0
148 169 0
150 168 0
148 167 0
140 161 0
147 165 0
150 169 0
150 172 0
148 169 0
147 166 0
144 162 0
144 164 0
152 170 0
151 170 0
156 176 0
152 171 0
153 173 0
151 170 0
152 172 0
155 177 0
149 169 0
152 172 0
158 178 0
155 175 0
154 172 0
156 176 0
150 170 0
166 187 0
162 182 0
151 171 0
162 182 0
155 175 0
159 180 0
160 179 0
158 178 0
160 180 0
158 178 0
160 179 0
163 184 0
162 181 0
165 186 0
160 180 0
161 178 0
162 183 0
163 183 0
162 184 0
160 178 0
165 184 0
163 183 0
159 181 0
166 188 0
167 189 0
162 183 0
164 184 0
166 185 0
167 189 0
161 183 0
165 187 0
163 183 0
165 185 0
165 186 0
165 187 0
166 188 0
165 186 0
171 192 0
164 184 0
166 188 0
164 184 0
167 189 0
165 188 0
168 191 0
167 189 0
168 189 0
171 191 0
170 191 0
164 185 0
166 186 0
170 191 0
168 189 0
166 189 0
172 194 0
168 191 0
168 190 0
168 191 0
168 190 0
170 192 0
167 191 0
164 186 0
168 190 0
169 191 0
170 192 0
168 191 0
169 192 0
170 193 0
172 195 0
169 192 0
169 191 0
170 193 0
172 194 0
171 194 0
170 193 0
169 192 0
170 192 0
169 192 0
168 192 0
172 194 0
170 194 0
170 192 0
171 193 0
174 197 0
172 195 0
172 194 0
173 195 0
171 194 0
172 194 0
172 195 0
171 194 0
171 193 0
171 193 0
172 196 0
172 195 0
168 191 0
172 195 0
173 196 0
174 196 0
171 193 0
173 196 0
173 195 0
171 195 0
173 196 0
171 194 0
173 196 0
172 194 0
174 196 0
172 194 0
172 194 0
172 194 0
172 195 0
171 194 0
174 197 0
174 197 0
174 197 0
174 197 0
172 195 0
171 194 0
171 194 0
168 192 0
174 196 0
173 197 0
174 196 0
170 192 0
174 196 0
173 196 0
173 196 0
169 193 0
170 193 0
172 196 0
173 195 0
172 194 0
172 196 0
172 195 0
173 196 0
176 198 0
173 195 0
175 198 0
172 196 0
174 197 0
172 196 0
170 194 0
174 197 0
174 197 0
173 197 0
174 198 0
172 196 0
173 197 0
173 197 0
174 197 0
173 197 0
173 197 0
173 196 0
174 197 0
174 197 0
173 197 0
172 196 0
173 196 0
174 197 0
171 195 0
173 196 0
173 196 0
170 194 0
173 197 0
174 198 0
173 197 0
174 197 0
173 197 0
172 196 0
171 194 0
174 197 0
171 195 0
172 195 0
173 196 0
173 197 0
172 195 0
172 196 0
172 196 0
171 195 0
171 194 0
174 198 0
174 196 0
170 194 0
171 195 0
174 196 0
173 196 0
171 194 0
170 193 0
165 189 0
169 192 0
172 196 0
174 197 0
172 195 0
171 194 0
171 195 0
172 196 0
170 194 0
172 195 0
173 197 0
170 195 0
172 197 0
172 196 0
173 196 0
173 196 0
172 196 0
170 194 0
172 195 36
170 193 44
173 197 25
176 199 62
179 201 92
181 203 99
177 200 62
181 202 102
186 207 120
179 201 80
181 203 80
179 201 92
181 203 102
176 199 84
176 198 80
171 194 67
174 197 67
174 198 80
171 195 72
176 199 92
175 197 76
171 195 44
174 197 80
172 196 80
174 197 67
170 193 67
167 191 72
173 197 62
170 193 62
173 196 76
175 197 84
175 198 102
174 197 76
173 196 95
173 196 84
171 195 76
173 197 88
172 195 92
173 195 99
169 193 88
173 196 114
175 198 108
174 197 117
173 196 105
174 198 108
169 193 99
173 196 99
171 195 99
169 192 95
172 196 117
168 190 88
167 191 80
174 198 120
164 188 88
165 189 95
168 192 111
165 189 111
168 191 80
168 192 114
172 195 102
162 184 84
167 191 108
166 189 111
161 183 105
162 185 111
167 189 80
162 185 84
157 180 95
154 176 70
164 185 102
166 188 105
166 188 95
151 173 80
158 179 95
161 182 92
152 173 105
162 182 102
157 178 130
160 180 114
152 173 88
155 176 95
143 164 88
147 167 102
139 159 84
136 154 92
135 153 84
142 161 84
136 153 92
123 140 76
108 124 57
116 132 72
114 131 67
104 119 86
118 136 86
109 130 65
108 129 97
112 132 84
115 135 62
117 135 51
132 151 47
126 144 47
137 154 31
132 151 44
117 134 44
109 128 40
111 129 31
113 131 36
110 128 31
119 135 36
117 133 0
118 136 18
106 123 0
91 106 0
94 109 0
96 111 0
111 128 0
101 116 0
86 101 0
86 101 0
91 108 0
83 97 0
94 110 0
77 91 0
104 119 0
103 117 0
103 118 0
100 116 0
93 109 0
102 117 0
103 119 0
102 118 0
97 114 0
90 106 0
99 117 0
98 114 0
96 111 0
111 128 0
119 137 0
103 120 0
101 119 0
114 131 0
118 135 0
122 139 0
121 140 0
113 131 0
129 146 0
114 132 0
126 145 0
125 143 0
127 146 0
127 146 0
129 149 0
127 147 0
127 145 0
124 142 0
135 153 0
141 161 0
126 145 0
134 154 0
137 156 0
135 154 0
138 157 0
144 164 0
143 162 0
133 152 0
144 164 0
142 163 0
134 155 0
143 163 0
149 168 0
148 169 0
148 168 0
152 173 0
145 166 0
141 160 0
147 169 0
146 166 0
151 171 0
156 177 0
142 162 0
147 166 0
153 174 0
158 179 0
149 169 0
158 179 0
151 169 0
157 177 0
160 181 0
147 168 0
159 180 0
159 178 0
157 179 0
150 168 0
154 173 0
157 178 0
159 178 0
152 171 0
158 179 0
156 177 0
159 179 0
155 174 0
154 175 0
163 183 0
157 178 0
163 186 0
158 180 0
158 179 0
161 181 0
161 182 0
163 184 0
160 179 0
163 182 0
166 189 0
162 182 0
161 179 0
164 186 0
165 187 0
162 181 0
163 184 0
164 183 0
158 179 0
163 184 0
164 186 0
171 194 0
166 188 0
162 184 0
165 186 0
165 186 0
170 192 0
168 190 0
163 186 0
166 187 0
161 182 0
165 186 0
162 181 0
168 189 0
170 191 0
166 187 0
167 190 0
164 186 0
169 190 0
168 189 0
169 191 0
166 186 0
168 190 0
169 190 0
165 185 0
168 190 0
168 190 0
170 193 0
171 193 0
169 192 0
169 191 0
170 193 0
168 191 0
168 190 0
171 194 0
171 192 0
169 191 0
171 194 0
169 192 0
168 191 0
169 192 0
171 194 0
166 188 0
170 193 0
173 196 0
170 194 0
167 189 0
170 193 0
170 194 0
167 190 0
170 192 0
172 194 0
168 188 0
172 195 0
173 195 0
172 195 0
172 195 0
173 195 0
170 193 0
170 193 0
171 194 0
171 195 0
173 195 0
173 194 0
174 196 0
173 195 0
174 196 0
170 194 0
170 193 0
171 194 0
173 196 0
171 193 0
172 195 0
173 196 0
171 194 0
173 196 0
173 195 0
173 197 0
173 195 0
173 197 0
172 195 0
173 195 0
172 196 0
174 197 0
173 196 0
172 193 0
172 195 0
173 196 0
174 197 0
173 195 0
173 195 0
173 196 0
174 197 0
172 195 0
172 195 0
172 195 0
174 197 0
174 198 0
173 196 0
173 196 0
174 196 0
174 197 0
172 195 0
174 197 0
173 196 0
172 196 0
172 196 0
174 197 0
174 196 0
172 195 0
176 199 0
175 198 0
174 197 0
174 197 0
174 197 0
174 198 0
174 198 0
173 196 0
174 197 0
173 196 0
173 197 0
174 198 0
175 198 0
175 198 0
172 196 0
174 197 0
173 196 0
174 198 0
173 196 0
172 195 0
173 197 0
168 192 0
172 195 0
174 197 0
175 198 0
171 195 0
172 196 0
173 196 0
174 197 0
172 196 0
174 197 0
175 198 0
175 198 0
173 197 0
169 193 0
173 196 0
170 192 0
174 197 0
174 198 0
173 196 0
170 194 0
171 195 0
174 196 0
170 194 0
172 195 0
173 196 0
174 198 0
169 192 0
172 195 0
173 197 0
169 193 0
171 195 0
170 195 0
170 194 0
172 196 0
173 196 0
169 193 0
172 196 0
174 197 0
168 192 0
172 195 0
170 193 0
173 196 0
172 195 0
171 194 0
169 192 0
174 197 0
171 195 36
171 195 0
172 196 44
173 197 25
177 199 51
177 199 95
179 201 84
181 202 88
182 203 99
178 200 80
179 202 76
180 201 88
180 202 92
176 199 72
176 199 72
174 198 76
174 197 80
175 198 57
169 192 44
173 197 72
171 194 80
174 196 80
174 195 92
174 196 62
173 196 88
175 198 80
172 196 76
173 197 84
171 194 67
169 193 51
175 198 99
171 195 84
168 192 84
174 197 105
171 194 84
175 197 105
172 196 67
173 196 92
172 195 102
171 194 84
176 199 105
166 190 76
170 193 92
175 198 108
177 200 108
167 191 102
169 192 99
172 195 88
166 190 84
171 195 102
171 194 80
168 191 102
165 189 95
169 193 105
163 186 111
162 185 80
164 188 99
165 188 102
163 187 111
169 193 108
161 183 80
165 189 108
168 190 88
167 190 111
164 187 99
161 184 92
162 184 102
162 185 108
162 184 97
157 180 99
156 178 88
163 185 120
165 187 97
155 177 99
165 186 128
150 172 88
152 173 95
152 173 80
149 169 95
151 172 88
148 169 102
149 169 99
135 155 80
150 170 99
143 162 76
143 161 88
148 167 95
136 154 95
119 136 62
117 134 76
129 147 72
129 145 76
121 137 51
107 123 67
102 119 54
99 117 65
106 125 51
116 134 74
130 150 65
135 155 62
135 153 47
129 145 44
137 154 0
127 145 0
125 143 0
129 148 0
119 136 25
124 142 0
114 131 0
108 125 0
99 116 0
104 120 0
113 130 0
98 116 0
95 110 0
98 114 0
101 115 0
84 100 0
92 107 0
101 117 0
89 104 0
98 114 0
92 107 0
91 107 0
102 118 0
101 118 0
107 123 0
92 108 0
105 120 0
86 100 0
107 124 0
114 132 0
106 122 0
108 124 0
112 130 0
104 122 0
97 114 0
112 127 0
111 129 0
113 131 0
113 131 0
124 142 0
113 131 0
115 133 0
128 146 0
119 137 0
131 150 0
129 148 0
118 135 0
124 143 0
136 155 0
133 151 0
132 152 0
127 146 0
134 153 0
133 153 0
133 154 0
137 156 0
131 148 0
132 152 0
140 158 0
140 159 0
137 156 0
141 160 0
146 166 0
143 164 0
136 156 0
138 159 0
137 157 0
152 173 0
139 159 0
144 164 0
139 159 0
147 166 0
142 160 0
141 160 0
153 173 0
148 167 0
152 172 0
148 167 0
150 171 0
151 171 0
154 174 0
149 168 0
154 174 0
158 180 0
147 168 0
161 180 0
151 171 0
156 175 0
161 183 0
158 177 0
161 183 0
153 172 0
157 177 0
156 177 0
158 180 0
156 176 0
158 179 0
160 181 0
158 179 0
159 182 0
162 182 0
159 181 0
163 184 0
157 178 0
162 181 0
156 177 0
158 180 0
162 183 0
162 183 0
156 175 0
164 185 0
164 185 0
158 177 0
162 182 0
162 184 0
159 180 0
161 180 0
166 187 0
167 189 0
160 181 0
164 186 0
163 184 0
164 186 0
171 192 0
167 191 0
163 184 0
159 179 0
161 182 0
164 185 0
167 188 0
168 190 0
166 186 0
163 183 0
168 190 0
168 189 0
166 189 0
166 189 0
162 182 0
168 190 0
169 191 0
167 188 0
171 192 0
166 188 0
167 189 0
168 191 0
164 186 0
170 193 0
169 192 0
170 192 0
170 192 0
170 193 0
172 194 0
170 193 0
167 189 0
170 192 0
169 192 0
167 189 0
170 192 0
167 190 0
171 193 0
167 189 0
172 195 0
169 191 0
172 194 0
170 193 0
172 194 0
169 192 0
168 191 0
172 193 0
174 196 0
169 192 0
173 195 0
175 198 0
174 197 0
173 196 0
170 192 0
170 192 0
172 194 0
169 191 0
171 194 0
170 191 0
170 193 0
172 195 0
174 197 0
172 195 0
174 196 0
170 193 0
172 196 0
172 195 0
172 195 0
173 196 0
169 191 0
173 196 0
173 194 0
173 197 0
173 197 0
172 196 0
175 198 0
174 196 0
172 196 0
172 195 0
171 194 0
171 195 0
174 196 0
171 194 0
173 195 0
172 195 0
175 198 0
175 197 0
172 195 0
173 197 0
173 197 0
173 195 0
171 195 0
170 192 0
173 197 0
174 197 0
172 196 0
173 195 0
173 196 0
174 198 0
174 197 0
173 197 0
173 197 0
176 198 0
171 195 0
171 195 0
173 197 0
174 197 0
175 198 0
174 197 0
173 196 0
173 197 0
174 197 0
173 197 0
174 198 0
173 196 0
174 198 0
175 198 0
173 197 0
172 195 0
173 196 0
174 197 0
173 197 0
175 198 0
170 195 0
173 197 0
174 198 0
173 196 0
176 199 0
174 197 0
172 196 0
175 198 0
171 195 0
173 197 0
174 197 0
174 197 0
173 196 0
173 197 0
175 198 0
170 193 0
172 195 0
175 198 0
170 194 0
174 197 0
170 194 0
174 198 0
172 196 0
174 197 0
172 195 0
170 193 0
171 195 0
171 195 0
171 195 0
171 195 0
172 196 0
172 196 0
169 193 0
172 195 0
168 192 0
173 197 0
173 196 0
173 196 0
173 197 0
172 196 0
170 193 0
171 195 0
169 193 0
173 196 0
174 197 0
172 195 0
169 192 0
171 195 0
167 192 0
171 194 0
167 191 0
170 194 0
172 195 0
175 198 36
176 199 44
170 194 0
174 197 44
179 201 67
176 199 57
180 202 84
180 202 80
180 202 80
178 200 76
178 201 88
182 203 92
173 196 51
180 202 76
173 196 57
175 197 76
178 199 62
175 198 80
168 191 36
173 195 84
170 192 62
172 195 72
172 195 76
169 192 80
174 197 80
173 196 80
170 193 67
172 195 62
177 200 99
174 198 84
174 196 67
171 195 76
174 196 88
172 196 84
171 194 99
177 199 95
174 197 102
171 195 84
174 197 105
174 197 76
173 197 88
170 193 117
171 195 102
169 193 92
169 192 102
170 194 102
168 191 80
168 191 105
169 193 95
160 183 80
173 197 105
170 194 102
169 192 111
162 186 88
165 188 67
170 193 105
170 193 80
161 184 92
166 191 105
162 185 105
166 190 80
162 186 95
163 186 72
165 187 80
161 183 76
170 193 108
163 186 102
165 188 105
161 183 86
168 189 108
163 185 102
154 176 82
156 178 95
162 184 99
154 175 99
148 170 76
157 178 105
152 173 76
158 179 88
149 170 84
152 173 102
147 168 88
144 163 95
143 163 92
148 167 95
141 160 76
143 162 95
138 156 88
138 156 80
128 146 76
132 150 92
126 144 57
118 134 76
134 151 84
99 115 36
115 133 47
112 130 62
120 137 44
118 135 25
128 147 44
135 153 25
132 149 25
140 159 25
135 154 25
130 148 0
117 134 0
122 139 0
125 143 0
119 136 0
110 127 0
105 123 0
107 123 0
111 128 0
113 130 0
96 113 0
100 116 0
113 129 0
105 121 0
106 122 0
102 118 0
94 109 0
88 104 0
93 109 0
113 130 0
88 104 0
99 115 0
102 118 0
112 128 0
92 109 0
105 122 0
109 126 0
104 121 0
110 128 0
95 112 0
106 122 0
105 123 0
123 141 0
117 132 0
120 138 0
120 137 0
118 136 0
116 135 0
124 143 0
116 133 0
125 143 0
122 140 0
129 149 0
122 142 0
128 148 0
137 155 0
127 146 0
119 138 0
125 144 0
123 142 0
134 154 0
132 152 0
142 160 0
132 150 0
139 159 0
141 160 0
139 157 0
135 155 0
138 158 0
146 165 0
143 164 0
148 168 0
136 156 0
145 165 0
149 170 0
141 160 0
151 171 0
147 167 0
145 166 0
144 164 0
148 169 0
145 166 0
140 160 0
148 169 0
147 168 0
149 169 0
157 177 0
155 174 0
152 173 0
151 172 0
153 173 0
158 180 0
157 179 0
156 176 0
156 178 0
157 178 0
159 179 0
157 178 0
158 178 0
164 185 0
154 175 0
161 182 0
153 174 0
153 172 0
160 181 0
162 183 0
159 181 0
162 183 0
161 182 0
160 181 0
156 176 0
160 181 0
160 182 0
163 184 0
156 177 0
158 179 0
168 189 0
162 183 0
165 186 0
161 183 0
164 187 0
161 179 0
165 187 0
160 181 0
168 187 0
166 188 0
167 187 0
167 189 0
166 188 0
166 188 0
167 189 0
164 186 0
161 183 0
168 190 0
168 190 0
169 191 0
167 187 0
166 186 0
166 187 0
166 187 0
166 189 0
167 189 0
164 185 0
169 191 0
171 194 0
167 188 0
168 189 0
171 193 0
166 188 0
165 188 0
169 190 0
167 191 0
166 188 0
165 185 0
169 192 0
168 188 0
170 193 0
165 188 0
168 190 0
170 192 0
171 194 0
170 192 0
169 190 0
169 191 0
169 192 0
168 190 0
172 195 0
168 190 0
169 192 0
172 193 0
169 191 0
169 192 0
173 195 0
172 193 0
171 193 0
172 194 0
168 191 0
169 192 0
173 195 0
170 194 0
172 196 0
171 194 0
173 196 0
171 194 0
170 194 0
169 192 0
174 196 0
169 190 0
174 197 0
173 195 0
169 192 0
170 193 0
170 193 0
170 194 0
171 194 0
172 196 0
172 195 0
173 196 0
175 198 0
171 194 0
172 194 0
173 197 0
172 196 0
171 194 0
174 198 0
172 196 0
172 194 0
172 196 0
170 193 0
174 197 0
171 195 0
172 195 0
172 196 0
174 197 0
172 196 0
173 196 0
172 195 0
174 197 0
173 196 0
171 194 0
173 196 0
174 197 0
171 194 0
174 197 0
173 196 0
172 195 0
171 195 0
174 197 0
174 197 0
175 198 0
173 197 0
172 196 0
173 196 0
174 197 0
174 197 0
170 194 0
173 196 0
174 197 0
173 196 0
174 197 0
174 197 0
174 197 0
174 197 0
174 197 0
174 198 0
175 198 0
174 197 0
175 197 0
172 196 0
172 196 0
171 196 0
173 197 0
173 197 0
174 197 0
174 198 0
172 196 0
174 197 0
173 197 0
172 196 0
174 197 0
172 196 0
173 197 0
173 197 0
174 197 0
174 197 0
170 194 0
171 195 0
172 196 0
173 197 0
173 196 0
173 197 0
173 196 0
171 194 0
170 193 0
171 195 0
173 196 0
172 196 0
171 195 0
171 194 0
171 195 0
172 197 0
172 195 0
173 197 0
173 197 0
171 195 0
171 195 0
171 195 0
173 197 0
171 195 0
172 195 0
172 195 0
174 197 0
171 194 0
173 197 0
173 197 0
171 195 0
171 194 0
170 194 0
170 194 0
172 195 0
171 195 0
171 194 0
171 194 0
171 195 0
171 195 0
172 195 0
173 197 25
174 198 25
175 198 25
174 197 44
175 199 36
174 198 62
178 201 62
177 199 67
178 200 72
176 199 57
179 201 76
174 198 57
175 198 62
174 197 67
175 198 72
178 200 76
174 197 44
172 195 67
174 196 67
168 191 67
175 198 84
175 198 72
172 195 76
172 196 84
172 195 62
174 197 92
173 196 88
173 196 102
175 197 62
174 198 88
174 198 92
172 196 95
169 193 80
175 198 105
171 194 92
172 195 95
171 194 92
170 194 84
168 191 88
169 192 95
174 198 102
173 195 111
168 191 105
173 196 99
172 195 84
173 196 102
169 192 88
166 189 88
172 195 102
166 189 92
165 188 88
168 192 95
172 195 114
166 190 95
166 189 102
165 188 88
168 191 111
164 187 102
162 184 88
168 192 111
165 189 95
160 183 105
172 195 108
165 189 97
166 188 94
169 192 88
157 179 84
149 170 102
164 186 84
162 184 105
153 175 88
165 187 102
153 175 80
159 181 84
153 174 102
153 175 95
157 178 92
153 173 102
149 170 84
149 170 76
154 175 95
147 169 95
154 174 102
147 167 111
147 166 105
139 159 95
142 162 62
144 162 99
139 158 84
146 163 72
129 146 80
127 146 62
144 162 95
119 137 36
131 148 62
133 150 62
118 136 44
123 141 25
133 151 51
137 155 44
140 158 36
141 160 25
142 162 0
145 164 0
130 149 0
126 145 0
131 149 0
126 144 0
111 129 0
112 130 0
123 141 0
109 126 0
114 131 0
110 128 0
124 142 0
109 126 0
102 120 0
106 122 0
97 113 0
97 113 0
117 133 0
104 120 0
107 124 0
97 114 0
103 119 0
106 123 0
103 121 0
112 129 0
93 110 0
97 114 0
110 126 0
97 114 0
107 122 0
128 145 0
105 122 0
113 131 0
120 137 0
123 141 0
118 136 0
119 137 0
113 131 0
123 139 0
114 133 0
121 140 0
134 152 0
123 142 0
135 152 0
124 143 0
130 148 0
135 152 0
133 152 0
142 161 0
132 150 0
141 162 0
135 155 0
134 154 0
146 167 0
132 150 0
143 163 0
143 164 0
140 160 0
138 158 0
135 153 0
137 157 0
138 158 0
141 161 0
151 171 0
140 161 0
148 168 0
150 170 0
152 173 0
148 170 0
149 169 0
144 162 0
148 168 0
148 168 0
142 162 0
148 169 0
149 170 0
148 168 0
154 175 0
153 174 0
152 170 0
148 168 0
158 180 0
152 172 0
157 179 0
156 177 0
156 177 0
155 176 0
151 171 0
161 184 0
160 183 0
160 181 0
157 176 0
157 178 0
152 171 0
157 178 0
158 178 0
158 178 0
157 178 0
158 180 0
160 180 0
158 178 0
158 178 0
155 176 0
161 183 0
162 183 0
161 181 0
163 184 0
160 181 0
161 182 0
162 184 0
164 186 0
163 185 0
161 182 0
162 181 0
162 185 0
164 186 0
166 186 0
163 184 0
160 181 0
163 184 0
168 191 0
168 189 0
165 186 0
165 185 0
163 186 0
165 187 0
166 187 0
164 186 0
166 189 0
170 192 0
167 188 0
158 178 0
166 188 0
166 190 0
167 190 0
170 190 0
169 191 0
169 190 0
169 192 0
166 190 0
163 183 0
166 189 0
168 190 0
167 188 0
166 187 0
169 191 0
167 189 0
169 192 0
165 187 0
168 191 0
169 191 0
169 190 0
172 193 0
171 193 0
169 191 0
170 192 0
171 194 0
169 191 0
173 195 0
168 190 0
171 194 0
171 195 0
169 191 0
169 191 0
170 194 0
170 192 0
169 192 0
173 196 0
174 196 0
171 194 0
170 192 0
172 195 0
174 196 0
170 192 0
172 195 0
170 193 0
172 196 0
172 194 0
170 192 0
170 193 0
175 197 0
171 193 0
171 195 0
172 194 0
168 190 0
173 195 0
173 195 0
170 193 0
173 197 0
169 192 0
172 196 0
171 194 0
170 194 0
170 193 0
175 198 0
173 196 0
173 196 0
171 194 0
172 194 0
173 196 0
170 193 0
172 195 0
173 195 0
174 197 0
172 195 0
172 196 0
172 196 0
173 195 0
171 195 0
173 197 0
174 196 0
172 195 0
175 198 0
172 195 0
175 198 0
175 197 0
172 196 0
172 195 0
174 197 0
174 197 0
172 196 0
173 196 0
175 197 0
174 196 0
174 196 0
173 197 0
173 197 0
172 195 0
174 197 0
172 196 0
175 198 0
174 197 0
172 196 0
174 197 0
173 197 0
173 197 0
175 198 0
172 195 0
174 198 0
170 194 0
173 197 0
171 195 0
171 195 0
174 198 0
174 197 0
172 196 0
174 197 0
173 197 0
175 198 0
173 197 0
174 198 0
173 196 0
172 195 0
171 194 0
176 198 0
171 195 0
175 198 0
173 197 0
173 196 0
174 197 0
174 197 0
171 195 0
170 193 0
169 193 0
171 195 0
173 196 0
173 196 0
171 195 0
171 195 0
172 195 0
174 197 0
174 197 0
174 197 0
172 196 0
173 195 0
172 196 0
171 195 0
172 196 0
173 196 0
168 191 0
174 198 0
172 196 0
173 196 0
171 194 0
171 195 0
172 196 0
174 198 0
172 195 0
171 194 0
172 195 0
173 196 0
174 197 0
172 195 0
172 196 0
171 194 0
170 193 25
172 195 0
170 194 25
174 197 44
173 196 0
177 200 62
177 199 62
176 198 62
176 199 51
177 199 72
175 199 57
177 200 88
174 197 72
176 199 57
176 199 72
175 198 62
170 193 44
179 201 76
173 196 62
167 190 57
173 196 57
177 199 76
174 196 57
175 199 72
171 194 44
169 192 67
172 195 76
171 194 57
172 195 44
175 197 76
177 199 67
171 195 92
170 193 92
176 198 99
175 198 102
179 201 114
173 197 92
172 195 72
177 200 84
173 196 76
173 197 105
175 199 102
174 197 92
170 194 88
173 196 95
168 191 102
176 199 122
168 191 95
171 195 95
168 191 84
168 192 95
175 198 125
162 186 84
170 193 108
163 187 84
168 192 99
161 185 92
164 188 105
169 193 117
170 193 105
165 189 102
160 184 84
169 192 99
168 191 108
162 184 92
163 187 105
156 178 84
162 185 94
162 185 102
159 182 95
155 178 102
161 183 80
166 188 117
159 181 99
168 191 114
170 193 117
156 178 88
159 181 92
164 185 111
157 178 95
156 176 102
163 184 108
153 174 92
160 181 99
145 166 88
150 170 108
152 171 92
143 162 99
142 161 72
145 165 99
146 164 105
156 175 111
145 163 99
132 151 76
131 150 62
122 139 44
129 146 44
125 143 51
119 138 0
129 146 51
136 154 51
138 157 44
135 153 36
124 142 0
139 158 0
130 149 0
144 163 0
128 147 0
123 141 0
123 140 0
113 130 0
115 133 0
121 140 0
118 138 0
117 136 0
108 126 0
104 121 0
113 132 0
104 120 0
109 127 0
113 131 0
108 125 0
110 127 0
114 131 0
107 125 0
106 124 0
112 129 0
108 125 0
111 128 0
112 129 0
112 130 0
120 137 0
117 135 0
110 128 0
108 125 0
111 129 0
113 131 0
110 128 0
122 140 0
115 134 0
116 135 0
132 150 0
130 149 0
121 139 0
122 139 0
120 140 0
129 148 0
128 147 0
120 140 0
124 143 0
135 154 0
126 145 0
133 153 0
135 154 0
136 155 0
126 146 0
136 155 0
139 161 0
135 154 0
146 165 0
138 157 0
141 162 0
142 163 0
137 157 0
138 157 0
141 161 0
145 165 0
144 164 0
150 171 0
146 166 0
146 167 0
153 176 0
151 171 0
149 170 0
158 179 0
148 168 0
148 168 0
151 173 0
154 174 0
153 174 0
147 167 0
156 177 0
157 177 0
147 168 0
146 166 0
152 173 0
154 175 0
152 174 0
159 180 0
147 168 0
161 181 0
150 170 0
156 176 0
157 178 0
163 184 0
156 175 0
156 177 0
158 179 0
160 180 0
159 180 0
159 180 0
165 187 0
156 176 0
157 177 0
161 181 0
164 184 0
165 185 0
159 180 0
166 188 0
164 186 0
163 184 0
163 184 0
164 186 0
165 185 0
159 181 0
161 183 0
163 185 0
161 182 0
166 189 0
163 185 0
167 189 0
159 180 0
164 184 0
160 181 0
167 189 0
163 184 0
170 192 0
166 187 0
168 190 0
168 190 0
169 191 0
164 186 0
167 190 0
168 189 0
164 187 0
166 189 0
164 185 0
166 188 0
165 185 0
164 185 0
164 185 0
166 188 0
166 186 0
167 189 0
171 193 0
166 188 0
165 188 0
165 187 0
171 193 0
170 191 0
167 189 0
170 193 0
172 194 0
169 190 0
166 188 0
169 190 0
171 193 0
169 191 0
170 192 0
169 192 0
169 192 0
171 193 0
170 192 0
170 193 0
173 195 0
170 194 0
170 193 0
169 192 0
173 195 0
171 193 0
168 191 0
174 196 0
171 194 0
168 191 0
170 193 0
172 196 0
173 196 0
171 194 0
170 192 0
173 196 0
170 193 0
171 194 0
169 192 0
169 192 0
171 194 0
173 196 0
174 196 0
172 195 0
171 193 0
171 194 0
171 195 0
172 194 0
172 192 0
171 195 0
171 195 0
172 195 0
173 195 0
169 193 0
173 195 0
172 196 0
172 195 0
171 194 0
174 197 0
171 194 0
174 198 0
171 194 0
173 197 0
174 197 0
173 195 0
173 197 0
172 194 0
172 195 0
172 196 0
170 193 0
173 196 0
174 197 0
173 196 0
173 196 0
173 196 0
175 197 0
170 194 0
173 197 0
173 195 0
171 194 0
174 197 0
174 198 0
174 197 0
172 196 0
174 197 0
174 197 0
172 195 0
170 193 0
170 193 0
175 197 0
173 197 0
173 197 0
172 196 0
174 198 0
171 195 0
174 197 0
172 196 0
173 197 0
173 197 0
175 198 0
172 196 0
170 195 0
172 196 0
173 196 0
174 197 0
172 195 0
172 196 0
173 196 0
174 197 0
172 195 0
172 197 0
173 197 0
173 196 0
173 196 0
172 196 0
173 197 0
172 195 0
170 194 0
172 195 0
174 198 0
172 195 0
172 196 0
172 196 0
171 194 0
171 195 0
172 195 0
171 194 0
173 196 0
173 197 0
170 194 0
172 195 0
171 195 0
170 194 0
171 195 0
174 198 0
173 197 0
170 193 0
173 197 0
172 195 0
171 195 0
173 197 0
169 193 0
172 195 0
170 194 0
173 197 0
171 195 0
172 195 0
170 194 0
173 196 0
170 194 0
172 196 0
170 193 0
171 195 0
172 195 0
170 194 0
171 194 0
171 195 0
172 197 0
173 196 0
168 192 0
170 193 0
172 196 36
177 200 57
173 196 25
178 200 67
178 200 67
176 198 72
178 200 62
175 199 44
173 195 44
177 200 57
175 198 72
173 196 44
172 195 76
174 197 72
175 199 57
173 196 67
172 193 95
173 196 62
175 198 88
169 192 44
172 196 99
169 193 67
175 198 95
173 196 67
172 195 80
173 196 62
172 195 72
176 199 84
176 199 88
177 200 108
173 196 88
173 197 95
172 195 99
168 192 88
173 196 99
176 199 105
170 192 99
172 195 99
175 198 117
171 194 102
167 190 99
171 194 102
174 197 99
170 193 102
172 195 99
176 199 122
167 191 84
170 193 88
171 195 111
172 195 105
167 190 99
164 186 114
163 186 88
172 195 114
160 183 95
164 187 62
163 187 84
169 193 105
160 183 88
169 191 99
162 184 102
163 186 99
160 183 88
158 181 95
169 192 114
166 189 102
164 187 95
157 179 82
155 178 88
156 178 95
153 175 84
157 178 108
154 175 102
163 185 111
157 179 84
150 170 76
151 172 92
155 175 102
160 180 99
161 181 114
156 176 95
153 172 111
143 163 76
131 151 72
147 165 102
153 172 102
151 171 84
142 160 76
126 145 62
132 151 62
133 151 62
133 152 57
132 150 44
134 153 44
134 153 25
131 150 62
143 162 0
134 152 25
139 158 0
146 165 44
141 162 0
136 155 0
127 148 0
120 139 0
123 142 0
124 143 0
111 129 0
116 134 0
120 139 0
121 138 0
121 140 0
120 139 0
112 130 0
118 136 0
116 134 0
107 125 0
115 132 0
118 136 0
122 140 0
102 118 0
111 129 0
119 137 0
120 138 0
112 130 0
116 134 0
118 136 0
116 135 0
123 142 0
119 137 0
123 141 0
120 139 0
117 136 0
118 138 0
125 145 0
115 132 0
131 151 0
126 146 0
125 144 0
134 153 0
133 151 0
120 139 0
129 148 0
121 139 0
129 148 0
137 158 0
137 157 0
132 152 0
124 143 0
134 154 0
142 162 0
140 159 0
133 152 0
138 158 0
145 165 0
140 158 0
137 156 0
143 163 0
143 163 0
142 162 0
152 172 0
144 166 0
142 162 0
148 170 0
141 159 0
137 158 0
139 160 0
149 170 0
157 177 0
149 168 0
148 169 0
148 168 0
149 170 0
155 177 0
153 174 0
152 171 0
158 178 0
157 177 0
152 173 0
148 168 0
159 180 0
160 180 0
162 183 0
150 172 0
152 173 0
158 180 0
154 172 0
155 175 0
158 179 0
158 178 0
155 176 0
160 182 0
163 186 0
159 180 0
155 175 0
164 186 0
165 186 0
159 178 0
165 185 0
160 180 0
164 186 0
162 183 0
160 181 0
158 179 0
158 178 0
162 184 0
167 189 0
163 184 0
161 182 0
164 185 0
165 187 0
165 188 0
160 181 0
166 188 0
162 183 0
159 179 0
169 190 0
160 182 0
164 185 0
164 185 0
169 191 0
166 187 0
165 186 0
170 192 0
165 185 0
163 185 0
166 186 0
167 189 0
168 190 0
166 189 0
165 186 0
167 188 0
167 189 0
172 193 0
170 192 0
170 192 0
167 189 0
168 191 0
164 187 0
171 192 0
165 187 0
163 185 0
168 190 0
168 190 0
168 190 0
170 192 0
169 191 0
165 187 0
168 190 0
167 188 0
168 188 0
164 186 0
171 193 0
169 192 0
173 196 0
171 194 0
171 192 0
169 191 0
169 191 0
168 191 0
171 193 0
172 194 0
171 193 0
171 193 0
175 196 0
172 195 0
171 193 0
172 194 0
168 191 0
170 193 0
170 192 0
172 195 0
173 195 0
172 196 0
173 196 0
171 193 0
172 194 0
171 193 0
172 196 0
169 192 0
171 194 0
173 196 0
171 195 0
172 196 0
169 192 0
172 195 0
173 196 0
173 196 0
175 197 0
172 195 0
170 193 0
173 196 0
174 197 0
171 194 0
171 194 0
172 194 0
173 197 0
171 194 0
172 194 0
171 194 0
172 195 0
175 197 0
173 196 0
170 193 0
173 196 0
173 195 0
169 191 0
174 198 0
173 197 0
174 197 0
172 195 0
174 196 0
170 193 0
172 196 0
172 195 0
172 195 0
172 195 0
173 196 0
171 194 0
172 195 0
174 197 0
171 194 0
173 196 0
173 196 0
172 195 0
174 196 0
173 197 0
174 196 0
173 196 0
174 197 0
174 197 0
172 196 0
173 197 0
174 198 0
172 195 0
174 197 0
175 198 0
172 196 0
172 196 0
172 196 0
173 196 0
175 198 0
172 196 0
174 198 0
172 195 0
170 195 0
175 198 0
173 196 0
173 197 0
174 197 0
173 196 0
173 197 0
175 198 0
173 197 0
174 197 0
172 196 0
173 196 0
173 197 0
171 194 0
174 198 0
173 196 0
173 196 0
170 194 0
173 196 0
171 195 0
173 196 0
173 197 0
173 196 0
172 196 0
172 196 0
172 196 0
173 197 0
171 195 0
171 195 0
172 196 0
172 196 0
171 195 0
170 193 0
172 196 0
170 195 0
171 195 0
173 197 0
174 197 0
172 195 0
174 197 0
174 197 0
169 193 0
174 197 0
171 195 0
170 193 0
169 192 0
173 196 0
170 193 0
172 196 0
170 194 0
172 195 0
170 194 0
172 196 25
170 194 25
172 195 0
172 196 25
170 194 25
176 199 57
175 199 51
175 198 51
177 200 72
175 198 44
176 199 62
175 198 57
173 197 44
179 202 80
176 200 76
175 198 44
175 198 62
175 198 44
179 201 99
176 199 80
177 198 92
170 193 95
175 197 84
176 199 95
170 193 86
171 194 67
175 197 99
170 193 67
176 199 92
173 196 92
173 196 88
173 197 84
178 200 114
177 200 102
175 198 99
176 199 105
176 199 92
172 196 92
173 196 76
172 195 95
170 193 102
177 200 105
174 197 99
174 196 105
168 191 99
170 192 99
175 198 111
171 194 102
167 191 95
174 198 105
170 193 105
167 190 99
170 193 84
166 189 95
162 185 92
165 188 92
170 194 108
166 189 95
165 188 92
165 189 92
164 186 72
166 189 108
170 193 108
165 188 88
161 184 84
156 178 84
163 186 95
153 176 86
157 180 88
160 183 105
166 189 102
163 186 111
158 180 102
158 180 99
165 187 99
164 185 114
162 184 117
157 179 80
159 180 88
156 177 95
161 182 88
157 177 92
154 175 120
148 169 84
148 168 88
155 175 102
147 166 102
147 167 105
154 172 102
139 157 84
147 165 117
134 152 62
134 153 57
129 148 62
130 150 44
127 147 44
126 146 36
130 148 57
138 158 44
143 164 25
140 160 25
151 173 36
134 153 25
140 160 0
147 167 0
135 155 0
135 155 0
128 148 0
131 150 0
131 150 0
129 149 0
119 138 0
118 137 0
127 146 0
125 144 0
127 146 0
124 142 0
124 143 0
124 141 0
109 125 0
119 137 0
121 140 0
116 134 0
118 136 0
123 142 0
122 142 0
115 133 0
119 139 0
115 133 0
126 145 0
127 146 0
114 132 0
116 134 0
120 139 0
115 134 0
128 147 0
130 150 0
120 139 0
123 142 0
109 129 0
125 145 0
117 136 0
126 144 0
131 151 0
133 152 0
137 157 0
120 140 0
134 153 0
132 151 0
126 146 0
134 155 0
134 154 0
134 154 0
130 151 0
143 163 0
136 156 0
137 158 0
140 160 0
145 166 0
148 170 0
145 165 0
144 164 0
136 156 0
148 169 0
137 156 0
145 165 0
155 177 0
147 166 0
145 164 0
149 170 0
139 159 0
151 172 0
154 174 0
155 177 0
147 167 0
148 169 0
147 167 0
158 180 0
157 178 0
150 170 0
156 178 0
149 171 0
160 181 0
156 177 0
156 175 0
154 173 0
153 174 0
158 178 0
158 178 0
160 180 0
154 176 0
157 177 0
155 174 0
153 174 0
157 177 0
158 180 0
154 173 0
159 177 0
161 183 0
160 182 0
160 179 0
166 188 0
160 181 0
156 176 0
155 176 0
162 183 0
159 180 0
166 185 0
163 182 0
162 183 0
161 181 0
159 179 0
163 184 0
159 179 0
165 187 0
165 187 0
164 185 0
160 180 0
161 181 0
164 186 0
162 183 0
171 191 0
165 186 0
162 182 0
163 186 0
164 187 0
165 187 0
170 193 0
165 188 0
162 184 0
168 191 0
167 189 0
164 184 0
167 189 0
166 188 0
166 189 0
168 191 0
167 188 0
169 190 0
168 189 0
164 185 0
165 188 0
170 191 0
167 188 0
167 189 0
170 193 0
165 187 0
170 193 0
167 189 0
168 191 0
166 188 0
167 189 0
170 192 0
169 191 0
167 189 0
172 195 0
171 194 0
170 193 0
169 190 0
166 190 0
170 193 0
168 191 0
171 194 0
172 194 0
171 193 0
172 194 0
173 194 0
171 195 0
171 194 0
168 190 0
171 193 0
172 195 0
171 194 0
170 194 0
174 197 0
169 192 0
172 194 0
171 193 0
171 194 0
169 191 0
172 195 0
172 194 0
173 197 0
173 197 0
172 195 0
173 195 0
173 196 0
172 194 0
169 193 0
173 196 0
169 191 0
169 193 0
173 195 0
173 196 0
171 194 0
173 195 0
173 195 0
169 192 0
172 195 0
171 194 0
174 197 0
173 196 0
171 194 0
173 197 0
174 196 0
172 195 0
172 195 0
172 194 0
171 195 0
174 197 0
173 196 0
171 194 0
171 194 0
172 196 0
172 195 0
173 196 0
171 195 0
173 196 0
172 195 0
171 195 0
173 197 0
173 196 0
172 195 0
171 195 0
173 196 0
174 197 0
173 196 0
173 197 0
174 197 0
174 197 0
174 196 0
173 196 0
173 196 0
172 195 0
175 198 0
175 197 0
173 197 0
175 198 0
174 197 0
170 194 0
173 196 0
174 197 0
174 197 0
173 196 0
172 195 0
172 196 0
174 198 0
175 198 0
173 196 0
171 194 0
172 197 0
172 196 0
174 198 0
174 197 0
174 198 0
172 195 0
173 196 0
174 197 0
170 194 0
172 195 0
174 197 0
175 198 0
174 197 0
172 196 0
173 196 0
174 198 0
173 197 0
175 198 0
172 196 0
172 196 0
171 195 0
172 196 0
173 196 0
174 197 0
173 197 0
171 195 0
173 197 0
169 193 0
171 194 0
174 197 0
173 196 0
170 194 0
173 196 0
172 195 0
171 194 0
172 196 0
172 195 0
173 197 0
170 193 0
167 192 0
172 194 0
171 195 0
172 195 0
174 197 0
172 195 0
168 192 0
171 194 0
173 196 0
170 194 0
170 195 0
174 197 25
170 195 0
172 195 25
172 195 25
171 194 25
175 199 44
175 198 36
173 197 51
175 198 44
176 199 57
175 198 62
174 197 72
173 197 44
174 196 67
178 200 76
176 198 67
176 199 67
175 198 80
174 196 62
171 194 76
174 197 72
175 197 92
168 191 67
168 191 84
172 195 62
172 196 57
172 194 76
172 195 67
174 197 94
172 195 94
172 195 76
169 192 57
175 198 92
170 193 102
170 194 62
179 201 128
176 199 95
173 196 84
172 195 92
171 193 95
173 196 92
172 195 92
172 194 95
172 195 92
173 197 102
173 197 84
166 190 102
170 194 108
168 192 105
171 193 102
170 194 105
169 192 92
169 193 102
170 193 102
168 191 84
163 187 88
165 189 95
167 191 99
164 188 99
163 186 102
161 184 92
163 186 108
156 179 88
166 189 117
169 193 102
164 188 92
164 186 84
161 183 95
160 183 95
158 182 92
155 177 80
169 191 99
163 185 102
158 180 99
165 188 102
159 181 88
161 182 102
163 183 114
154 175 95
157 178 99
156 176 102
153 174 80
157 178 84
154 174 114
150 170 84
154 175 92
154 173 111
150 170 108
154 174 111
148 167 102
155 175 80
144 163 76
145 164 72
140 160 57
127 146 44
139 159 44
127 146 36
142 162 25
132 151 36
138 159 25
145 165 36
145 166 25
145 166 0
139 158 0
145 165 0
141 161 0
135 155 0
137 157 0
120 140 0
128 148 0
128 148 0
133 152 0
122 142 0
111 130 0
122 142 0
129 148 0
128 148 0
123 141 0
105 124 0
128 148 0
122 141 0
125 142 0
125 144 0
125 145 0
114 133 0
130 149 0
115 133 0
123 142 0
128 146 0
123 142 0
130 150 0
127 147 0
124 143 0
127 146 0
116 135 0
134 154 0
131 151 0
125 144 0
138 156 0
124 143 0
128 148 0
119 139 0
124 144 0
136 155 0
135 155 0
131 150 0
139 160 0
129 149 0
135 156 0
128 148 0
133 152 0
133 153 0
132 153 0
141 161 0
143 163 0
143 164 0
139 158 0
140 161 0
144 165 0
141 160 0
140 161 0
148 168 0
140 161 0
149 171 0
153 174 0
136 157 0
145 166 0
145 166 0
147 169 0
143 163 0
146 166 0
150 171 0
144 165 0
149 171 0
154 175 0
147 168 0
148 168 0
156 176 0
152 172 0
154 175 0
156 177 0
156 176 0
155 176 0
158 178 0
159 181 0
158 177 0
160 181 0
163 184 0
158 177 0
162 184 0
150 171 0
159 181 0
156 176 0
164 185 0
158 178 0
161 183 0
164 186 0
167 189 0
161 182 0
165 187 0
158 179 0
162 185 0
158 178 0
161 183 0
165 185 0
160 182 0
164 186 0
164 186 0
165 186 0
168 190 0
160 180 0
166 186 0
160 181 0
163 184 0
166 188 0
169 191 0
162 183 0
160 181 0
163 182 0
164 186 0
167 189 0
167 188 0
159 182 0
168 190 0
163 184 0
165 187 0
167 188 0
167 189 0
161 181 0
170 192 0
164 186 0
162 183 0
168 189 0
165 186 0
165 186 0
169 192 0
165 186 0
169 192 0
168 189 0
167 190 0
167 190 0
167 191 0
166 188 0
164 187 0
173 195 0
170 193 0
169 190 0
170 191 0
169 192 0
165 186 0
167 190 0
169 192 0
168 190 0
170 192 0
169 192 0
171 192 0
174 196 0
167 188 0
170 193 0
169 192 0
170 193 0
172 195 0
171 192 0
171 194 0
164 186 0
170 191 0
168 191 0
170 192 0
169 191 0
171 195 0
170 192 0
170 193 0
168 190 0
170 193 0
168 191 0
173 195 0
168 191 0
172 195 0
173 196 0
170 193 0
172 193 0
171 194 0
171 194 0
174 196 0
172 195 0
172 196 0
172 194 0
171 195 0
172 195 0
172 194 0
173 196 0
173 195 0
174 196 0
172 195 0
170 194 0
171 195 0
175 198 0
172 195 0
170 193 0
174 196 0
175 196 0
174 196 0
173 197 0
168 191 0
173 197 0
174 198 0
173 196 0
173 196 0
172 195 0
173 195 0
174 197 0
175 197 0
171 194 0
174 196 0
175 198 0
174 197 0
173 196 0
173 196 0
172 196 0
171 194 0
172 196 0
172 195 0
170 194 0
171 195 0
171 194 0
173 195 0
175 198 0
173 196 0
174 197 0
172 195 0
172 196 0
173 197 0
174 198 0
173 197 0
174 197 0
173 197 0
174 197 0
173 197 0
172 196 0
174 197 0
172 196 0
174 198 0
170 194 0
173 197 0
175 197 0
173 197 0
173 197 0
174 197 0
174 198 0
175 198 0
170 194 0
171 195 0
173 196 0
173 197 0
175 198 0
176 199 0
172 195 0
172 196 0
169 194 0
171 195 0
173 197 0
173 197 0
174 197 0
174 197 0
172 196 0
172 196 0
172 196 0
174 197 0
173 197 0
172 196 0
171 195 0
171 194 0
171 195 0
173 197 0
170 194 0
173 197 0
171 194 0
173 196 0
168 191 0
171 195 0
173 197 0
173 197 0
171 195 0
171 193 0
173 197 0
173 196 0
172 195 0
170 194 0
168 193 0
172 195 0
168 192 0
170 194 0
171 195 0
170 194 0
173 196 0
172 196 0
170 194 0
170 193 0
169 194 0
170 194 0
173 196 0
173 196 0
173 196 25
173 197 25
173 196 0
174 198 25
174 198 44
174 197 25
176 198 72
170 194 51
175 198 36
177 200 62
175 198 62
175 199 57
178 200 72
177 200 80
174 197 67
174 197 80
174 197 80
176 198 84
172 195 67
175 197 67
170 192 80
171 193 76
170 193 84
168 192 76
170 192 67
165 189 51
170 191 84
170 193 57
170 194 80
170 193 86
176 198 99
173 195 99
173 196 95
173 197 95
166 189 88
172 195 108
175 197 99
175 197 84
173 196 95
171 194 84
169 192 99
175 198 114
170 192 92
168 192 88
165 188 76
163 186 51
169 193 92
170 194 92
166 189 111
167 191 92
168 192 117
171 194 102
169 191 76
165 187 84
163 186 76
168 192 80
169 192 114
162 185 105
164 188 92
169 192 92
163 186 102
161 184 88
159 181 88
155 177 99
162 185 76
162 185 76
159 181 92
154 177 84
165 187 122
162 183 102
152 174 84
157 179 99
159 181 102
158 180 95
162 183 102
158 179 111
162 183 102
163 184 111
160 181 95
155 176 92
154 174 92
154 174 105
155 175 99
138 158 92
148 168 99
159 179 105
150 170 111
157 177 99
147 168 84
153 172 99
156 175 80
140 159 67
139 160 44
133 153 36
132 152 25
140 160 25
137 156 44
145 167 36
134 155 0
141 163 0
143 165 0
151 172 0
139 160 0
143 164 0
145 165 0
136 156 0
134 155 0
126 145 0
136 157 0
126 145 0
120 139 0
133 153 0
122 140 0
117 136 0
130 149 0
131 151 0
122 140 0
112 131 0
123 142 0
124 144 0
128 146 0
122 141 0
124 144 0
124 143 0
132 151 0
108 127 0
126 145 0
116 135 0
120 141 0
117 135 0
133 152 0
124 145 0
128 148 0
134 153 0
124 144 0
133 154 0
135 154 0
123 142 0
138 158 0
128 148 0
130 151 0
133 153 0
126 147 0
141 161 0
137 156 0
130 151 0
137 157 0
137 158 0
134 155 0
145 164 0
143 162 0
141 163 0
134 154 0
138 159 0
132 151 0
148 167 0
144 165 0
144 165 0
143 164 0
143 165 0
145 166 0
138 159 0
154 175 0
141 163 0
150 171 0
151 171 0
152 171 0
149 170 0
144 165 0
144 165 0
146 167 0
146 168 0
147 169 0
155 177 0
154 177 0
151 173 0
157 179 0
155 176 0
154 174 0
151 171 0
153 174 0
155 176 0
159 180 0
153 174 0
157 179 0
161 183 0
164 185 0
153 174 0
157 177 0
159 181 0
160 180 0
152 172 0
162 183 0
159 181 0
159 180 0
158 178 0
165 187 0
165 185 0
160 181 0
160 180 0
163 183 0
160 181 0
163 184 0
163 184 0
161 183 0
163 184 0
164 184 0
157 178 0
158 181 0
163 186 0
164 186 0
161 183 0
164 185 0
168 190 0
162 184 0
165 186 0
165 188 0
162 184 0
161 184 0
164 184 0
168 191 0
164 185 0
164 186 0
167 188 0
163 185 0
166 188 0
165 187 0
165 187 0
169 192 0
166 187 0
165 187 0
168 191 0
170 193 0
165 187 0
168 190 0
165 187 0
166 189 0
167 190 0
168 189 0
167 189 0
171 192 0
169 191 0
165 186 0
170 192 0
167 189 0
165 188 0
170 192 0
172 194 0
171 192 0
167 189 0
168 190 0
171 192 0
167 189 0
172 194 0
168 191 0
170 193 0
169 191 0
169 191 0
168 191 0
169 192 0
170 192 0
171 194 0
172 196 0
170 193 0
171 193 0
169 192 0
173 196 0
167 189 0
169 191 0
170 193 0
171 194 0
170 193 0
172 195 0
171 194 0
172 195 0
173 195 0
171 193 0
171 194 0
172 195 0
173 196 0
169 193 0
170 194 0
174 196 0
171 193 0
171 194 0
171 194 0
172 195 0
174 197 0
171 193 0
172 196 0
172 195 0
174 196 0
171 193 0
173 195 0
172 195 0
173 196 0
175 197 0
172 196 0
171 195 0
172 195 0
173 195 0
174 196 0
173 195 0
170 193 0
172 196 0
173 196 0
174 197 0
173 196 0
172 196 0
173 196 0
173 196 0
172 195 0
170 194 0
170 193 0
171 194 0
174 196 0
172 196 0
172 195 0
170 194 0
172 196 0
174 196 0
173 196 0
174 198 0
171 194 0
172 196 0
170 194 0
176 199 0
172 196 0
173 197 0
174 197 0
175 198 0
174 196 0
174 197 0
175 198 0
174 198 0
172 196 0
172 196 0
172 196 0
173 197 0
173 197 0
174 197 0
173 197 0
171 195 0
175 198 0
174 197 0
174 197 0
172 196 0
176 198 0
173 197 0
172 195 0
174 197 0
172 196 0
172 196 0
171 195 0
172 196 0
174 197 0
173 197 0
169 193 0
173 197 0
174 197 0
172 196 0
174 198 0
170 194 0
173 196 0
174 197 0
170 194 0
172 196 0
173 196 0
171 196 0
172 196 0
171 194 0
171 194 0
173 196 0
174 197 0
172 197 0
171 195 0
173 197 0
174 197 0
175 198 0
172 196 0
173 197 0
170 194 0
170 194 0
172 196 0
174 198 0
174 197 0
171 195 0
170 194 0
172 195 0
172 196 0
171 194 0
172 195 0
169 193 0
168 193 0
172 196 0
168 191 0
169 192 0
172 195 0
172 195 0
174 197 25
172 195 25
174 197 25
174 197 25
171 195 36
175 198 44
173 196 44
176 198 36
174 197 44
175 198 72
177 199 51
174 197 62
173 196 36
176 198 95
173 196 57
173 196 25
176 198 62
173 196 72
167 190 88
173 196 60
172 195 74
169 192 51
173 196 82
168 190 76
172 195 65
168 190 84
167 190 44
169 192 100
175 198 72
173 195 99
171 195 92
176 198 102
179 202 114
178 201 84
176 198 95
171 193 80
175 198 108
174 197 92
171 195 102
169 192 102
174 196 105
169 192 102
169 193 88
173 196 95
172 195 95
169 193 67
167 190 95
172 195 88
171 195 92
164 187 95
173 196 99
164 186 72
168 192 102
162 185 80
164 188 88
167 189 92
161 185 84
169 192 99
167 191 111
165 189 92
168 191 102
163 186 99
169 191 99
162 185 95
164 187 99
166 188 105
163 186 84
157 179 92
158 180 108
173 195 92
163 186 99
161 182 88
162 184 99
162 183 105
154 176 76
155 177 84
158 180 105
154 175 92
150 173 99
162 182 99
157 178 102
156 176 108
163 183 120
155 176 76
158 179 111
161 181 114
158 177 95
145 164 88
141 160 72
156 175 108
151 170 67
142 161 80
146 166 51
144 164 44
151 171 80
136 157 36
132 153 51
150 171 51
144 165 36
144 166 0
141 162 0
152 174 25
148 169 0
148 169 0
136 158 0
140 160 0
139 160 0
136 157 0
129 149 0
129 150 0
129 149 0
126 146 0
134 155 0
122 143 0
128 148 0
130 149 0
134 154 0
128 147 0
127 147 0
123 142 0
123 141 0
126 145 0
121 141 0
121 140 0
124 143 0
129 150 0
126 146 0
123 143 0
119 139 0
127 146 0
144 163 0
137 156 0
127 147 0
137 159 0
130 151 0
140 160 0
128 148 0
130 150 0
126 147 0
137 159 0
138 159 0
138 159 0
137 157 0
134 155 0
133 154 0
140 161 0
141 161 0
134 155 0
131 152 0
142 163 0
150 171 0
135 156 0
153 174 0
138 158 0
144 164 0
135 155 0
141 162 0
139 159 0
139 161 0
140 160 0
145 166 0
148 170 0
147 169 0
148 170 0
153 173 0
145 166 0
151 173 0
143 164 0
147 167 0
147 170 0
142 164 0
152 173 0
145 166 0
148 169 0
160 181 0
153 176 0
149 172 0
148 170 0
157 179 0
153 175 0
152 173 0
156 176 0
155 176 0
162 183 0
160 183 0
150 171 0
156 179 0
156 177 0
161 184 0
155 177 0
156 177 0
161 183 0
158 181 0
161 182 0
163 185 0
157 177 0
160 181 0
163 184 0
166 186 0
163 185 0
157 178 0
165 187 0
162 184 0
165 186 0
162 183 0
161 184 0
161 181 0
165 186 0
162 184 0
162 183 0
158 178 0
167 191 0
162 184 0
164 186 0
161 181 0
166 187 0
167 188 0
164 187 0
162 183 0
169 192 0
165 186 0
162 185 0
165 186 0
169 193 0
162 185 0
168 191 0
166 186 0
167 189 0
164 185 0
167 188 0
168 189 0
167 189 0
166 188 0
169 191 0
167 190 0
167 191 0
170 192 0
168 191 0
168 190 0
166 188 0
167 188 0
169 189 0
170 192 0
167 189 0
164 186 0
171 192 0
165 186 0
169 190 0
172 194 0
170 192 0
170 193 0
170 191 0
168 191 0
169 193 0
169 192 0
168 190 0
170 191 0
172 194 0
167 190 0
169 190 0
166 189 0
170 192 0
168 190 0
173 196 0
170 193 0
173 195 0
170 193 0
170 192 0
170 193 0
170 193 0
172 195 0
169 193 0
172 194 0
172 195 0
170 193 0
170 193 0
171 193 0
171 193 0
173 195 0
172 195 0
170 193 0
173 196 0
172 194 0
169 191 0
170 193 0
170 192 0
172 195 0
172 194 0
168 192 0
170 193 0
173 196 0
171 194 0
172 195 0
171 194 0
171 194 0
174 197 0
172 194 0
172 195 0
173 194 0
172 195 0
172 195 0
172 194 0
172 195 0
173 196 0
172 195 0
172 196 0
171 194 0
169 193 0
172 196 0
172 195 0
172 196 0
173 196 0
172 195 0
172 195 0
173 196 0
173 196 0
172 196 0
171 194 0
174 196 0
174 197 0
172 195 0
171 195 0
175 198 0
174 198 0
174 197 0
171 195 0
172 197 0
173 196 0
175 197 0
172 195 0
172 195 0
172 196 0
174 197 0
176 198 0
171 195 0
173 197 0
174 197 0
173 197 0
172 196 0
171 194 0
173 196 0
170 194 0
170 194 0
172 195 0
175 198 0
169 193 0
176 199 0
172 195 0
172 195 0
171 196 0
169 194 0
173 197 0
173 197 0
172 196 0
174 197 0
174 197 0
171 195 0
176 198 0
173 196 0
170 194 0
173 196 0
173 196 0
174 198 0
170 193 0
173 196 0
171 195 0
173 196 0
174 197 0
175 198 0
173 196 0
171 195 0
173 196 0
174 198 0
173 196 0
172 196 0
173 196 0
167 190 0
170 195 0
174 197 0
168 192 0
173 197 0
174 198 0
169 194 0
169 193 0
170 194 0
173 197 0
169 192 0
170 195 0
169 193 0
172 196 0
170 194 0
169 192 0
169 193 0
171 195 0
173 196 0
167 191 0
173 196 0
170 194 0
174 198 0
171 194 0
174 198 0
172 196 0
174 197 36
170 194 25
175 199 36
173 197 0
172 196 36
174 198 36
173 197 0
175 199 62
178 201 72
178 200 72
178 199 72
174 197 57
171 194 62
173 196 67
170 192 57
173 195 62
170 193 67
171 193 67
168 192 62
170 194 60
171 194 72
174 197 92
169 191 84
170 193 57
175 199 72
172 194 82
174 197 90
172 195 82
177 199 111
178 201 92
170 191 100
172 196 88
174 197 99
169 192 88
172 195 88
166 189 95
172 195 92
169 192 84
169 191 76
173 195 72
169 192 88
169 192 62
168 191 80
172 195 114
171 195 114
171 194 88
170 193 84
173 196 95
164 188 84
168 191 102
169 192 108
161 184 67
164 187 92
172 195 88
160 183 92
168 191 105
165 188 80
165 189 105
166 189 95
162 185 80
163 185 80
164 186 105
170 193 102
159 182 95
159 182 92
160 183 92
165 187 99
164 187 108
159 182 80
166 188 105
154 175 84
160 182 88
152 173 99
166 188 95
158 180 88
166 187 105
165 186 105
153 174 80
151 172 84
167 188 122
159 180 99
152 172 80
166 185 117
149 169 84
152 172 84
151 171 80
152 172 76
147 166 92
145 165 72
153 173 76
142 162 36
148 167 62
151 172 25
140 161 25
142 161 25
153 173 36
147 168 0
147 168 0
148 169 25
147 169 0
160 182 0
142 164 0
143 163 0
140 162 0
142 163 0
134 153 0
135 155 0
126 147 0
128 148 0
131 152 0
128 149 0
129 148 0
134 155 0
130 150 0
123 142 0
141 162 0
130 149 0
114 133 0
130 150 0
129 149 0
129 149 0
122 142 0
121 141 0
128 149 0
125 145 0
123 142 0
127 147 0
119 139 0
126 147 0
140 160 0
126 145 0
132 153 0
120 140 0
132 153 0
132 152 0
134 154 0
131 151 0
134 155 0
128 147 0
141 162 0
134 155 0
136 157 0
140 161 0
137 159 0
140 161 0
136 156 0
136 156 0
138 160 0
137 157 0
141 162 0
139 159 0
143 165 0
150 171 0
146 168 0
147 169 0
139 161 0
140 162 0
150 172 0
151 172 0
148 169 0
141 162 0
149 172 0
153 174 0
144 165 0
154 176 0
151 172 0
155 176 0
152 173 0
154 176 0
144 166 0
147 168 0
148 168 0
152 173 0
153 173 0
149 171 0
155 177 0
153 175 0
157 179 0
151 172 0
160 181 0
156 177 0
156 177 0
161 183 0
160 181 0
160 181 0
159 181 0
163 184 0
151 172 0
159 180 0
162 184 0
157 179 0
165 188 0
161 183 0
165 187 0
156 179 0
159 180 0
162 183 0
159 179 0
162 184 0
159 180 0
156 177 0
167 189 0
161 180 0
164 186 0
164 187 0
165 187 0
168 190 0
166 186 0
162 185 0
164 186 0
159 180 0
156 178 0
167 189 0
163 185 0
163 186 0
163 184 0
164 184 0
164 184 0
164 186 0
163 185 0
162 182 0
167 189 0
165 187 0
166 187 0
167 188 0
164 186 0
163 185 0
168 189 0
165 187 0
169 193 0
167 188 0
168 189 0
166 188 0
168 191 0
166 188 0
163 186 0
166 189 0
164 187 0
166 188 0
170 193 0
170 193 0
168 191 0
171 193 0
170 192 0
166 188 0
168 191 0
172 194 0
168 189 0
169 192 0
166 187 0
169 191 0
172 194 0
167 188 0
172 194 0
169 193 0
172 196 0
171 193 0
169 192 0
168 190 0
170 192 0
170 193 0
167 191 0
171 194 0
173 195 0
171 194 0
165 187 0
171 194 0
166 189 0
172 195 0
173 196 0
172 196 0
172 195 0
172 195 0
168 191 0
173 195 0
172 194 0
173 195 0
170 193 0
169 192 0
173 197 0
172 196 0
171 193 0
173 197 0
167 189 0
172 195 0
175 198 0
172 195 0
174 197 0
171 194 0
169 192 0
171 194 0
172 195 0
169 192 0
172 195 0
171 193 0
173 196 0
171 196 0
170 194 0
173 196 0
171 195 0
173 197 0
173 197 0
171 193 0
173 196 0
176 199 0
171 195 0
173 196 0
169 193 0
172 195 0
171 193 0
176 199 0
174 197 0
172 196 0
173 197 0
172 196 0
173 197 0
173 196 0
173 196 0
173 196 0
174 198 0
173 197 0
170 194 0
172 195 0
172 196 0
171 194 0
172 196 0
173 197 0
174 198 0
174 197 0
175 198 0
173 196 0
172 196 0
173 197 0
173 197 0
173 196 0
175 198 0
173 197 0
174 197 0
175 198 0
173 196 0
170 194 0
174 198 0
172 196 0
173 196 0
172 196 0
172 196 0
174 197 0
174 197 0
174 198 0
173 197 0
171 195 0
174 197 0
173 197 0
172 196 0
171 196 0
173 196 0
172 195 0
173 197 0
174 197 0
173 197 0
173 197 0
171 195 0
173 196 0
175 198 0
171 195 0
171 194 0
172 196 0
174 196 0
172 195 0
174 197 0
172 196 0
172 196 0
171 195 0
171 195 0
172 195 0
172 195 0
171 194 0
172 196 0
172 196 0
172 195 0
173 196 0
171 195 0
169 193 0
169 193 0
172 195 0
169 192 0
171 195 0
172 196 0
172 195 0
171 195 0
173 197 0
171 194 0
172 195 0
170 194 0
171 194 0
171 195 0
172 196 0
171 195 0
171 194 0
174 197 0
175 198 0
173 197 0
172 196 0
176 199 51
174 197 25
174 198 51
175 198 25
175 198 36
172 196 25
172 195 44
173 197 57
173 195 44
175 198 57
175 198 72
179 201 92
175 197 78
170 192 72
176 198 76
171 194 67
168 189 76
171 194 76
163 186 78
167 190 54
168 191 67
170 193 84
176 198 108
174 198 99
170 193 74
176 198 110
175 197 110
177 200 88
170 192 99
170 193 80
175 198 95
181 203 120
177 199 105
174 197 130
171 194 99
175 198 111
172 195 92
170 193 88
169 192 114
175 197 108
171 194 108
166 188 99
169 192 102
164 186 84
173 196 105
170 194 92
171 194 99
166 189 88
169 193 99
166 188 95
168 192 102
165 190 105
165 189 92
168 192 99
166 189 105
166 188 92
170 193 122
166 189 95
167 189 84
164 186 102
161 183 117
164 187 95
159 182 95
165 186 108
166 188 102
158 179 84
158 180 88
164 185 102
158 180 99
159 181 88
162 183 99
165 186 102
158 179 92
155 175 92
162 183 99
163 185 92
164 185 105
161 182 105
150 170 80
162 182 88
162 183 95
152 173 84
147 167 84
156 176 92
141 160 62
148 168 72
155 175 67
151 172 72
147 168 62
145 166 25
149 171 25
142 163 0
147 168 36
147 169 25
151 172 0
149 170 0
146 167 25
143 164 25
147 169 0
136 158 0
144 164 0
139 160 0
141 162 0
137 158 0
137 158 0
134 155 0
134 155 0
133 153 0
132 151 0
130 150 0
140 160 0
132 152 0
133 153 0
127 147 0
130 150 0
135 155 0
128 149 0
135 155 0
138 158 0
119 138 0
132 151 0
136 157 0
119 140 0
135 155 0
127 147 0
132 152 0
129 149 0
142 164 0
125 146 0
118 138 0
139 161 0
138 158 0
142 164 0
142 163 0
139 159 0
133 153 0
144 164 0
138 158 0
148 169 0
147 167 0
134 155 0
140 162 0
144 165 0
140 161 0
147 168 0
144 165 0
138 158 0
147 168 0
148 170 0
153 175 0
141 162 0
143 164 0
150 171 0
142 164 0
150 172 0
153 175 0
148 168 0
147 169 0
142 163 0
143 164 0
151 172 0
158 180 0
154 175 0
154 175 0
158 180 0
159 181 0
155 177 0
152 173 0
154 175 0
152 175 0
151 172 0
158 180 0
154 176 0
157 178 0
159 181 0
148 171 0
155 176 0
157 179 0
163 186 0
161 184 0
161 182 0
158 181 0
162 182 0
160 182 0
157 178 0
163 185 0
166 187 0
156 178 0
163 185 0
158 180 0
161 183 0
157 178 0
163 185 0
160 180 0
164 186 0
160 182 0
161 183 0
160 182 0
160 181 0
162 182 0
165 188 0
161 184 0
165 188 0
163 184 0
165 185 0
165 187 0
162 184 0
165 187 0
158 181 0
161 184 0
167 188 0
166 188 0
164 186 0
167 190 0
164 187 0
164 185 0
163 185 0
165 188 0
169 192 0
168 190 0
164 187 0
169 191 0
163 185 0
170 192 0
165 187 0
167 190 0
169 192 0
170 193 0
165 186 0
169 191 0
167 190 0
168 191 0
164 186 0
170 192 0
171 193 0
166 189 0
166 187 0
167 189 0
170 192 0
169 192 0
166 188 0
168 191 0
170 192 0
168 190 0
172 195 0
170 192 0
167 190 0
169 192 0
169 192 0
168 190 0
169 191 0
171 194 0
171 195 0
170 192 0
170 192 0
170 193 0
169 191 0
171 193 0
169 192 0
171 193 0
171 193 0
167 190 0
173 195 0
172 195 0
170 193 0
170 193 0
172 194 0
168 191 0
170 193 0
171 194 0
172 195 0
170 194 0
172 194 0
170 193 0
171 195 0
171 193 0
173 196 0
172 195 0
171 194 0
171 195 0
172 194 0
170 194 0
167 191 0
173 196 0
171 195 0
172 195 0
172 194 0
175 197 0
171 194 0
173 196 0
171 195 0
174 197 0
173 196 0
173 195 0
173 197 0
174 197 0
173 195 0
174 197 0
173 195 0
172 194 0
173 196 0
172 196 0
172 194 0
173 197 0
174 197 0
172 196 0
172 195 0
172 196 0
174 197 0
173 196 0
172 194 0
172 196 0
174 197 0
174 197 0
172 195 0
173 197 0
173 197 0
172 195 0
172 195 0
172 196 0
173 196 0
173 195 0
174 196 0
170 193 0
173 197 0
175 198 0
173 195 0
174 197 0
173 197 0
170 194 0
172 196 0
173 197 0
174 197 0
174 198 0
173 196 0
172 196 0
171 194 0
172 195 0
174 197 0
173 197 0
173 197 0
174 198 0
175 198 0
175 198 0
172 195 0
174 198 0
173 197 0
173 196 0
171 195 0
175 198 0
172 196 0
174 196 0
173 196 0
173 196 0
171 195 0
173 196 0
174 196 0
172 196 0
173 197 0
174 197 0
173 197 0
170 194 0
174 197 0
174 197 0
174 197 0
172 196 0
172 196 0
173 196 0
170 194 0
172 195 0
173 197 0
172 196 0
173 197 0
170 194 0
171 194 0
168 192 0
173 197 0
173 196 0
172 196 0
172 195 0
173 197 0
168 192 0
170 194 0
172 195 0
175 198 0
171 195 0
170 195 0
169 193 0
171 195 0
171 195 0
172 195 0
171 194 0
171 195 0
171 195 0
176 198 0
174 197 0
172 196 0
172 196 0
171 195 0
168 192 25
174 198 0
173 197 36
174 197 36
175 198 36
176 198 72
176 199 51
176 199 57
176 199 51
176 199 72
178 200 78
174 197 67
169 193 57
172 194 62
171 194 88
175 198 95
173 195 94
166 190 67
175 197 82
171 193 80
169 193 57
174 196 88
173 195 80
170 192 76
174 196 110
171 193 92
178 201 110
175 197 102
167 190 100
174 196 62
178 201 114
177 199 120
170 193 95
173 196 84
175 198 99
170 193 95
172 195 72
174 198 99
173 195 102
170 193 76
168 190 99
167 191 92
171 194 88
170 194 80
172 195 84
163 186 111
165 189 105
169 192 95
161 185 88
172 193 92
167 191 99
166 189 114
163 185 72
165 187 88
167 190 99
166 189 92
161 184 80
161 184 80
165 187 102
169 193 92
163 186 105
171 194 130
160 183 80
163 185 105
166 189 102
163 186 80
161 182 76
165 188 108
161 183 92
159 180 95
156 178 92
158 179 88
158 179 92
174 196 125
161 182 92
162 183 88
149 170 84
157 178 92
160 181 76
164 184 84
155 175 92
159 179 95
152 172 102
156 176 92
156 177 84
157 177 80
154 175 62
146 167 57
149 170 57
145 165 62
139 160 51
148 169 57
153 174 51
152 173 25
141 163 0
151 173 0
156 177 25
151 172 25
143 165 25
145 168 0
157 178 0
139 161 0
134 154 0
143 163 0
135 156 0
135 155 0
131 151 0
135 155 0
150 170 0
140 162 0
139 159 0
137 158 0
136 156 0
131 151 0
136 156 0
133 153 0
134 156 0
124 143 0
138 159 0
150 171 0
145 166 0
134 153 0
132 153 0
129 150 0
129 148 0
126 147 0
138 159 0
140 162 0
134 155 0
143 164 0
129 150 0
118 137 0
143 164 0
146 166 0
134 154 0
135 157 0
142 163 0
143 163 0
140 160 0
146 168 0
145 166 0
143 164 0
145 167 0
144 164 0
137 158 0
147 168 0
141 161 0
140 161 0
143 163 0
144 165 0
142 162 0
145 167 0
139 162 0
146 166 0
134 156 0
144 165 0
144 165 0
149 170 0
153 173 0
140 161 0
157 179 0
143 163 0
152 174 0
158 180 0
150 171 0
147 168 0
155 177 0
156 178 0
151 172 0
154 176 0
144 166 0
152 174 0
149 170 0
159 180 0
153 175 0
164 184 0
156 177 0
153 176 0
158 180 0
160 182 0
157 178 0
149 171 0
159 180 0
159 182 0
158 179 0
160 182 0
160 181 0
158 180 0
163 184 0
163 185 0
161 183 0
160 183 0
161 183 0
164 185 0
163 185 0
162 185 0
162 184 0
160 181 0
164 186 0
164 186 0
163 186 0
158 180 0
165 188 0
159 178 0
164 186 0
166 186 0
169 191 0
163 185 0
159 180 0
165 188 0
164 185 0
168 190 0
168 189 0
162 184 0
167 190 0
167 189 0
164 185 0
166 187 0
167 190 0
165 187 0
166 187 0
167 190 0
170 192 0
165 187 0
166 189 0
162 184 0
167 189 0
168 190 0
169 192 0
165 187 0
169 192 0
169 191 0
169 192 0
167 189 0
167 189 0
168 190 0
169 192 0
170 192 0
171 194 0
165 187 0
167 189 0
171 193 0
173 195 0
168 191 0
170 192 0
169 191 0
170 193 0
167 189 0
164 188 0
167 188 0
164 187 0
165 187 0
169 192 0
169 192 0
168 191 0
167 190 0
171 193 0
170 192 0
169 191 0
168 189 0
173 196 0
173 196 0
172 195 0
168 190 0
171 193 0
172 195 0
171 193 0
170 192 0
170 193 0
168 192 0
168 192 0
171 194 0
171 194 0
167 190 0
170 194 0
170 193 0
174 197 0
172 194 0
168 190 0
171 194 0
170 193 0
172 195 0
172 194 0
171 194 0
172 195 0
171 194 0
171 194 0
173 197 0
170 195 0
171 194 0
173 195 0
174 197 0
171 195 0
172 195 0
171 193 0
172 194 0
173 196 0
169 193 0
172 195 0
171 194 0
168 193 0
171 194 0
173 196 0
171 194 0
172 195 0
175 198 0
172 195 0
173 196 0
172 195 0
171 193 0
171 195 0
171 195 0
173 196 0
173 195 0
173 197 0
172 196 0
172 194 0
171 195 0
173 195 0
175 198 0
173 197 0
172 193 0
171 194 0
173 196 0
170 193 0
173 197 0
171 194 0
174 198 0
171 195 0
173 196 0
175 198 0
174 197 0
173 197 0
174 197 0
172 196 0
174 198 0
174 197 0
175 198 0
173 196 0
174 198 0
175 198 0
169 194 0
173 196 0
172 196 0
174 197 0
174 197 0
173 197 0
171 195 0
173 196 0
174 197 0
171 194 0
172 195 0
174 197 0
173 197 0
174 198 0
172 197 0
171 194 0
173 197 0
171 195 0
172 196 0
171 196 0
174 197 0
173 196 0
172 195 0
172 196 0
172 195 0
174 198 0
174 197 0
172 196 0
171 195 0
173 196 0
173 196 0
171 195 0
171 195 0
169 193 0
170 194 0
172 196 0
170 195 0
171 195 0
172 195 0
173 197 0
170 195 0
171 195 0
173 197 0
173 197 0
174 197 0
170 193 0
172 195 0
171 195 0
171 194 0
170 194 0
171 194 0
172 195 0
168 192 0
170 193 0
173 197 0
171 195 0
170 194 0
172 196 0
175 198 25
176 198 51
174 198 0
175 198 36
173 196 36
178 200 67
175 198 36
174 198 57
173 196 36
172 196 44
175 198 36
178 200 80
173 195 67
173 195 51
173 196 54
175 197 88
173 195 92
172 195 70
171 193 76
168 191 78
175 196 84
176 198 95
173 196 82
171 194 86
175 198 94
175 197 94
174 197 78
172 195 94
169 193 57
173 196 86
166 190 80
172 195 82
177 199 135
173 195 111
171 194 88
174 197 84
173 196 105
176 199 99
176 199 84
170 193 80
170 193 102
171 194 108
171 193 108
168 191 92
166 189 80
167 190 84
172 196 111
166 190 95
163 186 105
165 187 99
165 188 80
168 191 108
166 188 92
168 190 99
170 192 105
163 186 80
161 184 76
171 193 105
165 188 99
159 181 84
166 189 95
159 181 80
162 184 92
165 187 99
161 184 84
172 194 105
161 184 92
165 187 105
155 176 76
166 187 95
158 180 88
162 183 99
162 184 117
164 186 114
155 176 92
158 179 80
163 184 114
157 178 88
161 180 117
159 180 84
158 180 76
155 175 92
166 187 88
153 174 84
158 179 67
157 177 80
142 163 57
163 183 95
151 173 62
158 180 51
151 173 25
149 170 36
143 165 0
152 174 25
149 171 25
150 172 0
150 172 0
146 168 0
149 171 0
154 176 0
153 175 25
150 171 0
146 168 0
148 169 0
153 175 0
144 165 0
143 163 0
137 157 0
138 158 0
133 155 0
141 162 0
135 155 0
136 156 0
131 152 0
132 152 0
135 156 0
142 162 0
139 159 0
132 152 0
137 157 0
130 151 0
144 165 0
139 160 0
131 153 0
138 159 0
139 161 0
130 151 0
131 152 0
135 156 0
135 155 0
136 156 0
143 164 0
135 156 0
138 159 0
133 154 0
136 156 0
136 157 0
141 162 0
142 162 0
143 164 0
133 153 0
139 160 0
141 160 0
139 160 0
144 165 0
148 169 0
149 170 0
138 160 0
143 163 0
137 157 0
146 167 0
145 167 0
146 167 0
153 176 0
152 174 0
143 164 0
148 170 0
155 176 0
150 172 0
151 174 0
147 168 0
154 175 0
153 175 0
154 174 0
151 172 0
156 179 0
158 180 0
154 176 0
154 176 0
159 180 0
157 178 0
151 172 0
163 184 0
155 176 0
159 181 0
154 175 0
161 182 0
153 174 0
155 177 0
157 178 0
151 171 0
158 180 0
159 181 0
161 182 0
164 186 0
161 182 0
163 186 0
164 186 0
160 182 0
162 183 0
161 182 0
158 181 0
159 180 0
166 188 0
165 187 0
161 183 0
161 184 0
160 181 0
169 191 0
161 183 0
160 183 0
160 182 0
163 184 0
158 180 0
162 184 0
166 188 0
168 190 0
166 188 0
164 185 0
167 187 0
168 190 0
162 184 0
165 187 0
163 186 0
165 187 0
167 189 0
166 187 0
160 181 0
167 190 0
165 187 0
162 185 0
165 187 0
162 184 0
167 189 0
169 191 0
167 190 0
171 195 0
167 189 0
169 190 0
168 189 0
169 191 0
167 190 0
169 192 0
168 191 0
161 183 0
166 188 0
165 186 0
167 190 0
167 189 0
170 192 0
170 191 0
169 191 0
167 190 0
171 193 0
169 191 0
171 192 0
170 192 0
168 190 0
168 191 0
170 191 0
168 190 0
171 193 0
172 194 0
172 196 0
169 192 0
169 192 0
172 195 0
170 192 0
170 192 0
168 191 0
171 193 0
171 194 0
172 195 0
172 195 0
170 193 0
169 192 0
169 191 0
172 195 0
172 196 0
169 192 0
170 192 0
168 189 0
172 196 0
171 194 0
173 196 0
171 194 0
172 196 0
171 194 0
173 195 0
174 197 0
175 197 0
172 194 0
171 194 0
172 195 0
172 195 0
171 194 0
171 193 0
174 196 0
169 192 0
171 194 0
172 195 0
174 195 0
173 197 0
171 194 0
175 198 0
170 194 0
171 193 0
172 196 0
173 196 0
173 196 0
171 195 0
172 195 0
174 197 0
171 195 0
173 196 0
171 194 0
170 194 0
170 194 0
172 196 0
172 196 0
173 196 0
172 196 0
173 197 0
172 195 0
172 196 0
172 194 0
173 196 0
172 195 0
171 194 0
173 196 0
170 194 0
173 195 0
171 195 0
174 197 0
173 196 0
173 195 0
170 194 0
173 196 0
174 197 0
170 194 0
172 196 0
173 197 0
172 196 0
173 197 0
174 197 0
173 196 0
174 197 0
174 197 0
172 196 0
174 197 0
173 196 0
174 197 0
172 196 0
174 197 0
173 197 0
170 194 0
174 197 0
171 194 0
169 192 0
176 198 0
175 198 0
174 197 0
172 196 0
174 197 0
171 194 0
173 196 0
173 196 0
172 195 0
172 196 0
174 198 0
172 196 0
172 196 0
171 195 0
175 198 0
174 196 0
173 197 0
173 197 0
172 195 0
174 197 0
173 197 0
173 196 0
171 194 0
173 196 0
172 195 0
171 195 0
173 196 0
172 196 0
169 193 0
172 195 0
174 198 0
170 194 0
168 192 0
173 195 0
166 190 0
169 193 0
173 197 0
174 198 0
171 195 0
172 195 0
172 196 0
173 196 0
172 195 0
170 194 0
171 195 0
172 195 0
174 197 0
172 196 0
170 193 0
174 197 0
169 193 0
172 195 0
172 195 0
176 199 44
174 196 25
174 198 25
173 197 25
173 197 36
171 194 57
173 197 44
175 199 44
173 196 62
176 198 62
169 192 62
171 194 54
169 192 60
170 192 76
169 192 60
171 194 67
168 191 65
171 194 70
171 193 95
168 192 60
176 198 92
168 191 91
167 189 80
174 196 74
172 194 94
169 192 74
180 201 102
171 194 99
172 194 107
173 195 103
172 194 95
170 193 99
173 195 84
174 197 105
173 196 99
171 194 95
173 196 95
167 190 99
169 192 92
171 194 76
171 194 88
171 193 95
171 194 99
172 194 99
166 190 92
165 187 76
177 200 111
170 192 102
170 193 102
166 189 99
164 187 88
167 190 99
161 183 88
168 191 102
164 188 99
165 187 84
162 185 99
166 188 92
170 192 99
163 186 95
170 192 92
163 186 95
174 196 108
160 182 88
163 185 84
162 184 88
160 182 92
166 187 80
155 177 80
162 184 99
147 168 80
159 180 88
160 181 80
164 185 120
164 185 88
153 174 67
162 182 108
168 189 111
156 176 99
160 179 84
161 182 88
154 174 88
157 178 72
146 168 62
157 177 67
155 177 67
150 171 51
150 172 67
154 176 51
147 168 25
156 177 36
146 167 44
150 171 0
149 171 25
155 177 0
156 179 0
150 172 0
157 180 0
148 170 0
152 173 0
149 171 0
144 167 0
150 171 0
138 159 0
133 153 0
148 168 0
139 161 0
141 162 0
141 161 0
139 159 0
134 156 0
136 156 0
120 140 0
130 152 0
138 161 0
135 156 0
141 162 0
133 153 0
137 157 0
138 158 0
142 163 0
141 163 0
128 149 0
151 171 0
137 157 0
140 161 0
136 157 0
134 156 0
129 148 0
132 154 0
143 164 0
141 162 0
145 166 0
144 165 0
144 166 0
138 160 0
139 160 0
144 166 0
137 158 0
143 165 0
136 158 0
144 165 0
153 175 0
148 170 0
150 172 0
141 161 0
139 160 0
150 171 0
151 173 0
145 166 0
140 162 0
149 172 0
142 164 0
153 176 0
161 182 0
151 174 0
151 174 0
152 173 0
152 173 0
149 171 0
151 173 0
152 173 0
157 179 0
157 179 0
147 168 0
149 171 0
155 176 0
158 180 0
157 178 0
155 177 0
154 176 0
151 172 0
157 179 0
151 173 0
152 174 0
151 172 0
154 174 0
157 179 0
161 183 0
158 179 0
155 176 0
161 180 0
152 175 0
158 179 0
158 180 0
155 177 0
160 182 0
161 183 0
166 188 0
157 178 0
159 182 0
157 179 0
165 187 0
154 175 0
159 181 0
163 185 0
166 190 0
166 188 0
162 183 0
168 189 0
162 183 0
159 179 0
165 187 0
169 191 0
162 185 0
163 186 0
161 182 0
167 189 0
160 181 0
170 192 0
161 183 0
169 191 0
166 187 0
166 189 0
168 191 0
161 183 0
167 188 0
162 185 0
167 188 0
165 188 0
167 189 0
168 191 0
167 189 0
166 187 0
168 191 0
167 189 0
166 188 0
169 192 0
165 188 0
169 192 0
166 187 0
163 185 0
168 191 0
168 190 0
169 191 0
164 186 0
169 191 0
165 187 0
168 189 0
167 189 0
166 190 0
169 191 0
168 190 0
168 190 0
170 192 0
168 191 0
168 191 0
167 189 0
169 191 0
166 190 0
169 192 0
172 195 0
169 193 0
168 190 0
168 190 0
168 190 0
171 194 0
171 194 0
170 193 0
172 195 0
167 190 0
171 194 0
170 194 0
170 193 0
173 195 0
168 190 0
171 194 0
169 192 0
171 194 0
173 195 0
170 193 0
173 195 0
173 196 0
172 194 0
171 195 0
173 196 0
170 194 0
173 195 0
173 196 0
171 194 0
170 193 0
169 192 0
169 192 0
170 193 0
172 196 0
168 192 0
172 195 0
173 195 0
173 195 0
170 192 0
171 195 0
171 194 0
171 195 0
172 194 0
170 194 0
172 196 0
173 196 0
173 196 0
172 195 0
174 197 0
170 193 0
169 193 0
172 194 0
172 196 0
173 196 0
174 197 0
174 197 0
172 195 0
172 196 0
174 197 0
172 195 0
172 196 0
173 196 0
173 197 0
174 198 0
173 196 0
171 196 0
172 196 0
175 198 0
173 197 0
171 195 0
171 194 0
173 196 0
170 193 0
172 196 0
174 197 0
174 197 0
173 196 0
172 196 0
174 197 0
172 195 0
174 198 0
173 197 0
171 195 0
172 196 0
172 196 0
174 197 0
174 198 0
171 195 0
172 196 0
173 197 0
173 197 0
175 198 0
173 197 0
171 194 0
173 197 0
171 194 0
173 197 0
172 196 0
173 196 0
173 196 0
174 198 0
172 195 0
174 197 0
174 197 0
176 198 0
174 197 0
171 194 0
174 197 0
173 197 0
174 197 0
170 194 0
174 197 0
170 194 0
171 194 0
173 197 0
173 196 0
173 197 0
173 196 0
172 196 0
174 197 0
172 195 0
168 192 0
173 196 0
173 196 0
170 194 0
171 195 0
171 195 0
173 196 0
169 193 0
172 195 0
173 196 0
170 194 0
172 195 0
173 196 0
171 195 0
172 195 0
171 195 0
169 193 0
169 193 0
173 196 0
171 195 0
171 194 0
173 197 0
169 192 0
171 193 0
172 195 0
172 195 25
170 194 0
174 197 0
174 197 25
172 196 36
174 197 25
173 197 25
173 196 0
176 199 51
171 194 0
173 196 36
179 201 76
173 196 51
173 196 44
176 199 72
171 194 70
166 190 40
172 195 70
167 191 78
168 191 67
173 196 51
166 188 80
169 190 86
166 189 67
170 192 67
172 194 88
170 193 76
166 189 82
169 191 88
172 195 88
174 196 86
176 198 92
170 193 84
171 194 80
169 192 80
169 193 86
171 194 88
171 193 99
177 200 114
171 194 88
164 188 76
170 194 92
173 195 88
175 198 117
168 191 88
172 195 92
171 195 105
168 191 118
168 191 88
168 191 114
171 193 88
167 190 99
166 189 92
165 187 88
168 190 95
167 190 111
166 189 88
168 190 92
162 184 84
164 186 92
167 189 117
160 183 88
167 189 92
164 184 92
161 183 84
162 184 80
163 185 88
153 174 72
159 181 102
161 181 88
162 183 99
166 187 108
159 180 102
164 185 92
153 175 88
161 182 99
160 182 92
168 189 120
160 180 99
160 181 95
161 181 88
163 183 108
158 179 99
162 182 95
162 182 76
149 169 67
160 179 84
159 180 67
157 178 76
156 177 57
150 172 25
157 179 62
153 174 25
151 173 36
154 175 36
159 181 36
158 180 25
153 175 0
152 175 25
157 179 0
150 172 0
147 169 0
145 167 0
147 170 0
148 169 0
153 174 0
140 159 0
140 161 0
143 164 0
146 167 0
137 158 0
143 165 0
139 160 0
139 160 0
135 157 0
139 159 0
144 165 0
129 149 0
134 154 0
141 162 0
139 159 0
137 157 0
144 164 0
141 162 0
138 159 0
141 163 0
135 156 0
137 158 0
141 161 0
139 159 0
143 164 0
136 158 0
144 164 0
143 164 0
145 165 0
140 161 0
138 160 0
136 156 0
137 159 0
143 163 0
143 164 0
147 168 0
140 163 0
147 169 0
147 168 0
139 160 0
144 168 0
143 165 0
147 169 0
142 163 0
154 175 0
147 168 0
145 166 0
149 171 0
146 169 0
154 175 0
150 172 0
150 172 0
148 169 0
155 176 0
153 175 0
154 176 0
152 174 0
150 171 0
154 177 0
149 170 0
159 180 0
150 172 0
161 183 0
157 179 0
152 174 0
150 172 0
163 185 0
152 173 0
148 170 0
164 186 0
158 180 0
156 176 0
161 183 0
157 181 0
162 184 0
156 179 0
152 173 0
161 182 0
154 176 0
156 178 0
159 181 0
162 184 0
159 180 0
162 184 0
159 179 0
160 181 0
157 179 0
164 185 0
159 180 0
162 185 0
166 187 0
158 179 0
161 182 0
162 184 0
160 181 0
163 184 0
164 187 0
160 181 0
164 187 0
162 184 0
157 179 0
163 185 0
164 186 0
163 184 0
162 185 0
161 183 0
162 183 0
166 187 0
165 186 0
165 186 0
170 191 0
164 186 0
164 187 0
167 189 0
167 189 0
170 193 0
167 188 0
168 191 0
163 187 0
167 189 0
165 188 0
170 191 0
166 190 0
168 191 0
169 192 0
168 191 0
167 189 0
168 190 0
170 193 0
171 195 0
170 194 0
168 191 0
170 193 0
172 194 0
167 190 0
167 188 0
167 189 0
167 189 0
170 192 0
171 192 0
169 192 0
172 195 0
172 196 0
169 192 0
169 191 0
171 193 0
170 192 0
167 189 0
170 194 0
171 194 0
167 188 0
172 194 0
168 191 0
169 191 0
169 192 0
168 191 0
172 196 0
171 195 0
169 192 0
170 193 0
172 195 0
173 196 0
170 192 0
172 195 0
172 194 0
172 195 0
171 193 0
170 193 0
171 194 0
167 190 0
172 194 0
172 195 0
171 194 0
169 193 0
172 195 0
173 196 0
171 195 0
172 195 0
171 195 0
170 193 0
173 195 0
172 195 0
171 194 0
171 194 0
174 197 0
172 195 0
172 195 0
170 193 0
173 196 0
171 193 0
170 193 0
172 195 0
171 194 0
172 195 0
171 194 0
172 195 0
170 193 0
171 194 0
170 192 0
171 195 0
172 196 0
172 195 0
171 194 0
175 198 0
173 197 0
168 192 0
171 194 0
171 195 0
174 198 0
173 195 0
173 197 0
173 195 0
172 195 0
173 197 0
171 195 0
173 196 0
173 196 0
172 196 0
173 196 0
175 198 0
173 197 0
172 195 0
174 197 0
173 197 0
174 197 0
173 196 0
174 198 0
175 198 0
174 198 0
173 196 0
175 198 0
174 197 0
174 197 0
173 196 0
173 196 0
173 197 0
172 195 0
172 197 0
173 196 0
172 196 0
173 197 0
170 195 0
173 197 0
174 197 0
176 199 0
175 198 0
174 197 0
173 196 0
172 196 0
173 196 0
175 198 0
174 198 0
173 197 0
172 196 0
173 197 0
174 197 0
171 195 0
168 192 0
172 196 0
173 196 0
172 196 0
172 196 0
172 196 0
172 195 0
172 195 0
170 193 0
171 194 0
173 197 0
169 193 0
170 193 0
169 193 0
173 196 0
169 193 0
173 197 0
173 196 0
171 195 0
173 197 0
174 197 0
174 197 0
170 194 0
170 193 0
172 196 0
171 194 0
170 193 0
170 194 0
168 192 0
172 196 0
173 196 0
172 195 0
170 194 0
173 195 0
170 194 0
171 195 0
173 195 0
172 196 0
173 197 0
173 196 36
175 198 0
172 196 25
174 197 0
174 197 36
171 195 0
176 199 51
173 196 44
174 198 51
174 197 57
171 194 51
172 194 78
174 197 67
172 194 67
171 193 90
170 193 72
171 193 72
168 192 72
169 191 78
163 186 86
170 192 97
169 192 60
165 188 82
171 193 88
173 195 88
171 194 95
170 193 78
165 186 92
173 195 97
172 195 103
172 194 102
173 195 80
175 198 92
171 194 107
178 200 102
172 195 95
173 196 117
172 195 92
174 197 102
169 192 88
175 198 128
171 193 84
167 190 76
171 193 99
172 195 114
168 191 108
168 192 99
171 195 99
170 193 117
170 193 95
167 189 102
169 192 92
168 191 95
170 192 80
165 188 102
168 190 105
165 188 80
159 181 95
164 186 84
166 188 92
167 189 84
160 181 80
165 187 102
161 183 92
162 184 76
162 185 105
163 185 80
164 186 108
155 176 92
154 177 84
169 190 95
157 178 92
168 188 117
157 178 108
164 185 108
166 186 105
166 187 99
163 183 111
151 172 92
157 178 80
166 186 88
156 176 72
166 187 92
151 172 72
155 176 99
158 178 57
151 174 36
151 173 57
154 175 51
155 177 44
155 177 25
152 174 44
152 174 0
151 173 25
152 174 0
156 178 0
154 174 0
159 182 25
149 171 0
152 174 0
150 172 0
157 178 0
153 174 0
157 178 0
151 172 0
147 168 0
144 165 0
143 164 0
147 168 0
135 155 0
144 166 0
139 160 0
137 158 0
138 158 0
142 164 0
141 162 0
144 165 0
146 166 0
135 156 0
136 157 0
141 163 0
133 154 0
147 168 0
132 153 0
145 166 0
140 161 0
142 164 0
149 172 0
143 165 0
147 169 0
147 169 0
144 165 0
142 163 0
141 163 0
137 158 0
147 169 0
138 160 0
140 162 0
145 166 0
140 161 0
138 159 0
142 162 0
149 170 0
151 173 0
143 164 0
149 171 0
154 175 0
150 172 0
152 173 0
147 167 0
142 163 0
155 176 0
147 170 0
155 177 0
156 178 0
146 167 0
152 174 0
150 171 0
147 168 0
160 183 0
149 171 0
163 185 0
153 176 0
159 182 0
152 175 0
157 179 0
159 180 0
155 178 0
155 179 0
156 180 0
152 174 0
157 179 0
154 176 0
150 172 0
155 177 0
161 183 0
165 188 0
159 181 0
158 180 0
162 184 0
157 179 0
157 179 0
157 180 0
164 186 0
164 187 0
158 180 0
161 184 0
155 177 0
162 185 0
167 189 0
159 180 0
166 189 0
166 189 0
159 180 0
167 190 0
163 186 0
162 183 0
162 185 0
166 189 0
161 184 0
163 185 0
164 186 0
165 185 0
157 178 0
169 192 0
167 188 0
163 186 0
166 188 0
166 188 0
165 186 0
163 186 0
168 191 0
168 190 0
166 188 0
162 183 0
164 184 0
165 186 0
164 186 0
165 186 0
164 186 0
170 192 0
167 190 0
169 191 0
168 191 0
165 188 0
166 189 0
165 187 0
169 192 0
168 190 0
167 189 0
168 191 0
166 188 0
170 192 0
171 194 0
168 190 0
165 187 0
168 190 0
171 194 0
169 191 0
169 191 0
173 195 0
172 195 0
169 190 0
168 191 0
168 189 0
168 191 0
167 190 0
166 190 0
168 191 0
173 196 0
170 194 0
169 192 0
169 191 0
170 193 0
169 190 0
172 195 0
171 193 0
173 196 0
171 193 0
171 194 0
166 189 0
169 192 0
168 191 0
168 190 0
171 194 0
168 191 0
171 194 0
172 195 0
171 194 0
172 195 0
172 195 0
172 195 0
171 193 0
171 194 0
170 193 0
172 196 0
170 193 0
172 194 0
167 190 0
170 193 0
170 192 0
174 197 0
168 190 0
172 195 0
175 198 0
174 196 0
171 193 0
171 194 0
169 192 0
171 195 0
173 197 0
172 195 0
174 196 0
171 194 0
174 196 0
170 193 0
171 196 0
171 194 0
170 192 0
172 195 0
172 195 0
174 197 0
171 195 0
173 196 0
172 195 0
173 196 0
172 195 0
172 195 0
174 197 0
170 193 0
173 194 0
173 197 0
173 196 0
172 196 0
171 194 0
174 197 0
174 197 0
173 196 0
173 196 0
170 194 0
171 196 0
170 195 0
172 195 0
173 196 0
173 197 0
172 196 0
174 196 0
172 196 0
175 197 0
172 196 0
173 197 0
172 196 0
175 197 0
172 196 0
176 198 0
174 197 0
173 197 0
167 191 0
173 197 0
174 198 0
173 197 0
171 194 0
171 195 0
175 198 0
174 198 0
172 196 0
173 196 0
172 196 0
172 196 0
172 196 0
172 197 0
171 195 0
173 197 0
171 195 0
173 197 0
173 197 0
171 194 0
173 197 0
174 197 0
171 195 0
174 197 0
173 197 0
168 192 0
171 195 0
175 198 0
171 195 0
174 197 0
171 194 0
170 193 0
174 197 0
172 196 0
168 193 0
174 197 0
173 197 0
171 195 0
172 196 0
173 196 0
173 196 0
173 196 0
173 195 0
171 194 0
169 194 0
170 194 0
173 196 0
170 194 0
172 196 0
171 195 0
169 192 0
175 198 0
171 194 0
168 192 0
172 196 0
169 193 0
171 195 0
171 194 0
174 197 0
173 196 0
172 195 0
168 192 0
174 197 0
171 195 0
173 197 0
171 194 25
172 196 25
176 199 44
175 198 44
172 195 51
173 197 36
172 195 36
175 198 44
171 194 51
172 196 44
171 194 47
175 198 62
173 195 62
167 190 62
177 199 72
173 196 67
173 196 67
171 193 80
170 193 88
169 191 62
174 196 90
165 187 67
166 189 80
169 191 67
172 195 90
171 194 95
171 194 92
170 192 76
167 191 76
171 194 98
175 198 107
176 197 105
172 195 95
174 196 108
172 195 88
172 196 105
169 191 84
170 192 84
177 199 120
173 197 95
176 199 114
170 192 95
168 191 88
166 188 76
170 193 95
170 193 99
168 190 102
169 191 105
168 190 92
170 193 120
167 189 67
172 195 117
170 192 105
170 192 111
164 185 84
169 192 114
164 187 95
166 188 105
169 191 105
165 188 125
166 188 92
162 184 114
162 184 88
161 182 84
159 180 99
158 181 99
158 179 80
165 186 99
169 190 105
165 186 108
163 184 102
162 183 80
155 175 80
161 183 95
167 188 105
163 184 88
157 177 80
161 182 102
164 185 84
154 175 62
165 185 95
160 181 76
161 183 76
156 177 72
159 181 72
159 181 51
143 165 51
154 176 36
161 183 25
146 169 0
148 170 0
157 180 0
150 172 0
151 173 0
153 176 25
148 169 0
158 181 0
154 176 0
149 171 0
152 174 0
146 168 0
142 163 0
145 167 0
148 169 0
144 164 0
140 161 0
142 163 0
148 170 0
142 163 0
143 164 0
148 170 0
137 158 0
142 165 0
148 169 0
129 150 0
137 158 0
140 161 0
142 162 0
144 166 0
141 162 0
149 170 0
151 172 0
143 164 0
141 162 0
148 169 0
146 168 0
147 170 0
145 165 0
139 159 0
141 163 0
140 160 0
145 167 0
143 164 0
142 163 0
135 157 0
149 170 0
151 173 0
135 157 0
146 169 0
150 171 0
152 174 0
140 161 0
156 179 0
145 166 0
152 174 0
146 168 0
142 163 0
149 171 0
146 168 0
159 181 0
154 177 0
154 176 0
157 179 0
150 171 0
158 180 0
150 171 0
145 167 0
159 182 0
157 178 0
155 178 0
156 178 0
158 180 0
155 176 0
154 176 0
155 176 0
149 171 0
155 177 0
160 182 0
150 170 0
151 174 0
151 173 0
161 183 0
159 182 0
164 186 0
155 176 0
162 184 0
159 180 0
156 177 0
160 183 0
153 176 0
160 181 0
160 181 0
163 186 0
165 188 0
161 183 0
161 184 0
161 184 0
155 176 0
164 187 0
165 187 0
164 186 0
161 184 0
166 189 0
168 190 0
160 182 0
166 189 0
164 186 0
165 186 0
166 189 0
164 187 0
165 186 0
165 187 0
165 186 0
162 184 0
167 191 0
169 192 0
165 187 0
162 185 0
163 186 0
164 187 0
160 183 0
168 189 0
167 190 0
169 192 0
168 192 0
165 188 0
167 190 0
165 187 0
168 190 0
170 193 0
167 190 0
168 191 0
168 192 0
168 190 0
165 187 0
167 189 0
170 193 0
168 190 0
164 185 0
165 187 0
169 192 0
169 191 0
171 194 0
165 187 0
171 194 0
172 194 0
167 188 0
170 193 0
169 192 0
170 191 0
173 197 0
165 188 0
168 189 0
168 191 0
169 190 0
165 186 0
168 191 0
170 193 0
172 196 0
164 185 0
171 193 0
169 191 0
168 190 0
172 194 0
170 193 0
169 192 0
170 194 0
174 197 0
169 192 0
172 194 0
169 192 0
170 192 0
171 195 0
170 192 0
171 193 0
170 193 0
171 193 0
170 193 0
173 195 0
171 194 0
167 190 0
171 193 0
172 195 0
171 194 0
175 198 0
172 196 0
169 191 0
169 190 0
171 193 0
173 195 0
172 195 0
173 196 0
171 194 0
172 195 0
174 197 0
169 193 0
166 188 0
171 194 0
174 197 0
173 197 0
169 192 0
168 192 0
172 194 0
173 195 0
173 196 0
172 194 0
173 196 0
174 196 0
173 197 0
175 197 0
170 194 0
175 197 0
170 194 0
174 197 0
170 193 0
172 195 0
172 195 0
172 195 0
172 195 0
172 194 0
174 196 0
175 198 0
173 196 0
173 197 0
173 196 0
172 195 0
174 196 0
173 196 0
172 196 0
173 196 0
173 197 0
172 195 0
174 197 0
171 194 0
175 198 0
174 197 0
174 197 0
174 197 0
174 198 0
172 196 0
175 198 0
175 198 0
173 196 0
174 198 0
172 196 0
174 197 0
171 194 0
173 196 0
175 198 0
175 197 0
174 197 0
175 198 0
172 196 0
173 196 0
172 195 0
172 195 0
173 197 0
172 195 0
173 196 0
173 197 0
173 197 0
172 196 0
174 197 0
173 196 0
173 197 0
173 196 0
171 195 0
174 197 0
170 194 0
173 197 0
173 197 0
172 196 0
171 194 0
171 195 0
173 196 0
175 197 0
172 196 0
172 196 0
173 197 0
174 197 0
172 196 0
173 196 0
171 195 0
170 194 0
173 197 0
171 194 0
172 196 0
172 196 0
170 193 0
170 194 0
173 196 0
172 196 0
173 196 0
169 193 0
171 195 0
170 194 0
172 195 0
168 192 0
169 192 0
171 195 0
170 194 0
169 192 0
171 194 0
174 197 0
173 196 0
174 197 0
168 192 0
172 195 0
171 195 0
173 196 25
175 198 36
174 197 25
172 196 0
174 197 25
176 199 36
173 196 44
174 198 31
172 196 36
171 194 40
171 194 62
171 195 36
174 197 76
174 195 76
171 193 72
172 194 76
169 191 62
170 194 72
174 197 72
171 193 86
168 190 84
167 190 72
170 192 84
168 190 72
166 190 76
169 191 74
169 192 65
172 194 90
167 191 70
173 195 99
173 195 102
174 197 100
178 200 92
175 197 105
173 196 102
169 192 84
175 197 114
171 194 76
177 199 122
166 188 84
175 198 122
169 191 72
173 196 108
172 195 108
169 192 92
163 186 80
174 196 117
170 192 102
168 191 102
168 190 92
164 186 84
171 193 95
165 188 76
167 190 105
166 188 84
165 187 95
170 192 95
169 190 105
171 193 105
164 186 76
167 189 88
163 186 99
165 187 92
167 188 95
164 185 84
170 190 80
160 180 88
165 187 95
163 184 88
161 181 80
161 183 105
171 192 120
164 187 84
165 186 80
158 178 76
167 188 95
160 181 80
157 179 62
155 176 62
172 192 95
160 180 99
161 182 84
149 170 51
157 178 62
157 178 67
158 179 51
155 177 44
154 176 51
157 178 67
151 173 25
160 183 36
159 182 25
152 173 25
158 178 36
163 186 0
151 174 0
155 177 0
157 180 0
157 180 0
156 178 0
141 162 0
154 177 0
152 174 0
153 174 0
147 168 0
144 166 0
137 158 0
142 164 0
142 163 0
134 155 0
152 174 0
139 161 0
145 167 0
141 163 0
143 165 0
145 167 0
144 165 0
147 167 0
137 157 0
146 168 0
144 166 0
145 167 0
145 167 0
141 161 0
148 169 0
145 166 0
143 164 0
148 170 0
146 168 0
144 167 0
144 165 0
141 162 0
146 167 0
145 167 0
142 164 0
149 170 0
149 172 0
142 164 0
146 169 0
150 173 0
145 165 0
149 172 0
142 164 0
148 171 0
151 172 0
150 173 0
139 160 0
153 175 0
149 171 0
149 172 0
153 175 0
151 174 0
154 174 0
156 178 0
159 181 0
148 170 0
151 174 0
153 176 0
159 182 0
157 178 0
155 177 0
159 181 0
157 179 0
153 175 0
161 184 0
159 182 0
152 175 0
159 181 0
159 181 0
155 176 0
159 181 0
165 187 0
158 178 0
158 180 0
156 178 0
162 184 0
160 182 0
163 185 0
163 185 0
159 181 0
149 169 0
157 179 0
158 179 0
158 180 0
158 180 0
163 185 0
164 187 0
164 186 0
162 184 0
168 190 0
161 184 0
157 179 0
164 186 0
165 188 0
167 190 0
167 189 0
169 191 0
162 186 0
159 183 0
164 185 0
161 183 0
162 185 0
168 192 0
162 183 0
165 188 0
163 185 0
166 190 0
164 186 0
165 188 0
163 185 0
163 186 0
164 186 0
168 190 0
165 188 0
165 188 0
160 181 0
168 191 0
165 186 0
166 189 0
167 189 0
169 191 0
162 184 0
170 192 0
164 186 0
165 186 0
164 187 0
169 191 0
168 189 0
167 189 0
166 189 0
168 191 0
169 192 0
167 188 0
169 191 0
168 191 0
165 187 0
169 190 0
169 191 0
168 190 0
172 196 0
167 189 0
164 187 0
167 190 0
169 192 0
169 191 0
170 192 0
168 192 0
172 195 0
171 194 0
171 193 0
171 194 0
166 189 0
170 192 0
169 192 0
169 192 0
171 193 0
169 192 0
172 193 0
168 190 0
168 191 0
175 197 0
170 193 0
168 190 0
171 193 0
171 194 0
172 195 0
171 194 0
171 194 0
169 191 0
171 194 0
170 193 0
167 189 0
170 193 0
172 195 0
171 194 0
172 195 0
174 196 0
173 196 0
173 196 0
172 194 0
172 194 0
170 193 0
172 194 0
173 196 0
171 194 0
171 195 0
173 197 0
171 194 0
173 196 0
171 195 0
172 194 0
169 192 0
169 191 0
173 196 0
172 195 0
172 194 0
172 195 0
171 194 0
174 196 0
172 195 0
174 197 0
173 196 0
174 197 0
173 197 0
173 196 0
173 196 0
171 195 0
170 194 0
173 196 0
174 197 0
171 195 0
174 197 0
173 196 0
172 195 0
172 196 0
173 196 0
172 195 0
173 196 0
171 193 0
172 195 0
174 197 0
173 195 0
173 196 0
176 198 0
172 196 0
172 195 0
174 197 0
172 195 0
175 198 0
170 194 0
173 197 0
172 196 0
172 196 0
173 197 0
171 195 0
175 198 0
175 198 0
174 197 0
173 196 0
171 194 0
171 195 0
175 198 0
173 196 0
172 196 0
173 197 0
172 195 0
172 196 0
172 196 0
172 196 0
172 197 0
173 196 0
175 198 0
171 194 0
172 195 0
174 197 0
171 195 0
173 196 0
169 194 0
170 195 0
171 195 0
172 196 0
172 195 0
175 198 0
174 197 0
173 196 0
175 198 0
173 197 0
174 198 0
171 195 0
173 196 0
170 194 0
171 195 0
172 195 0
172 196 0
171 194 0
174 197 0
173 196 0
170 194 0
173 197 0
174 197 0
169 193 0
171 194 0
171 195 0
171 195 0
173 196 0
172 195 0
172 196 0
171 196 0
170 193 0
168 191 0
174 197 0
170 195 0
174 197 0
171 194 0
172 195 0
168 191 0
172 195 0
172 195 0
173 196 0
172 195 0
175 198 0
174 197 0
172 195 36
173 197 0
173 197 0
172 195 25
170 194 36
174 197 36
175 198 44
174 196 36
175 197 44
168 192 25
173 196 67
171 194 51
167 191 40
172 196 54
172 193 67
171 194 65
172 194 51
166 188 62
171 193 76
174 196 88
167 189 74
168 191 71
171 193 88
165 188 76
173 196 80
165 188 74
174 196 108
171 194 80
175 197 93
173 196 92
169 192 95
170 193 94
177 200 113
174 196 103
176 199 105
175 197 76
174 197 108
172 194 84
173 196 117
173 196 114
172 193 80
166 188 92
167 189 76
173 195 120
174 197 108
163 186 84
162 184 84
165 189 80
164 187 80
172 194 95
173 196 105
165 187 99
167 189 88
166 187 88
169 189 88
169 191 99
176 197 117
163 185 80
162 183 84
165 187 88
168 189 102
163 184 72
159 180 92
166 188 88
168 190 102
162 183 99
160 182 84
151 172 57
155 176 76
154 175 67
165 187 84
166 186 80
161 182 62
156 177 76
163 185 92
157 179 76
155 176 80
150 171 84
159 179 95
154 174 84
169 189 80
154 175 57
159 180 51
160 182 62
149 171 44
152 174 0
157 179 44
154 176 0
156 178 51
158 180 25
155 177 36
153 176 25
159 182 0
155 178 0
162 184 0
155 177 0
150 173 0
154 176 0
148 171 0
145 166 0
151 172 0
147 168 0
148 169 0
151 173 0
145 167 0
134 155 0
152 174 0
149 171 0
140 161 0
143 164 0
147 169 0
145 167 0
138 160 0
130 151 0
139 162 0
146 166 0
145 167 0
149 171 0
151 172 0
152 173 0
141 163 0
144 165 0
148 171 0
147 168 0
143 165 0
141 163 0
146 168 0
137 159 0
151 172 0
149 171 0
152 175 0
143 165 0
145 165 0
150 172 0
144 164 0
145 167 0
146 168 0
134 155 0
147 169 0
154 176 0
149 171 0
150 172 0
155 178 0
146 168 0
151 174 0
151 174 0
147 169 0
147 169 0
156 177 0
154 175 0
149 170 0
158 179 0
149 171 0
149 171 0
156 178 0
160 182 0
154 176 0
158 181 0
158 180 0
153 175 0
158 181 0
152 174 0
157 179 0
158 180 0
154 175 0
161 183 0
154 176 0
158 181 0
159 182 0
159 182 0
154 177 0
162 185 0
163 184 0
157 179 0
158 181 0
158 180 0
166 186 0
165 188 0
160 183 0
156 178 0
166 189 0
161 183 0
158 181 0
157 179 0
161 184 0
164 186 0
166 189 0
159 183 0
163 185 0
161 183 0
169 191 0
164 187 0
162 185 0
163 185 0
165 187 0
160 182 0
163 184 0
168 189 0
163 186 0
163 186 0
168 190 0
161 183 0
167 190 0
164 186 0
164 186 0
168 190 0
170 192 0
164 186 0
166 187 0
165 188 0
170 193 0
170 191 0
167 189 0
171 194 0
169 191 0
165 188 0
171 192 0
165 187 0
168 190 0
167 190 0
169 191 0
169 191 0
167 189 0
170 192 0
169 192 0
167 190 0
170 192 0
168 191 0
165 186 0
168 191 0
169 191 0
167 190 0
170 192 0
167 191 0
163 184 0
168 189 0
167 189 0
166 188 0
169 192 0
165 188 0
167 191 0
168 190 0
169 191 0
171 193 0
171 193 0
172 194 0
170 193 0
171 194 0
169 192 0
170 192 0
169 191 0
169 190 0
171 193 0
169 192 0
171 192 0
171 194 0
171 193 0
170 193 0
170 193 0
172 195 0
173 195 0
172 195 0
169 192 0
172 194 0
172 195 0
171 195 0
172 194 0
170 194 0
171 195 0
172 195 0
173 195 0
172 194 0
175 197 0
170 194 0
168 192 0
171 195 0
173 196 0
171 195 0
172 195 0
171 194 0
173 196 0
171 194 0
172 196 0
171 194 0
173 196 0
170 193 0
170 194 0
173 196 0
173 195 0
172 195 0
173 197 0
172 196 0
172 194 0
172 194 0
173 196 0
173 195 0
172 195 0
171 195 0
173 195 0
172 195 0
174 197 0
172 195 0
172 196 0
173 196 0
173 196 0
172 195 0
170 193 0
172 195 0
174 197 0
173 196 0
174 197 0
171 193 0
172 195 0
171 195 0
173 197 0
172 195 0
170 194 0
169 193 0
175 198 0
176 199 0
175 198 0
174 197 0
172 195 0
174 197 0
172 195 0
174 198 0
175 198 0
173 197 0
174 197 0
171 195 0
174 197 0
177 199 0
172 196 0
172 195 0
174 197 0
172 196 0
172 196 0
172 196 0
173 196 0
171 195 0
172 195 0
173 197 0
174 197 0
174 197 0
171 195 0
173 196 0
173 197 0
172 196 0
174 198 0
174 197 0
172 196 0
173 196 0
174 197 0
169 194 0
173 197 0
170 193 0
173 196 0
174 197 0
174 197 0
173 196 0
172 196 0
171 195 0
171 195 0
174 197 0
171 195 0
173 197 0
172 195 0
173 196 0
172 196 0
172 196 0
171 195 0
174 198 0
171 195 0
172 196 0
172 196 0
172 195 0
169 192 0
172 195 0
171 195 0
172 195 0
169 193 0
174 197 0
173 197 0
169 193 0
173 197 0
170 193 0
173 196 0
175 198 0
172 195 0
174 197 0
168 192 0
172 195 0
173 196 0
171 195 0
172 195 0
172 195 0
164 189 0
173 196 0
173 196 0
172 195 25
175 198 0
172 196 0
175 198 0
173 197 25
171 195 25
174 197 36
169 193 25
173 196 25
174 196 0
173 196 51
170 193 62
172 194 67
173 195 67
170 192 57
170 193 36
168 190 44
168 191 74
174 196 80
169 191 65
170 193 60
165 188 70
169 192 76
166 189 78
168 190 76
167 190 86
169 191 80
171 192 88
170 192 88
169 192 82
168 191 76
166 189 78
176 198 94
172 194 92
171 194 92
174 196 88
173 195 92
176 199 111
170 192 92
173 195 111
177 200 102
175 197 102
173 194 88
178 200 102
172 194 95
171 193 84
165 187 84
174 195 95
175 197 105
173 194 92
174 197 95
172 193 95
165 187 108
169 191 80
173 195 108
165 187 95
171 194 95
172 194 105
170 190 117
163 185 105
160 182 76
171 193 111
168 188 95
163 185 99
162 184 88
166 187 88
167 189 114
163 184 88
158 179 84
163 185 88
166 187 102
167 188 92
162 183 99
158 178 76
159 180 102
159 180 99
168 190 76
165 185 92
159 181 62
160 181 72
157 177 76
161 182 92
160 181 76
159 180 44
153 174 62
157 179 44
146 168 25
160 182 36
156 179 25
158 181 25
155 177 25
156 179 25
163 185 0
159 181 0
165 187 0
159 182 0
154 177 0
154 177 0
148 170 0
154 176 0
147 169 0
151 173 0
149 172 0
140 162 0
153 175 0
142 163 0
146 166 0
154 176 0
147 168 0
151 173 0
153 174 0
141 162 0
146 168 0
154 176 0
150 171 0
153 174 0
150 173 0
146 168 0
152 174 0
150 173 0
150 172 0
146 167 0
152 175 0
147 169 0
145 168 0
144 167 0
145 167 0
141 162 0
141 164 0
148 170 0
147 169 0
150 173 0
152 174 0
149 172 0
153 175 0
148 169 0
147 168 0
148 170 0
154 178 0
158 181 0
152 173 0
150 173 0
154 176 0
149 171 0
153 175 0
151 174 0
151 174 0
147 168 0
153 175 0
153 175 0
148 169 0
159 182 0
153 174 0
153 176 0
151 171 0
147 169 0
150 171 0
154 176 0
155 178 0
159 182 0
152 172 0
154 178 0
147 169 0
159 182 0
159 182 0
153 174 0
159 182 0
157 179 0
159 181 0
161 185 0
156 177 0
162 185 0
160 183 0
161 184 0
156 178 0
162 185 0
159 181 0
157 180 0
161 182 0
164 186 0
159 181 0
165 188 0
166 189 0
159 182 0
162 184 0
161 183 0
157 180 0
159 181 0
162 184 0
161 184 0
164 186 0
163 186 0
162 184 0
162 185 0
167 190 0
159 181 0
168 190 0
165 187 0
163 186 0
166 190 0
168 189 0
166 189 0
166 188 0
168 191 0
167 190 0
160 184 0
166 189 0
165 187 0
163 184 0
166 187 0
165 186 0
168 191 0
158 180 0
168 190 0
169 192 0
167 189 0
165 188 0
169 190 0
169 192 0
162 184 0
168 191 0
168 190 0
167 190 0
167 190 0
169 189 0
165 187 0
169 191 0
166 188 0
169 191 0
166 188 0
166 189 0
168 190 0
168 191 0
169 191 0
170 192 0
170 192 0
171 193 0
166 189 0
170 193 0
165 188 0
172 195 0
168 191 0
167 189 0
168 190 0
168 192 0
173 196 0
173 196 0
166 189 0
168 191 0
170 192 0
171 194 0
170 193 0
170 194 0
171 193 0
170 194 0
173 196 0
169 191 0
171 194 0
170 193 0
172 195 0
172 195 0
169 191 0
168 192 0
168 191 0
172 195 0
169 191 0
171 194 0
172 194 0
170 193 0
170 191 0
171 195 0
172 195 0
172 195 0
172 195 0
171 194 0
172 194 0
173 196 0
173 196 0
170 192 0
172 194 0
173 196 0
170 193 0
171 195 0
168 191 0
170 194 0
170 194 0
171 194 0
171 194 0
169 192 0
172 195 0
171 194 0
170 194 0
173 196 0
173 196 0
172 195 0
173 197 0
174 197 0
172 195 0
171 194 0
173 196 0
172 196 0
171 193 0
172 196 0
173 196 0
172 196 0
173 196 0
173 196 0
171 194 0
170 193 0
172 195 0
173 197 0
174 197 0
172 195 0
171 194 0
176 198 0
171 195 0
173 196 0
172 195 0
173 197 0
173 196 0
172 195 0
172 195 0
175 198 0
173 196 0
172 196 0
173 196 0
174 197 0
173 195 0
174 197 0
174 197 0
172 196 0
174 197 0
174 197 0
173 197 0
172 195 0
173 197 0
175 198 0
171 195 0
170 193 0
173 196 0
172 196 0
173 197 0
172 196 0
172 196 0
173 196 0
174 197 0
174 197 0
173 196 0
169 193 0
173 197 0
172 196 0
173 196 0
172 195 0
171 194 0
171 195 0
174 197 0
171 195 0
170 194 0
174 197 0
174 197 0
172 196 0
173 196 0
173 196 0
173 196 0
173 196 0
172 195 0
171 194 0
169 193 0
174 197 0
173 197 0
172 196 0
174 197 0
175 197 0
171 194 0
173 196 0
172 195 0
170 194 0
175 198 0
171 195 0
171 194 0
172 196 0
173 196 0
175 198 0
168 192 0
173 197 0
169 193 0
170 194 0
168 192 0
168 191 0
174 197 0
171 194 0
172 195 0
169 193 0
171 195 0
171 194 0
171 195 0
170 193 0
169 194 0
171 195 0
172 196 0
170 195 0
173 197 0
173 196 0
169 193 0
171 195 0
171 195 0
174 197 36
174 197 18
172 196 36
170 193 25
171 194 36
170 193 40
168 191 47
174 196 60
169 192 28
173 195 60
169 191 62
172 194 51
172 195 62
170 193 72
168 190 82
170 192 90
171 193 76
167 190 74
172 195 76
170 192 86
164 188 57
174 196 74
169 191 86
164 186 80
173 196 94
173 195 92
176 198 84
178 200 88
173 196 90
173 195 67
177 199 102
173 195 67
171 194 105
169 192 111
175 197 76
172 194 108
170 192 99
171 193 108
169 191 92
164 187 111
169 191 95
169 191 114
170 191 80
168 191 92
167 190 92
162 184 88
167 188 80
166 188 84
165 187 102
171 193 114
168 189 76
167 188 95
175 197 128
170 191 95
170 192 108
163 184 80
165 187 114
166 188 80
172 194 111
165 186 95
171 193 120
156 178 88
158 178 51
159 180 76
159 180 105
163 184 92
163 184 72
166 187 84
159 181 67
161 182 105
166 187 80
169 190 92
158 179 80
157 178 72
165 186 72
159 179 88
158 179 67
161 182 67
156 177 44
150 171 36
156 178 51
154 177 25
152 176 0
157 179 51
159 181 44
156 179 0
157 178 0
160 183 0
154 178 0
157 180 0
155 178 0
160 183 0
153 174 0
154 176 0
151 173 0
153 174 0
150 171 0
155 177 0
143 165 0
150 170 0
153 176 0
152 174 0
149 170 0
132 154 0
151 174 0
162 185 0
149 170 0
147 169 0
150 171 0
151 172 0
145 167 0
145 167 0
155 176 0
143 164 0
145 167 0
152 174 0
153 174 0
144 165 0
148 169 0
150 172 0
146 168 0
145 167 0
141 163 0
141 163 0
152 174 0
141 163 0
154 176 0
144 165 0
146 169 0
147 168 0
147 171 0
142 162 0
161 184 0
147 170 0
147 168 0
150 171 0
149 171 0
148 170 0
145 167 0
147 169 0
151 174 0
156 179 0
155 178 0
155 178 0
149 171 0
151 173 0
150 170 0
159 183 0
156 177 0
155 178 0
152 173 0
156 178 0
153 174 0
157 180 0
163 184 0
151 172 0
153 175 0
158 181 0
156 178 0
161 184 0
162 184 0
154 176 0
156 178 0
162 184 0
159 181 0
162 185 0
157 179 0
155 176 0
164 186 0
159 182 0
157 179 0
160 181 0
156 177 0
162 185 0
162 185 0
157 179 0
159 183 0
158 181 0
158 181 0
164 186 0
166 187 0
161 183 0
168 190 0
160 182 0
161 182 0
167 189 0
164 186 0
167 191 0
157 179 0
166 187 0
164 187 0
159 181 0
160 181 0
166 188 0
168 190 0
162 184 0
161 183 0
165 188 0
164 186 0
169 191 0
167 190 0
169 190 0
166 187 0
165 188 0
168 191 0
167 191 0
166 189 0
165 188 0
167 190 0
170 192 0
169 191 0
169 191 0
165 187 0
164 188 0
167 189 0
168 190 0
168 191 0
165 186 0
168 190 0
169 191 0
168 190 0
165 187 0
168 191 0
171 194 0
169 192 0
166 188 0
173 196 0
169 191 0
169 191 0
167 190 0
168 191 0
168 190 0
171 194 0
171 194 0
171 195 0
169 192 0
168 191 0
169 192 0
170 193 0
171 194 0
173 196 0
171 193 0
164 186 0
170 193 0
167 190 0
171 194 0
168 192 0
169 192 0
170 191 0
171 193 0
172 194 0
173 195 0
171 194 0
172 195 0
169 193 0
173 196 0
170 192 0
174 197 0
171 193 0
172 195 0
170 193 0
169 191 0
170 193 0
171 194 0
171 194 0
171 194 0
174 197 0
171 194 0
171 194 0
172 194 0
173 196 0
170 192 0
169 192 0
172 195 0
173 196 0
169 192 0
172 196 0
174 196 0
173 194 0
170 193 0
174 196 0
170 193 0
174 197 0
172 195 0
172 195 0
171 194 0
175 198 0
172 195 0
171 194 0
172 194 0
171 194 0
173 196 0
169 193 0
170 193 0
173 195 0
171 194 0
171 195 0
172 195 0
170 193 0
173 197 0
171 193 0
174 196 0
173 196 0
173 196 0
174 197 0
173 196 0
172 195 0
173 196 0
170 193 0
173 197 0
173 196 0
174 197 0
174 197 0
174 198 0
174 196 0
174 197 0
174 197 0
173 197 0
173 196 0
173 197 0
174 197 0
173 197 0
174 198 0
171 195 0
175 198 0
173 197 0
171 194 0
173 197 0
173 197 0
173 197 0
173 197 0
172 196 0
173 197 0
173 197 0
173 196 0
173 197 0
174 198 0
172 195 0
174 197 0
173 196 0
174 197 0
171 195 0
171 196 0
172 195 0
176 198 0
173 196 0
172 195 0
173 196 0
173 197 0
173 196 0
173 197 0
171 195 0
171 195 0
171 195 0
172 196 0
171 195 0
175 198 0
172 196 0
171 195 0
171 195 0
174 197 0
173 197 0
173 197 0
170 194 0
173 197 0
171 195 0
173 196 0
171 195 0
172 195 0
173 196 0
173 196 0
174 197 0
171 194 0
170 195 0
171 195 0
172 195 0
170 193 0
171 194 0
172 196 0
172 196 0
172 196 0
171 195 0
171 195 0
170 193 0
171 194 0
171 195 0
173 197 0
169 193 0
170 194 0
170 194 0
173 196 0
174 196 0
171 195 0
171 195 0
170 194 0
174 198 25
171 194 0
176 199 44
172 195 0
173 197 0
171 195 0
170 194 0
174 197 25
171 195 25
174 196 44
169 191 62
170 194 51
174 197 64
169 193 54
171 194 51
171 193 54
171 193 84
167 189 44
171 194 72
173 195 54
169 191 51
163 185 46
169 192 74
172 194 84
167 189 90
168 190 80
165 187 80
174 196 83
164 186 78
169 192 82
165 188 84
163 186 72
167 188 90
171 194 90
173 195 97
174 197 88
176 198 76
176 198 102
177 199 108
171 194 88
172 194 95
174 195 92
174 195 92
174 196 120
172 194 88
174 196 92
172 194 111
170 193 88
168 190 95
171 193 99
171 194 108
173 195 102
172 194 114
162 184 80
171 193 122
169 191 92
175 197 105
174 195 102
165 187 80
164 185 80
167 189 88
165 187 105
163 184 92
166 187 102
165 187 84
160 182 84
169 190 95
171 192 88
162 183 80
169 190 84
159 180 84
164 186 88
161 183 92
168 189 108
164 186 80
160 181 72
168 189 80
156 178 62
165 186 76
161 183 57
159 182 62
160 182 36
159 181 67
161 183 67
158 180 36
157 178 44
163 186 25
154 176 0
160 182 0
164 188 36
163 186 36
160 183 0
158 180 0
155 178 0
162 184 25
158 180 0
152 174 0
155 177 0
155 177 0
152 174 0
150 172 0
154 176 0
156 177 0
149 170 0
149 171 0
145 167 0
149 172 0
146 167 0
153 176 0
152 174 0
143 164 0
152 173 0
155 177 0
155 177 0
151 172 0
149 172 0
147 168 0
156 179 0
147 169 0
143 165 0
147 168 0
151 172 0
157 179 0
146 169 0
143 165 0
151 173 0
153 174 0
147 169 0
136 157 0
151 173 0
151 174 0
145 166 0
151 174 0
149 172 0
151 173 0
149 171 0
148 171 0
144 165 0
153 175 0
151 172 0
145 167 0
152 174 0
156 178 0
153 176 0
154 175 0
149 170 0
146 168 0
156 179 0
156 178 0
157 179 0
153 174 0
148 171 0
157 180 0
155 177 0
152 174 0
151 173 0
158 179 0
159 182 0
153 175 0
153 177 0
159 181 0
159 182 0
152 174 0
154 177 0
159 180 0
162 185 0
166 188 0
161 183 0
157 180 0
161 183 0
158 179 0
161 183 0
165 188 0
159 182 0
162 184 0
162 184 0
164 186 0
159 180 0
157 180 0
161 183 0
161 183 0
162 184 0
167 189 0
164 186 0
159 182 0
166 188 0
166 188 0
162 184 0
165 188 0
161 183 0
166 189 0
159 182 0
168 189 0
167 189 0
163 184 0
162 185 0
161 184 0
168 190 0
160 181 0
161 184 0
169 192 0
163 185 0
168 191 0
165 187 0
165 186 0
166 188 0
167 190 0
166 190 0
170 192 0
167 190 0
167 190 0
168 189 0
168 191 0
162 184 0
163 185 0
169 192 0
164 186 0
164 185 0
165 188 0
165 188 0
166 189 0
168 191 0
168 191 0
166 189 0
169 191 0
169 192 0
170 192 0
172 193 0
170 193 0
164 186 0
167 189 0
164 187 0
172 195 0
169 192 0
167 190 0
169 191 0
166 189 0
171 194 0
170 192 0
169 191 0
170 191 0
169 192 0
168 192 0
165 188 0
171 194 0
171 194 0
171 193 0
168 191 0
171 195 0
169 191 0
172 195 0
171 194 0
167 188 0
172 195 0
170 193 0
171 193 0
171 193 0
171 193 0
174 196 0
171 192 0
170 191 0
170 194 0
168 191 0
170 193 0
173 196 0
170 192 0
170 193 0
169 192 0
169 192 0
170 193 0
172 196 0
168 192 0
169 193 0
170 192 0
175 197 0
170 193 0
171 194 0
169 190 0
172 195 0
172 194 0
173 196 0
173 195 0
171 194 0
172 196 0
171 194 0
172 195 0
171 194 0
171 195 0
173 196 0
171 194 0
172 195 0
173 197 0
171 194 0
174 198 0
172 194 0
172 195 0
170 193 0
171 194 0
171 195 0
172 196 0
172 195 0
175 197 0
174 197 0
173 196 0
174 197 0
175 197 0
169 192 0
173 196 0
170 194 0
173 196 0
172 195 0
174 197 0
174 197 0
173 197 0
172 196 0
172 196 0
170 194 0
171 195 0
171 195 0
172 195 0
174 197 0
171 195 0
174 198 0
173 196 0
173 196 0
171 195 0
173 196 0
171 195 0
174 197 0
173 196 0
174 198 0
172 195 0
172 196 0
173 196 0
175 198 0
174 198 0
173 196 0
175 198 0
174 197 0
173 196 0
172 195 0
175 198 0
171 195 0
172 196 0
172 196 0
173 197 0
171 195 0
173 197 0
173 196 0
174 197 0
175 198 0
174 197 0
174 197 0
172 196 0
170 194 0
172 195 0
174 198 0
172 196 0
173 197 0
171 194 0
174 197 0
174 198 0
171 194 0
173 197 0
174 198 0
172 196 0
174 197 0
168 192 0
174 197 0
174 197 0
174 197 0
173 197 0
173 197 0
173 197 0
174 197 0
174 198 0
173 196 0
171 195 0
173 197 0
171 195 0
171 195 0
171 194 0
171 195 0
170 193 0
173 197 0
167 192 0
170 193 0
168 192 0
168 191 0
169 193 0
173 196 0
172 195 0
171 195 0
168 192 0
171 195 0
171 195 0
170 194 0
173 196 0
169 192 0
173 196 0
171 195 0
170 194 0
174 197 0
171 194 25
175 198 25
173 197 0
172 195 0
171 194 44
175 197 54
172 195 25
171 194 57
169 191 0
169 193 25
162 185 18
168 191 40
168 190 65
172 195 57
166 189 60
172 193 80
174 197 47
173 195 74
173 195 76
168 191 67
162 185 72
167 191 40
170 193 65
161 184 72
168 190 84
172 194 78
172 195 89
173 195 84
177 199 105
169 191 74
172 194 84
168 190 103
171 193 86
173 195 80
179 200 111
172 193 92
175 197 105
176 197 108
165 188 95
173 195 88
171 194 92
171 194 108
173 194 76
171 193 105
173 193 95
172 194 67
172 193 95
164 186 88
173 196 88
169 191 84
172 193 80
168 190 84
169 190 95
162 183 72
164 186 92
166 187 84
167 189 95
173 194 111
168 189 95
167 188 84
168 190 84
164 184 76
169 191 88
166 188 84
158 180 84
168 189 99
169 190 88
153 174 67
158 178 72
162 183 72
164 186 67
159 181 67
159 181 57
163 184 67
155 177 67
162 183 76
161 182 72
161 182 62
160 182 44
160 181 57
164 185 62
161 183 51
159 181 44
157 179 44
161 184 0
153 174 0
165 188 0
157 180 25
166 189 0
164 186 0
151 174 0
159 182 0
161 184 0
155 178 0
154 177 0
154 176 0
155 177 0
151 174 0
149 171 0
151 172 0
146 167 0
152 174 0
144 166 0
148 170 0
153 174 0
142 162 0
145 167 0
149 171 0
150 171 0
142 164 0
150 172 0
141 163 0
151 173 0
152 174 0
149 171 0
145 169 0
153 174 0
146 168 0
155 176 0
150 172 0
148 170 0
145 167 0
155 178 0
154 176 0
146 169 0
150 171 0
151 173 0
153 175 0
158 181 0
150 172 0
148 169 0
155 177 0
150 172 0
156 177 0
153 176 0
154 176 0
155 177 0
151 174 0
153 176 0
155 178 0
150 172 0
154 176 0
154 178 0
153 177 0
158 180 0
151 173 0
151 174 0
159 182 0
161 183 0
155 176 0
153 175 0
153 175 0
159 183 0
156 178 0
160 183 0
155 177 0
156 178 0
151 173 0
155 177 0
161 183 0
158 180 0
156 179 0
155 177 0
161 183 0
158 181 0
157 181 0
160 183 0
159 181 0
159 182 0
160 182 0
158 180 0
161 183 0
158 180 0
158 181 0
162 185 0
157 180 0
157 180 0
164 186 0
165 188 0
159 180 0
165 187 0
162 185 0
157 178 0
160 182 0
165 188 0
167 189 0
162 185 0
162 185 0
163 184 0
157 179 0
165 188 0
165 187 0
166 188 0
161 185 0
169 191 0
166 189 0
164 187 0
165 187 0
165 188 0
168 192 0
165 188 0
163 184 0
164 187 0
168 191 0
170 192 0
166 189 0
163 185 0
168 190 0
162 186 0
170 194 0
164 186 0
172 195 0
170 191 0
163 186 0
162 185 0
169 192 0
166 188 0
167 191 0
163 185 0
168 192 0
169 192 0
173 196 0
167 190 0
163 185 0
165 188 0
169 191 0
168 191 0
166 189 0
168 191 0
170 192 0
171 194 0
162 185 0
171 194 0
167 188 0
167 190 0
172 194 0
166 189 0
169 192 0
170 193 0
173 195 0
168 191 0
170 193 0
168 191 0
168 191 0
170 192 0
169 191 0
170 193 0
169 192 0
167 190 0
169 193 0
169 191 0
171 193 0
172 195 0
169 191 0
169 194 0
173 195 0
169 194 0
168 191 0
168 190 0
165 187 0
170 193 0
173 196 0
171 194 0
168 191 0
171 194 0
172 196 0
171 194 0
171 194 0
173 197 0
172 196 0
169 192 0
172 195 0
172 195 0
170 192 0
173 196 0
168 192 0
173 195 0
172 196 0
170 193 0
171 194 0
173 196 0
174 197 0
174 197 0
172 195 0
172 195 0
172 196 0
171 194 0
171 194 0
169 192 0
173 197 0
170 194 0
171 192 0
171 194 0
172 195 0
173 196 0
172 194 0
171 195 0
173 196 0
172 194 0
172 195 0
172 196 0
175 198 0
173 196 0
172 195 0
172 195 0
173 197 0
172 195 0
170 194 0
175 197 0
174 197 0
174 197 0
171 195 0
173 196 0
175 198 0
171 195 0
174 197 0
172 194 0
171 195 0
173 196 0
172 196 0
172 195 0
174 198 0
173 196 0
172 196 0
173 197 0
173 196 0
173 196 0
172 196 0
172 196 0
173 196 0
173 197 0
173 197 0
173 197 0
174 198 0
173 197 0
172 195 0
171 195 0
172 196 0
173 197 0
174 197 0
172 197 0
172 196 0
173 196 0
173 197 0
174 197 0
174 197 0
174 198 0
171 195 0
171 195 0
175 198 0
173 197 0
174 198 0
173 197 0
175 198 0
174 197 0
172 196 0
174 197 0
175 198 0
172 195 0
168 192 0
174 197 0
173 196 0
174 198 0
174 197 0
173 197 0
170 193 0
172 196 0
171 195 0
170 194 0
172 195 0
172 195 0
171 195 0
171 194 0
173 197 0
172 196 0
171 194 0
172 194 0
172 196 0
172 196 0
171 194 0
172 195 0
171 196 0
170 193 0
173 197 0
169 193 0
172 196 0
168 191 0
174 196 0
171 194 0
172 196 0
172 196 0
173 196 0
172 195 0
173 196 0
168 192 0
176 198 0
174 197 0
172 195 0
173 196 0
175 199 25
171 195 36
173 195 0
175 198 0
174 197 0
172 195 0
171 193 36
172 195 44
169 193 25
171 195 0
169 191 65
168 190 47
171 194 54
169 192 57
174 196 51
169 191 51
167 190 25
168 190 67
166 189 62
166 189 51
172 194 74
169 191 72
166 189 107
166 189 65
169 191 80
164 186 57
172 194 76
172 194 88
168 191 78
171 193 78
173 195 102
176 197 92
172 195 84
173 195 88
172 194 97
170 191 97
171 193 102
174 196 76
171 193 108
169 191 84
171 192 99
172 194 99
174 195 76
170 191 99
175 197 95
173 195 102
177 198 95
174 196 95
170 192 102
170 190 95
164 185 67
172 193 84
165 186 76
170 191 102
167 190 92
161 183 80
164 185 84
164 186 57
171 193 114
165 187 76
167 188 72
162 182 84
170 191 88
162 184 88
167 188 80
153 174 72
165 186 76
166 187 80
161 182 72
164 185 88
165 187 88
155 176 62
153 174 67
159 179 57
167 188 88
162 184 67
163 183 67
168 188 67
156 177 76
158 180 51
162 183 57
162 183 62
157 178 44
152 173 36
163 186 44
157 180 0
159 181 25
162 185 0
160 183 25
158 180 25
163 187 0
155 177 0
156 179 0
152 175 0
155 178 0
152 175 0
155 177 0
147 168 0
154 176 0
158 181 0
152 174 0
147 169 0
154 175 0
149 171 0
153 175 0
151 173 0
147 169 0
151 173 0
155 177 0
155 177 0
150 173 0
152 174 0
153 174 0
158 182 0
153 175 0
152 174 0
147 170 0
145 165 0
157 179 0
154 177 0
146 167 0
153 176 0
150 172 0
153 175 0
153 176 0
152 174 0
146 169 0
155 177 0
155 176 0
153 175 0
157 179 0
150 173 0
157 179 0
155 176 0
157 179 0
152 175 0
151 172 0
160 181 0
154 176 0
153 175 0
155 177 0
155 177 0
158 180 0
157 179 0
151 174 0
150 172 0
151 174 0
157 180 0
157 178 0
157 180 0
157 179 0
147 168 0
149 171 0
158 180 0
157 179 0
157 179 0
162 184 0
156 177 0
155 177 0
162 185 0
164 188 0
165 188 0
154 174 0
161 185 0
158 179 0
165 188 0
162 184 0
157 180 0
162 184 0
161 183 0
156 179 0
165 188 0
157 180 0
163 185 0
158 181 0
157 179 0
163 186 0
167 188 0
166 188 0
165 188 0
160 181 0
160 183 0
164 185 0
156 179 0
168 191 0
164 187 0
164 186 0
168 191 0
163 186 0
161 183 0
166 188 0
165 188 0
164 187 0
162 185 0
161 183 0
163 186 0
163 185 0
166 190 0
166 188 0
167 190 0
165 188 0
169 191 0
169 192 0
168 190 0
166 188 0
168 190 0
164 188 0
167 191 0
165 187 0
166 190 0
164 186 0
163 185 0
166 189 0
165 188 0
168 191 0
167 189 0
168 191 0
168 190 0
165 188 0
165 188 0
166 188 0
167 190 0
168 190 0
168 191 0
170 192 0
169 192 0
170 192 0
166 188 0
167 190 0
168 190 0
168 190 0
169 193 0
169 191 0
168 190 0
167 190 0
166 189 0
168 190 0
169 192 0
171 194 0
167 190 0
171 194 0
170 193 0
168 191 0
168 191 0
172 194 0
171 196 0
171 193 0
166 190 0
171 194 0
168 191 0
166 190 0
169 192 0
172 194 0
174 197 0
173 195 0
170 193 0
172 195 0
169 192 0
169 192 0
172 194 0
170 193 0
172 195 0
169 192 0
169 192 0
170 194 0
172 194 0
174 196 0
172 195 0
171 194 0
170 193 0
171 195 0
171 193 0
171 194 0
168 191 0
174 197 0
171 193 0
170 193 0
173 197 0
172 195 0
170 193 0
173 196 0
175 197 0
174 197 0
174 195 0
170 193 0
171 196 0
170 192 0
172 196 0
173 196 0
170 193 0
170 193 0
172 195 0
173 196 0
175 198 0
173 196 0
174 197 0
171 194 0
171 195 0
174 198 0
173 196 0
173 196 0
171 194 0
173 196 0
173 196 0
173 196 0
171 194 0
175 198 0
173 195 0
172 195 0
175 197 0
173 197 0
172 195 0
174 197 0
173 197 0
173 197 0
174 198 0
173 195 0
172 195 0
171 194 0
173 196 0
175 198 0
172 195 0
173 197 0
174 197 0
173 197 0
172 196 0
174 198 0
170 193 0
172 196 0
173 196 0
173 197 0
173 196 0
172 195 0
173 197 0
172 196 0
172 195 0
174 197 0
173 196 0
173 197 0
173 196 0
171 195 0
174 197 0
171 195 0
173 196 0
172 196 0
173 196 0
173 196 0
174 198 0
172 196 0
173 196 0
173 197 0
172 195 0
171 195 0
174 197 0
173 196 0
172 196 0
172 196 0
170 194 0
171 195 0
173 197 0
171 195 0
172 196 0
172 196 0
172 195 0
170 194 0
170 194 0
174 197 0
170 194 0
170 194 0
175 198 0
175 198 0
174 197 0
171 194 0
172 196 0
173 196 0
172 196 0
172 196 0
168 192 0
168 192 0
170 194 0
174 197 0
169 193 0
172 195 0
171 195 0
173 196 0
172 195 0
171 194 0
172 195 0
173 196 0
170 194 0
170 194 0
172 196 0
169 192 0
169 192 0
170 194 0
172 196 0
168 192 0
174 197 0
172 196 0
172 196 0
171 195 0
173 196 0
170 194 18
171 195 0
174 197 25
173 197 25
173 196 31
171 194 25
172 195 44
173 196 36
169 193 0
170 194 31
171 194 36
171 194 44
167 190 31
167 189 74
171 193 74
168 191 57
172 195 65
159 182 54
162 185 57
171 194 72
171 194 67
170 193 44
168 190 62
169 192 67
169 192 87
171 193 60
167 190 70
172 194 94
172 194 107
168 191 65
168 190 84
172 193 97
173 195 95
176 198 80
175 197 111
165 187 78
171 193 99
174 196 76
174 196 84
170 191 72
170 192 102
175 195 88
169 191 57
173 195 92
171 192 80
174 195 102
167 189 95
170 192 80
173 195 88
170 192 95
173 195 76
166 188 84
171 192 51
165 187 80
170 192 92
167 189 95
169 190 84
168 188 76
168 190 80
162 184 84
171 193 95
166 186 99
166 187 76
164 185 72
160 182 62
158 180 76
162 183 72
165 187 92
161 182 57
165 186 67
165 186 72
166 186 62
165 186 76
160 181 92
162 184 67
150 172 51
164 186 67
154 176 25
158 179 44
156 179 36
158 179 25
160 182 44
166 188 36
151 174 0
162 184 25
156 179 0
161 182 25
161 184 0
158 181 0
159 182 0
158 181 0
155 177 0
152 174 0
164 186 0
154 175 0
148 171 0
144 166 0
154 175 0
160 182 0
152 173 0
145 167 0
154 176 0
152 173 0
149 171 0
157 178 0
152 174 0
149 172 0
152 173 0
151 173 0
156 179 0
157 179 0
143 165 0
150 172 0
152 173 0
153 175 0
155 178 0
153 175 0
153 176 0
142 165 0
160 183 0
153 176 0
146 167 0
146 167 0
152 174 0
156 178 0
154 176 0
147 169 0
156 178 0
158 180 0
147 169 0
153 177 0
150 173 0
156 178 0
152 175 0
156 178 0
154 176 0
156 178 0
154 176 0
148 170 0
153 176 0
160 181 0
156 178 0
153 176 0
156 178 0
157 178 0
156 178 0
158 180 0
162 183 0
158 181 0
155 178 0
159 183 0
160 182 0
156 177 0
157 180 0
160 182 0
158 180 0
156 179 0
160 183 0
159 181 0
161 183 0
155 176 0
163 186 0
159 182 0
160 182 0
165 186 0
157 179 0
160 183 0
162 184 0
158 180 0
164 187 0
161 183 0
162 186 0
155 178 0
161 183 0
155 177 0
165 187 0
162 183 0
162 184 0
162 185 0
160 183 0
166 189 0
161 183 0
161 181 0
163 186 0
164 187 0
164 187 0
164 186 0
159 181 0
167 190 0
159 181 0
168 190 0
161 183 0
167 190 0
166 188 0
163 185 0
161 183 0
165 187 0
164 187 0
161 183 0
165 187 0
166 188 0
160 183 0
165 186 0
166 187 0
167 191 0
167 190 0
168 192 0
166 189 0
169 191 0
167 190 0
170 192 0
167 189 0
166 188 0
165 187 0
171 193 0
169 192 0
169 192 0
167 189 0
170 193 0
165 187 0
169 191 0
168 191 0
171 193 0
168 190 0
166 188 0
168 192 0
165 187 0
170 194 0
169 192 0
168 191 0
166 189 0
173 196 0
167 190 0
169 191 0
169 191 0
172 195 0
170 194 0
168 192 0
168 191 0
171 193 0
170 192 0
170 192 0
171 194 0
169 191 0
171 194 0
170 193 0
170 193 0
171 194 0
170 193 0
171 194 0
172 196 0
170 192 0
169 192 0
171 194 0
172 195 0
170 193 0
170 192 0
168 191 0
171 194 0
168 189 0
169 192 0
173 196 0
171 193 0
171 195 0
170 193 0
170 193 0
168 191 0
171 193 0
172 195 0
172 195 0
171 193 0
174 197 0
175 197 0
173 195 0
170 193 0
173 197 0
172 195 0
172 195 0
170 194 0
172 195 0
172 195 0
172 195 0
170 192 0
174 197 0
172 195 0
172 195 0
172 195 0
173 195 0
172 196 0
172 196 0
172 195 0
172 195 0
172 195 0
173 196 0
173 195 0
168 191 0
172 194 0
174 196 0
171 193 0
173 196 0
173 196 0
172 195 0
172 195 0
170 194 0
171 195 0
173 196 0
171 195 0
172 195 0
175 198 0
171 195 0
173 197 0
174 196 0
172 195 0
176 199 0
172 196 0
169 193 0
172 196 0
172 195 0
173 196 0
174 197 0
172 196 0
174 197 0
173 196 0
173 197 0
175 198 0
174 197 0
172 196 0
172 196 0
173 197 0
170 194 0
172 196 0
175 198 0
173 197 0
172 196 0
173 196 0
175 198 0
171 194 0
170 194 0
173 197 0
173 197 0
175 198 0
170 195 0
172 196 0
176 199 0
173 196 0
170 194 0
173 197 0
170 194 0
173 197 0
172 196 0
171 195 0
172 196 0
175 198 0
173 196 0
170 194 0
172 197 0
173 196 0
172 196 0
172 196 0
172 196 0
172 196 0
173 197 0
174 197 0
172 196 0
174 197 0
170 195 0
173 197 0
171 194 0
170 194 0
171 195 0
170 194 0
172 195 0
170 193 0
172 195 0
170 194 0
171 194 0
171 195 0
174 197 0
172 196 0
170 194 0
170 193 0
172 196 0
171 193 0
171 195 0
171 195 0
170 194 0
172 196 0
169 193 0
173 195 0
170 193 0
169 193 0
169 193 0
171 194 0
172 196 0
170 193 0
172 196 0
172 196 0
174 197 0
173 196 0
171 194 0
174 197 0
171 194 0
175 198 36
173 196 0
173 196 25
171 194 0
171 195 31
174 196 31
167 191 25
168 190 54
171 194 47
167 189 44
168 191 51
170 194 54
164 187 65
174 196 62
163 186 54
170 192 54
169 191 88
170 192 62
166 188 51
166 189 51
167 190 47
171 193 57
169 191 62
170 192 86
171 193 74
174 195 60
171 193 72
171 193 88
169 191 94
179 200 84
173 196 84
176 197 97
173 195 99
173 194 82
176 198 95
175 196 99
169 191 80
176 197 108
171 193 99
173 195 92
172 194 92
170 191 76
166 188 88
167 189 88
167 189 88
167 190 84
173 194 84
167 189 92
170 192 88
169 190 62
167 188 84
165 186 84
171 193 80
171 193 80
163 184 76
164 185 95
166 187 76
159 180 57
165 187 76
170 190 76
164 185 67
163 184 84
161 182 88
164 185 76
160 181 80
164 185 57
160 180 72
163 185 62
164 185 80
158 179 62
164 185 80
159 180 67
168 189 62
165 186 72
158 179 57
156 178 36
161 182 51
156 177 51
159 182 36
162 184 44
161 183 0
157 179 0
155 178 25
160 182 0
162 185 25
164 186 0
156 180 0
155 177 0
159 182 0
152 175 0
161 185 0
157 180 0
152 175 0
148 171 0
149 171 0
146 169 0
151 173 0
162 184 0
148 170 0
147 168 0
159 181 0
154 178 0
153 175 0
141 162 0
159 181 0
159 182 0
153 176 0
147 168 0
150 172 0
147 169 0
151 173 0
151 173 0
147 169 0
146 169 0
154 176 0
155 177 0
152 174 0
148 170 0
151 175 0
155 177 0
150 172 0
161 183 0
149 172 0
158 182 0
156 179 0
152 174 0
151 173 0
154 176 0
151 173 0
150 172 0
147 169 0
148 169 0
158 180 0
155 179 0
149 172 0
156 178 0
160 182 0
152 174 0
158 181 0
161 183 0
156 178 0
160 183 0
156 179 0
151 173 0
149 171 0
158 180 0
158 181 0
166 188 0
161 184 0
157 180 0
159 181 0
165 188 0
154 177 0
155 178 0
158 180 0
157 179 0
155 177 0
162 184 0
154 176 0
159 181 0
161 184 0
155 178 0
156 179 0
154 177 0
159 181 0
157 179 0
161 183 0
161 183 0
162 184 0
164 187 0
162 184 0
160 182 0
164 187 0
158 181 0
161 183 0
158 181 0
164 186 0
164 186 0
163 183 0
164 187 0
164 187 0
163 185 0
165 189 0
165 187 0
164 186 0
161 183 0
168 190 0
162 185 0
166 189 0
168 190 0
164 187 0
161 184 0
167 190 0
164 186 0
163 186 0
163 186 0
164 187 0
167 189 0
167 190 0
162 184 0
167 190 0
167 190 0
169 191 0
167 189 0
163 186 0
164 187 0
166 188 0
163 185 0
170 192 0
163 186 0
167 189 0
168 190 0
164 187 0
167 191 0
170 193 0
167 189 0
168 190 0
170 191 0
167 190 0
170 193 0
172 196 0
171 194 0
164 186 0
173 195 0
168 191 0
169 192 0
163 186 0
171 193 0
168 190 0
171 193 0
167 190 0
171 193 0
168 191 0
168 191 0
164 186 0
170 193 0
169 191 0
170 194 0
169 192 0
170 192 0
171 195 0
167 190 0
167 190 0
168 190 0
170 194 0
166 189 0
171 193 0
172 194 0
169 192 0
170 193 0
171 194 0
169 193 0
171 195 0
171 194 0
174 196 0
170 194 0
168 190 0
169 192 0
170 193 0
172 195 0
173 196 0
171 194 0
173 195 0
173 195 0
171 194 0
173 196 0
171 193 0
173 195 0
170 193 0
169 192 0
173 196 0
172 195 0
170 193 0
171 193 0
174 196 0
171 195 0
170 193 0
172 195 0
173 196 0
173 196 0
172 194 0
170 193 0
173 195 0
171 194 0
170 193 0
174 197 0
173 195 0
172 196 0
173 196 0
173 196 0
172 196 0
173 195 0
173 196 0
174 197 0
171 195 0
169 192 0
172 195 0
174 197 0
174 197 0
173 197 0
173 196 0
173 197 0
172 196 0
174 196 0
172 196 0
172 195 0
170 193 0
173 195 0
173 196 0
171 195 0
171 194 0
173 196 0
174 197 0
172 195 0
174 196 0
172 196 0
173 197 0
171 194 0
171 195 0
172 195 0
173 197 0
172 195 0
173 196 0
172 196 0
174 197 0
176 198 0
173 197 0
174 197 0
173 197 0
173 197 0
173 196 0
174 197 0
173 196 0
174 198 0
173 196 0
173 197 0
172 196 0
172 196 0
173 196 0
173 196 0
173 196 0
171 195 0
172 196 0
172 196 0
173 196 0
175 198 0
172 195 0
173 197 0
173 197 0
171 195 0
172 195 0
172 195 0
170 194 0
176 199 0
173 195 0
170 194 0
174 197 0
173 196 0
172 196 0
175 198 0
170 194 0
172 196 0
171 194 0
173 197 0
170 194 0
171 194 0
172 195 0
172 195 0
172 195 0
174 197 0
173 197 0
171 195 0
169 193 0
173 197 0
170 193 0
169 193 0
172 195 0
171 195 0
175 198 0
173 196 0
169 193 0
170 194 0
169 193 0
170 194 0
169 193 0
170 194 0
171 195 0
171 195 0
173 196 0
171 194 0
166 191 0
170 194 0
171 194 0
170 194 0
172 196 0
170 194 0
171 195 0
172 196 0
174 197 0
174 198 0
174 197 0
174 198 25
170 194 0
173 196 18
171 193 44
176 198 57
168 191 36
170 193 62
171 193 36
172 194 36
174 197 51
169 192 51
168 191 25
168 191 44
169 191 36
169 191 54
171 193 51
168 191 54
161 184 62
167 189 76
170 193 70
167 189 64
163 186 54
169 191 82
166 189 78
165 187 55
170 191 86
167 188 62
174 197 84
173 194 92
169 191 100
173 195 94
170 191 62
172 194 102
175 197 80
173 195 92
177 199 105
170 192 84
169 190 76
175 196 76
176 197 76
167 189 99
167 189 92
172 194 99
175 196 84
172 194 92
169 190 92
173 194 72
169 191 80
165 186 76
171 194 84
165 187 76
167 189 84
168 189 72
167 188 76
168 190 80
169 190 92
167 188 62
165 186 67
160 182 76
167 188 84
165 186 62
168 188 76
157 178 62
165 187 57
164 185 62
167 188 76
166 187 62
160 182 67
169 190 80
161 182 51
159 180 44
156 177 36
167 188 67
160 182 44
167 189 25
161 183 25
157 180 36
165 187 44
161 183 25
166 189 25
163 186 44
163 186 0
158 180 0
152 176 0
161 184 0
154 177 0
163 186 0
157 179 0
157 179 0
159 181 0
152 174 0
148 170 0
149 172 0
149 172 0
152 174 0
150 171 0
145 166 0
149 171 0
154 176 0
157 179 0
161 183 0
156 179 0
154 176 0
147 169 0
159 181 0
155 177 0
157 180 0
151 173 0
158 179 0
156 179 0
152 173 0
156 178 0
150 172 0
159 181 0
152 175 0
156 178 0
151 173 0
153 175 0
156 178 0
148 170 0
159 181 0
153 175 0
153 176 0
157 180 0
156 178 0
154 177 0
156 178 0
153 175 0
144 167 0
156 178 0
153 175 0
160 181 0
156 179 0
157 179 0
153 176 0
156 179 0
158 181 0
148 171 0
159 181 0
152 174 0
160 183 0
161 185 0
156 178 0
150 173 0
154 177 0
163 185 0
156 177 0
161 184 0
155 179 0
161 183 0
161 183 0
159 181 0
156 179 0
156 178 0
156 178 0
157 179 0
163 187 0
161 182 0
165 188 0
162 184 0
161 184 0
162 186 0
165 186 0
164 186 0
168 191 0
162 184 0
159 182 0
158 181 0
163 185 0
161 184 0
163 186 0
164 187 0
164 186 0
163 186 0
166 189 0
159 181 0
160 183 0
163 185 0
164 188 0
164 187 0
159 181 0
162 184 0
162 185 0
162 185 0
167 190 0
161 183 0
163 186 0
163 186 0
164 186 0
169 191 0
166 188 0
165 188 0
161 182 0
163 184 0
164 187 0
169 192 0
166 189 0
165 188 0
163 185 0
165 188 0
165 187 0
164 187 0
167 191 0
166 189 0
171 193 0
166 189 0
165 188 0
166 189 0
170 193 0
167 189 0
169 192 0
166 189 0
165 187 0
169 191 0
164 187 0
170 193 0
167 191 0
169 191 0
170 192 0
169 191 0
170 193 0
168 191 0
168 193 0
170 192 0
170 193 0
169 192 0
172 196 0
172 194 0
169 192 0
168 191 0
170 192 0
170 193 0
169 193 0
170 192 0
172 195 0
167 189 0
168 192 0
170 193 0
168 190 0
168 192 0
168 191 0
173 196 0
168 191 0
172 195 0
172 195 0
168 190 0
168 191 0
170 192 0
169 191 0
171 194 0
171 194 0
173 196 0
172 194 0
171 193 0
173 196 0
171 194 0
170 193 0
173 194 0
170 193 0
171 195 0
170 194 0
170 194 0
169 192 0
172 196 0
169 193 0
174 197 0
172 196 0
171 195 0
168 192 0
172 195 0
169 193 0
169 193 0
172 196 0
173 197 0
172 195 0
169 191 0
174 197 0
170 193 0
173 195 0
173 196 0
172 194 0
172 195 0
171 194 0
172 195 0
171 194 0
171 195 0
172 195 0
173 197 0
171 194 0
172 195 0
173 196 0
170 193 0
175 197 0
170 193 0
173 196 0
173 197 0
171 193 0
171 194 0
173 196 0
170 193 0
173 196 0
174 197 0
171 194 0
173 197 0
173 197 0
172 196 0
174 198 0
174 197 0
173 197 0
172 195 0
172 195 0
173 196 0
173 197 0
173 195 0
174 197 0
174 196 0
174 198 0
174 197 0
170 194 0
173 197 0
174 198 0
174 198 0
173 196 0
171 195 0
172 196 0
170 194 0
173 196 0
173 196 0
172 195 0
171 195 0
173 197 0
173 197 0
174 198 0
170 194 0
171 195 0
170 194 0
174 198 0
172 195 0
172 195 0
174 197 0
175 198 0
174 198 0
171 195 0
173 197 0
175 198 0
173 196 0
169 192 0
173 197 0
171 195 0
174 197 0
173 197 0
171 195 0
172 196 0
172 196 0
173 197 0
170 194 0
172 195 0
171 195 0
171 194 0
173 197 0
174 197 0
174 198 0
172 196 0
173 196 0
173 196 0
172 195 0
171 194 0
172 196 0
174 197 0
174 197 0
171 194 0
172 195 0
172 195 0
172 195 0
171 195 0
171 194 0
174 197 0
173 196 0
170 193 0
172 196 0
172 195 0
169 193 0
171 195 0
173 196 0
172 195 0
172 196 0
171 194 0
171 193 0
168 192 0
175 198 0
171 195 0
167 190 0
171 196 0
171 195 0
172 196 0
171 195 0
171 194 0
170 193 0
173 196 0
174 197 0
171 194 0
173 196 0
172 196 0
171 195 0
171 194 25
171 195 18
168 191 18
171 193 44
167 191 36
169 192 36
171 194 36
168 191 25
173 195 44
165 188 40
171 193 60
170 192 54
165 188 65
169 190 57
168 190 60
171 193 78
171 193 62
170 192 82
168 191 40
167 190 51
161 182 70
169 192 40
171 192 78
167 188 90
169 191 84
175 197 67
173 194 79
167 189 51
176 197 107
173 195 84
171 193 70
172 194 88
172 194 99
175 196 67
175 196 92
173 195 102
171 193 92
173 194 76
173 194 95
176 197 105
168 191 80
170 191 76
173 194 95
172 192 88
169 191 76
163 185 67
165 188 84
162 184 76
172 193 72
164 186 67
169 190 72
164 186 80
162 183 62
168 189 92
160 180 67
164 185 72
160 181 62
171 192 62
167 188 62
163 184 62
160 181 57
164 185 57
163 185 72
170 191 80
165 187 72
160 181 62
162 183 76
158 179 57
161 183 62
153 175 44
159 181 36
158 180 44
156 178 51
166 188 36
160 182 36
162 185 25
160 183 0
156 178 0
162 185 25
165 188 0
165 187 0
162 184 0
162 184 0
163 186 0
160 182 0
150 173 0
153 176 0
158 181 0
153 176 0
159 181 0
151 173 0
150 172 0
157 178 0
147 169 0
146 167 0
153 175 0
151 173 0
153 174 0
151 174 0
149 171 0
150 171 0
151 174 0
149 171 0
149 171 0
157 179 0
152 175 0
152 174 0
155 176 0
148 171 0
155 178 0
156 179 0
154 177 0
157 179 0
162 185 0
151 174 0
157 181 0
158 181 0
149 171 0
145 168 0
154 176 0
152 176 0
153 175 0
152 175 0
148 171 0
154 177 0
153 174 0
156 180 0
160 182 0
155 178 0
156 178 0
155 178 0
156 180 0
159 181 0
156 180 0
158 180 0
163 186 0
156 179 0
155 178 0
158 181 0
160 183 0
161 185 0
156 178 0
165 188 0
162 185 0
161 184 0
161 183 0
166 187 0
161 184 0
163 186 0
162 184 0
159 182 0
164 187 0
162 184 0
157 180 0
161 184 0
159 181 0
161 184 0
163 185 0
160 183 0
158 181 0
159 180 0
166 189 0
161 182 0
163 186 0
157 179 0
160 183 0
160 182 0
163 186 0
169 192 0
162 185 0
164 187 0
166 187 0
167 190 0
164 187 0
168 190 0
165 187 0
167 191 0
165 187 0
161 183 0
163 187 0
165 187 0
168 189 0
167 190 0
165 186 0
166 189 0
169 191 0
166 190 0
164 187 0
165 188 0
167 190 0
165 187 0
168 192 0
168 190 0
164 189 0
166 188 0
169 191 0
168 190 0
168 191 0
165 188 0
165 188 0
169 191 0
169 192 0
164 186 0
166 190 0
170 191 0
167 191 0
168 191 0
165 188 0
169 192 0
169 192 0
170 192 0
169 192 0
169 191 0
166 190 0
165 187 0
170 193 0
169 193 0
172 194 0
169 191 0
167 189 0
167 190 0
165 188 0
169 191 0
168 191 0
165 186 0
171 194 0
167 189 0
168 190 0
171 194 0
171 193 0
169 192 0
169 192 0
168 191 0
168 191 0
171 194 0
170 193 0
170 193 0
172 195 0
171 194 0
168 191 0
169 191 0
172 196 0
173 195 0
168 192 0
168 192 0
172 194 0
170 193 0
170 193 0
173 195 0
171 194 0
173 196 0
172 196 0
170 194 0
173 196 0
173 195 0
169 192 0
172 194 0
171 194 0
172 196 0
170 194 0
172 194 0
172 195 0
166 188 0
171 194 0
174 197 0
174 196 0
175 198 0
173 196 0
171 195 0
174 196 0
173 196 0
168 191 0
171 195 0
172 196 0
171 194 0
171 195 0
175 198 0
171 194 0
171 194 0
171 196 0
172 194 0
170 194 0
172 195 0
172 195 0
173 197 0
172 195 0
173 197 0
171 194 0
171 195 0
173 196 0
171 194 0
173 196 0
173 196 0
174 196 0
173 196 0
173 196 0
174 197 0
174 196 0
174 197 0
168 191 0
173 195 0
172 196 0
171 194 0
174 197 0
174 196 0
174 197 0
173 197 0
173 196 0
171 194 0
171 195 0
173 196 0
172 195 0
174 197 0
174 197 0
174 197 0
172 196 0
172 196 0
174 197 0
173 197 0
173 196 0
174 197 0
172 196 0
174 197 0
174 198 0
171 194 0
174 198 0
171 196 0
172 195 0
171 195 0
173 197 0
171 195 0
174 198 0
173 197 0
174 197 0
172 196 0
172 195 0
173 197 0
172 195 0
174 197 0
174 197 0
172 196 0
171 195 0
174 197 0
173 197 0
173 197 0
173 196 0
172 196 0
174 197 0
174 197 0
173 197 0
175 198 0
173 197 0
171 196 0
173 196 0
172 196 0
170 194 0
173 196 0
173 197 0
172 195 0
170 193 0
172 196 0
173 196 0
173 196 0
172 196 0
173 197 0
170 194 0
172 196 0
171 195 0
172 196 0
171 195 0
171 194 0
172 196 0
171 195 0
174 196 0
174 197 0
170 194 0
172 195 0
172 195 0
173 197 0
169 192 0
172 196 0
172 195 0
172 194 0
169 192 0
173 196 0
170 193 0
167 191 0
171 195 0
170 194 0
174 197 0
174 197 0
175 198 0
174 197 0
173 196 0
172 195 0
172 195 0
171 194 0
170 193 0
173 196 0
172 195 18
173 196 0
174 196 0
169 192 31
169 192 25
167 190 25
171 194 47
170 193 0
166 188 31
168 191 44
171 193 70
168 191 57
165 188 60
167 190 51
175 197 65
164 187 54
166 188 67
162 185 57
175 197 62
171 193 36
169 190 57
171 193 54
171 193 60
170 191 67
171 193 67
160 183 44
170 192 67
170 191 78
176 198 72
175 196 65
177 198 90
178 200 95
175 196 108
172 194 84
172 195 105
171 194 72
170 192 51
171 192 67
171 192 88
167 189 80
173 195 92
170 191 67
171 192 72
171 192 80
171 192 80
172 194 99
166 187 76
166 188 92
170 191 76
165 187 95
172 193 95
168 188 67
166 187 72
171 193 92
167 189 88
163 184 44
166 187 57
157 179 67
162 183 62
163 184 76
168 189 62
171 192 92
164 185 62
168 189 84
172 192 44
165 186 72
165 186 57
159 181 57
165 187 57
165 186 57
161 183 44
166 187 51
166 188 62
160 182 25
157 180 36
163 186 0
162 185 25
165 188 0
164 186 0
166 189 0
164 187 0
162 185 0
163 186 0
165 188 0
152 175 0
160 182 0
156 177 0
157 180 0
157 179 0
154 176 0
152 175 0
154 176 0
143 165 0
157 180 0
159 182 0
164 186 0
151 174 0
147 169 0
152 174 0
157 180 0
157 180 0
152 174 0
155 177 0
155 178 0
147 170 0
156 179 0
156 177 0
145 167 0
150 172 0
155 178 0
151 173 0
156 179 0
152 175 0
155 177 0
145 167 0
145 168 0
148 171 0
156 179 0
158 181 0
158 181 0
160 183 0
156 178 0
150 172 0
158 181 0
158 180 0
155 177 0
157 180 0
162 185 0
157 181 0
152 173 0
154 179 0
159 180 0
157 179 0
158 182 0
149 171 0
159 181 0
160 182 0
164 186 0
156 179 0
158 181 0
164 188 0
161 184 0
159 181 0
160 183 0
163 185 0
164 188 0
160 183 0
161 183 0
157 179 0
156 178 0
161 184 0
164 188 0
163 186 0
159 181 0
163 186 0
165 189 0
164 186 0
155 176 0
166 189 0
161 184 0
163 185 0
164 186 0
162 185 0
164 186 0
166 189 0
160 182 0
161 184 0
163 186 0
165 189 0
164 186 0
160 181 0
164 187 0
161 183 0
164 187 0
165 188 0
158 180 0
166 188 0
167 190 0
158 182 0
170 193 0
163 185 0
164 187 0
162 184 0
163 185 0
166 189 0
165 187 0
165 187 0
166 188 0
164 187 0
167 190 0
168 190 0
167 190 0
169 191 0
166 189 0
165 187 0
163 187 0
163 185 0
162 185 0
165 188 0
167 189 0
168 191 0
167 190 0
167 190 0
167 191 0
167 190 0
168 190 0
168 191 0
168 191 0
168 189 0
169 192 0
167 190 0
169 190 0
168 191 0
170 193 0
167 189 0
169 192 0
171 194 0
172 194 0
172 195 0
163 186 0
171 194 0
172 196 0
169 191 0
170 192 0
169 193 0
171 194 0
168 192 0
172 194 0
171 193 0
168 191 0
170 194 0
172 195 0
168 192 0
169 191 0
173 196 0
173 196 0
170 193 0
170 194 0
171 194 0
168 191 0
171 194 0
170 194 0
171 193 0
174 196 0
171 193 0
170 193 0
172 194 0
165 188 0
171 194 0
169 193 0
169 192 0
170 192 0
170 193 0
169 192 0
171 193 0
172 195 0
173 197 0
172 196 0
169 192 0
169 192 0
172 196 0
170 193 0
173 195 0
173 196 0
173 195 0
171 194 0
172 195 0
171 194 0
171 194 0
173 197 0
170 193 0
169 193 0
173 196 0
172 196 0
172 196 0
173 195 0
174 196 0
171 194 0
171 193 0
172 195 0
173 196 0
173 196 0
173 196 0
171 194 0
172 196 0
173 195 0
174 197 0
173 196 0
175 197 0
172 195 0
171 195 0
171 195 0
171 195 0
174 197 0
170 193 0
173 196 0
173 196 0
174 197 0
173 196 0
174 197 0
174 198 0
174 197 0
170 193 0
173 196 0
171 195 0
173 196 0
173 196 0
175 198 0
172 197 0
172 195 0
176 198 0
172 196 0
169 193 0
175 198 0
174 197 0
173 196 0
171 195 0
172 195 0
174 197 0
174 197 0
173 196 0
174 197 0
172 196 0
174 197 0
173 196 0
171 195 0
171 195 0
174 197 0
172 196 0
173 197 0
171 195 0
172 195 0
173 196 0
172 196 0
174 197 0
171 195 0
173 196 0
173 197 0
171 194 0
171 195 0
173 196 0
174 198 0
172 196 0
171 195 0
172 196 0
173 196 0
173 197 0
174 197 0
176 198 0
174 197 0
173 197 0
172 195 0
172 196 0
169 192 0
171 196 0
173 196 0
171 195 0
173 196 0
173 196 0
174 198 0
172 196 0
172 196 0
173 197 0
172 195 0
173 196 0
173 196 0
172 196 0
173 197 0
168 192 0
172 196 0
172 196 0
171 194 0
171 195 0
171 195 0
168 192 0
171 195 0
164 188 0
171 195 0
170 194 0
172 195 0
171 194 0
170 193 0
171 194 0
169 192 0
172 195 0
173 196 0
170 193 0
172 195 0
171 194 0
175 197 0
170 194 0
167 191 0
167 191 0
171 194 0
173 196 0
171 195 0
174 197 0
173 197 0
173 197 0
174 196 0
174 197 0
171 194 0
171 194 0
173 196 0
169 192 0
169 193 31
167 191 0
172 195 36
165 189 25
171 194 0
163 186 25
174 196 40
169 191 47
166 189 47
172 195 51
170 192 44
165 188 36
173 196 60
168 191 70
167 189 51
167 189 44
170 192 47
164 187 67
168 189 67
171 193 57
173 194 72
169 192 60
175 196 78
173 195 74
171 192 74
175 197 62
175 197 92
173 194 78
173 195 62
171 192 72
175 196 95
171 192 67
171 194 80
171 192 72
176 197 108
167 188 67
172 194 88
169 190 84
175 195 88
170 192 84
167 189 84
160 183 67
167 188 62
170 191 62
161 182 84
168 189 76
165 187 92
167 188 88
163 186 88
162 184 76
170 191 76
171 192 72
173 194 84
164 184 67
163 184 36
166 187 51
166 186 80
164 185 57
168 189 57
172 193 84
170 190 67
166 188 72
161 182 51
163 184 57
162 184 44
164 186 67
157 178 25
159 182 25
164 187 25
164 186 25
166 188 25
163 186 25
166 189 36
162 185 0
164 186 0
166 189 0
162 184 0
151 174 0
159 182 0
154 176 0
159 181 0
149 171 0
156 178 0
158 180 0
157 180 0
153 176 25
154 176 0
148 170 0
160 183 0
152 174 0
156 179 0
153 175 0
162 184 0
156 178 0
157 180 0
158 180 0
150 172 0
154 176 0
156 179 0
161 184 0
154 176 0
153 175 0
153 175 0
155 178 0
155 178 0
151 174 0
150 172 0
152 174 0
158 180 0
148 171 0
153 176 0
153 175 0
157 180 0
163 187 0
155 177 0
147 170 0
157 179 0
161 183 0
151 173 0
161 184 0
153 175 0
153 176 0
154 177 0
149 172 0
154 177 0
160 184 0
154 177 0
161 182 0
163 186 0
157 179 0
154 176 0
159 182 0
156 179 0
161 184 0
159 182 0
160 183 0
157 180 0
153 176 0
159 182 0
160 182 0
161 185 0
164 187 0
159 182 0
159 182 0
157 180 0
159 182 0
160 182 0
162 185 0
162 185 0
162 186 0
167 190 0
158 180 0
161 184 0
159 182 0
157 180 0
160 182 0
164 187 0
165 188 0
161 183 0
167 189 0
166 188 0
166 189 0
157 180 0
164 186 0
161 184 0
161 184 0
164 187 0
163 185 0
163 186 0
163 186 0
163 186 0
166 189 0
163 186 0
165 187 0
166 187 0
164 186 0
167 191 0
165 188 0
166 188 0
164 187 0
165 188 0
166 189 0
163 186 0
167 190 0
168 192 0
168 191 0
163 186 0
166 188 0
166 189 0
166 188 0
163 186 0
166 189 0
167 191 0
170 192 0
168 191 0
170 193 0
168 190 0
169 192 0
168 189 0
165 189 0
166 188 0
162 186 0
166 188 0
169 192 0
171 194 0
164 187 0
169 191 0
168 191 0
169 192 0
170 193 0
171 193 0
171 194 0
170 193 0
167 190 0
170 193 0
170 193 0
169 192 0
170 192 0
171 194 0
169 192 0
169 193 0
172 195 0
171 194 0
172 194 0
168 191 0
171 194 0
169 191 0
172 195 0
167 191 0
169 192 0
173 195 0
172 195 0
172 194 0
171 194 0
171 194 0
172 194 0
172 193 0
173 196 0
173 196 0
171 195 0
172 195 0
171 195 0
170 194 0
171 194 0
171 194 0
167 191 0
171 193 0
168 191 0
171 194 0
169 193 0
171 194 0
172 196 0
169 192 0
171 194 0
174 197 0
170 194 0
169 193 0
175 197 0
170 193 0
171 194 0
172 195 0
174 197 0
173 195 0
171 195 0
174 197 0
169 192 0
170 194 0
171 193 0
168 192 0
170 194 0
172 196 0
172 195 0
172 196 0
170 194 0
173 196 0
171 193 0
173 196 0
170 193 0
173 196 0
172 194 0
173 196 0
173 196 0
172 195 0
170 193 0
171 194 0
172 196 0
173 197 0
173 196 0
174 197 0
173 196 0
173 197 0
172 196 0
173 196 0
173 196 0
171 194 0
174 197 0
173 196 0
174 197 0
171 195 0
173 196 0
173 196 0
174 197 0
174 197 0
173 196 0
174 198 0
173 196 0
173 197 0
174 197 0
173 196 0
173 196 0
172 196 0
174 197 0
174 197 0
175 198 0
172 195 0
172 196 0
174 197 0
173 197 0
172 195 0
175 198 0
172 196 0
173 197 0
172 196 0
171 195 0
173 197 0
172 196 0
172 196 0
173 196 0
174 197 0
174 197 0
172 197 0
173 196 0
173 196 0
175 198 0
173 197 0
175 198 0
174 197 0
171 195 0
173 196 0
173 197 0
173 196 0
173 196 0
174 197 0
175 198 0
172 196 0
174 198 0
172 196 0
171 195 0
174 197 0
172 196 0
170 193 0
174 197 0
169 193 0
171 195 0
174 197 0
172 196 0
174 197 0
172 196 0
174 197 0
171 195 0
171 194 0
171 194 0
170 194 0
173 196 0
171 195 0
172 195 0
172 196 0
171 195 0
168 191 0
170 194 0
169 192 0
174 197 0
172 195 0
171 195 0
170 194 0
172 196 0
175 198 0
171 195 0
174 197 0
171 195 0
170 193 0
172 195 0
170 194 0
172 196 0
173 196 0
172 196 0
173 196 0
171 193 0
175 197 0
174 197 0
173 196 0
172 195 0
172 196 0
171 195 0
171 195 18
174 197 0
172 195 25
173 196 0
171 194 25
170 193 0
172 196 44
172 194 25
167 190 40
173 195 25
168 191 40
174 196 51
168 191 31
168 191 25
165 188 62
162 186 40
170 192 36
169 191 47
171 193 40
163 186 55
160 183 31
175 197 51
172 194 51
173 195 40
170 191 65
166 188 65
171 193 82
166 188 60
169 189 88
169 191 82
177 198 80
176 198 103
174 195 76
173 194 82
169 191 62
171 193 80
172 193 95
171 193 105
171 193 102
172 193 88
171 191 80
171 192 84
172 193 84
170 191 80
169 190 67
171 193 72
166 186 72
167 188 67
170 190 57
168 190 84
168 190 72
165 186 62
165 186 80
169 190 67
168 190 76
165 187 88
171 192 57
164 186 88
166 188 84
165 187 72
166 187 72
172 193 80
167 188 80
164 185 72
162 183 57
167 189 67
163 184 51
169 191 67
168 189 57
163 186 44
166 188 36
156 178 0
161 183 36
166 187 51
162 184 25
164 186 0
155 177 25
163 185 36
162 185 0
161 184 0
163 185 0
162 185 0
154 177 0
166 189 0
158 182 0
159 182 0
156 178 0
156 178 0
154 176 0
160 182 0
160 183 0
162 185 0
156 178 0
154 176 0
157 179 0
158 180 0
151 173 0
153 175 0
150 172 0
156 178 0
159 181 0
162 184 0
152 174 0
159 182 0
159 181 0
161 183 0
154 177 0
149 171 0
159 181 0
163 186 0
159 180 0
160 182 0
149 170 0
161 183 0
155 178 0
159 181 0
154 178 0
159 181 0
160 183 0
159 183 0
150 173 0
156 180 0
161 184 0
160 182 0
160 183 0
161 184 0
152 175 0
158 182 0
159 183 0
155 179 0
158 180 0
162 186 0
156 179 0
162 185 0
159 181 0
162 184 0
160 183 0
161 185 0
156 179 0
160 182 0
163 185 0
155 177 0
158 181 0
163 185 0
155 177 0
160 181 0
152 175 0
165 188 0
160 182 0
156 177 0
162 185 0
160 183 0
155 177 0
158 182 0
161 185 0
163 185 0
164 187 0
164 187 0
159 182 0
158 181 0
162 185 0
163 187 0
162 186 0
163 186 0
158 180 0
166 189 0
168 191 0
166 189 0
163 185 0
164 188 0
165 187 0
169 192 0
163 186 0
164 187 0
165 187 0
168 191 0
164 187 0
167 190 0
165 187 0
166 189 0
168 193 0
164 187 0
168 190 0
165 189 0
166 189 0
159 182 0
167 189 0
169 192 0
167 191 0
167 188 0
166 188 0
165 189 0
173 195 0
165 187 0
167 190 0
169 193 0
172 194 0
164 187 0
168 189 0
170 193 0
169 191 0
166 188 0
169 193 0
164 189 0
168 192 0
171 195 0
168 191 0
167 191 0
160 184 0
171 194 0
167 190 0
165 189 0
170 191 0
167 190 0
168 191 0
168 191 0
169 191 0
169 192 0
173 196 0
167 189 0
167 189 0
168 191 0
169 194 0
170 193 0
167 190 0
170 193 0
172 195 0
169 191 0
169 192 0
171 193 0
170 192 0
170 192 0
171 194 0
164 187 0
171 194 0
172 195 0
169 191 0
170 192 0
170 193 0
169 193 0
171 193 0
166 189 0
170 193 0
174 197 0
170 193 0
172 195 0
170 192 0
170 192 0
172 195 0
170 193 0
172 194 0
170 193 0
169 192 0
172 195 0
171 194 0
170 194 0
172 195 0
170 193 0
170 193 0
170 193 0
171 194 0
170 192 0
174 197 0
171 194 0
173 195 0
170 193 0
171 194 0
173 196 0
173 196 0
171 194 0
171 195 0
172 196 0
171 193 0
173 195 0
172 195 0
172 196 0
171 194 0
172 196 0
174 196 0
172 196 0
170 193 0
172 196 0
172 195 0
171 194 0
171 193 0
173 196 0
171 195 0
173 195 0
174 196 0
171 194 0
172 195 0
172 196 0
172 196 0
170 194 0
171 194 0
171 194 0
172 195 0
170 193 0
172 195 0
170 193 0
173 196 0
173 196 0
172 196 0
173 197 0
173 196 0
172 196 0
174 198 0
174 198 0
171 194 0
174 197 0
173 196 0
172 195 0
171 195 0
174 197 0
173 197 0
172 196 0
173 196 0
172 196 0
173 196 0
174 197 0
174 197 0
174 197 0
174 197 0
172 196 0
174 197 0
174 197 0
173 197 0
172 195 0
172 196 0
172 195 0
173 197 0
173 197 0
174 197 0
172 196 0
172 197 0
172 196 0
174 197 0
172 194 0
173 197 0
172 196 0
175 198 0
173 197 0
172 196 0
172 196 0
171 194 0
172 196 0
173 197 0
172 195 0
171 195 0
171 195 0
172 196 0
174 197 0
171 194 0
172 196 0
172 196 0
172 196 0
174 197 0
171 195 0
174 197 0
171 195 0
173 197 0
170 194 0
173 196 0
172 195 0
171 195 0
172 195 0
177 199 0
173 197 0
170 193 0
171 194 0
171 194 0
172 195 0
171 196 0
171 194 0
172 195 0
173 196 0
171 195 0
173 197 0
174 197 0
170 193 0
172 196 0
170 193 0
171 195 0
167 191 0
172 194 0
168 191 0
168 191 0
169 193 0
173 197 0
171 196 0
172 194 0
172 195 0
172 196 0
174 198 0
172 196 0
171 195 0
173 197 0
173 196 0
172 196 0
171 195 0
174 197 0
173 196 0
174 197 25
173 197 0
171 193 18
170 194 18
173 196 0
167 190 31
172 195 36
167 190 54
170 193 0
172 195 44
166 189 31
166 189 31
169 192 25
170 193 31
168 191 31
169 191 31
173 195 40
165 187 44
168 190 47
165 187 40
169 191 18
163 185 51
168 190 31
172 193 60
165 188 54
172 194 67
172 194 51
170 192 86
166 189 80
170 191 80
173 195 67
171 193 80
179 200 95
171 192 67
175 196 72
178 199 76
173 195 72
170 192 80
172 194 80
171 192 72
173 194 84
172 193 80
170 192 80
168 189 72
168 189 62
168 189 57
168 190 80
165 186 67
174 195 88
163 184 62
166 188 72
167 188 76
166 187 62
160 181 67
165 186 72
169 191 72
163 184 51
172 193 92
163 184 62
171 191 72
164 184 62
167 188 62
168 189 67
164 185 57
164 186 57
166 187 62
171 192 62
160 183 57
163 186 44
168 190 62
163 185 25
167 190 25
163 185 36
163 186 25
162 185 0
162 185 0
168 190 0
163 185 0
158 181 0
161 184 0
160 182 0
163 185 0
156 178 0
157 179 0
155 176 0
150 172 0
156 177 0
151 172 0
154 176 0
158 180 0
158 180 0
154 176 0
162 183 0
158 181 0
156 179 0
151 174 0
156 179 0
161 183 0
161 183 0
163 186 0
155 177 0
156 178 0
154 177 0
158 181 0
163 186 0
151 174 0
157 179 0
157 180 0
157 181 0
160 183 0
155 178 0
150 173 0
160 183 0
159 182 0
157 180 0
147 169 0
162 185 0
164 187 0
155 177 0
161 185 0
163 186 0
156 178 0
163 186 0
152 174 0
154 177 0
151 174 0
152 175 0
154 177 0
158 180 0
156 179 0
155 178 0
151 174 0
163 184 0
155 178 0
155 179 0
161 184 0
154 177 0
159 181 0
161 184 0
161 185 0
161 183 0
162 185 0
157 180 0
164 185 0
164 186 0
161 184 0
162 185 0
159 181 0
161 183 0
159 182 0
164 187 0
165 187 0
164 187 0
161 183 0
160 182 0
165 187 0
159 183 0
167 190 0
157 180 0
164 188 0
155 178 0
162 185 0
161 184 0
163 186 0
162 185 0
164 185 0
169 191 0
165 187 0
159 182 0
158 180 0
164 187 0
167 189 0
164 187 0
161 183 0
162 184 0
163 187 0
163 187 0
162 183 0
167 191 0
166 188 0
167 191 0
167 190 0
166 187 0
161 184 0
167 189 0
164 186 0
168 191 0
171 193 0
170 194 0
169 191 0
165 188 0
168 190 0
167 190 0
170 194 0
171 195 0
165 187 0
165 189 0
169 191 0
170 193 0
169 192 0
166 190 0
164 187 0
170 193 0
169 193 0
167 189 0
168 189 0
164 186 0
168 191 0
168 189 0
172 193 0
165 189 0
167 190 0
168 191 0
167 189 0
170 192 0
168 192 0
168 191 0
171 194 0
168 191 0
169 193 0
171 194 0
169 192 0
173 196 0
166 188 0
173 196 0
170 194 0
168 191 0
170 194 0
170 191 0
167 189 0
167 190 0
168 191 0
172 194 0
171 193 0
170 193 0
169 192 0
171 193 0
171 194 0
174 197 0
170 192 0
170 193 0
170 194 0
173 196 0
171 195 0
168 192 0
173 196 0
174 196 0
170 194 0
173 195 0
172 196 0
172 196 0
168 192 0
173 197 0
171 193 0
171 193 0
172 196 0
171 193 0
171 194 0
171 194 0
172 196 0
171 195 0
170 194 0
172 195 0
170 193 0
170 194 0
172 195 0
172 196 0
172 194 0
170 193 0
174 197 0
171 194 0
172 193 0
175 197 0
173 196 0
172 195 0
171 194 0
171 195 0
173 197 0
174 197 0
173 196 0
174 197 0
171 194 0
174 198 0
173 196 0
172 196 0
172 196 0
172 196 0
173 196 0
173 196 0
171 194 0
172 196 0
175 198 0
170 193 0
173 196 0
173 196 0
174 197 0
171 195 0
173 197 0
172 195 0
174 197 0
173 196 0
174 197 0
172 196 0
172 195 0
172 194 0
172 196 0
171 194 0
171 194 0
171 195 0
172 196 0
173 196 0
173 195 0
174 198 0
173 197 0
174 197 0
170 195 0
173 197 0
174 197 0
173 196 0
174 197 0
173 196 0
172 196 0
172 195 0
172 196 0
174 197 0
173 197 0
172 196 0
172 196 0
173 196 0
173 197 0
171 195 0
174 198 0
174 198 0
175 198 0
172 196 0
174 197 0
173 196 0
171 194 0
173 197 0
174 197 0
171 195 0
173 196 0
173 196 0
171 195 0
170 194 0
173 196 0
174 198 0
174 197 0
172 196 0
173 196 0
172 196 0
173 196 0
172 195 0
174 198 0
174 197 0
171 194 0
173 196 0
171 194 0
172 195 0
167 191 0
171 195 0
170 195 0
171 194 0
172 196 0
173 196 0
172 196 0
173 197 0
171 195 0
168 192 0
174 197 0
173 196 0
173 197 0
173 197 0
173 196 0
174 197 0
172 195 0
172 196 0
170 194 0
168 191 0
173 196 0
170 194 0
173 197 0
172 195 0
175 198 0
173 196 0
172 195 0
173 196 0
174 196 0
169 192 0
171 195 0
169 193 0
174 197 0
169 193 0
173 196 0
172 196 0
174 197 0
173 196 0
173 196 0
172 196 0
173 197 0
169 194 0
172 195 0
169 192 0
172 196 25
172 196 0
172 196 0
166 188 36
168 191 36
168 191 25
171 193 0
171 194 31
170 193 40
171 192 36
169 190 51
167 190 57
168 190 47
170 193 25
170 191 76
166 188 51
168 190 36
162 184 62
166 187 72
170 192 51
172 194 62
171 193 54
172 194 65
169 190 67
172 193 54
173 194 66
173 194 62
170 192 78
173 194 78
176 196 67
170 191 67
174 196 72
174 196 67
163 185 57
172 193 84
173 195 88
172 194 57
172 193 67
170 192 57
168 191 88
163 185 76
170 191 76
170 192 88
173 194 51
166 187 76
170 191 67
166 187 62
163 184 67
172 194 84
170 191 84
169 192 92
166 187 88
167 188 84
169 190 84
164 185 72
168 189 51
170 192 76
171 193 72
164 185 36
170 192 67
167 188 72
166 187 51
169 192 57
166 188 62
163 185 44
166 189 0
166 189 25
166 188 36
164 185 25
169 191 25
161 184 0
166 189 36
170 193 0
164 187 25
165 187 0
160 183 0
162 186 0
163 185 0
164 185 0
158 180 0
161 183 0
155 177 25
159 180 0
165 186 0
161 184 0
158 181 0
157 179 0
149 170 0
156 177 0
160 183 0
154 175 0
157 180 0
158 181 0
163 186 0
153 173 0
156 178 0
161 184 0
158 181 0
153 175 0
159 181 0
159 181 0
159 182 0
154 176 0
156 178 0
157 180 0
158 181 0
153 176 0
157 180 0
162 185 0
158 182 0
163 185 0
155 179 0
157 180 0
157 180 0
158 181 0
156 179 0
158 182 0
156 179 0
159 182 0
164 187 0
162 184 0
157 178 0
155 178 0
161 184 0
155 177 0
154 177 0
161 183 0
156 179 0
156 179 0
162 186 0
160 183 0
152 176 0
167 191 0
159 182 0
164 187 0
162 186 0
159 182 0
155 179 0
168 191 0
155 179 0
155 178 0
162 186 0
159 182 0
157 181 0
161 185 0
165 189 0
163 186 0
165 187 0
165 187 0
164 187 0
160 183 0
154 178 0
167 190 0
158 181 0
161 183 0
162 185 0
163 185 0
164 187 0
166 189 0
168 191 0
166 189 0
160 183 0
161 182 0
161 183 0
162 184 0
166 189 0
160 181 0
165 187 0
166 190 0
166 189 0
167 189 0
161 184 0
167 190 0
158 181 0
165 189 0
161 185 0
162 184 0
166 189 0
163 186 0
166 188 0
167 191 0
166 187 0
167 191 0
166 190 0
167 190 0
166 190 0
167 189 0
170 193 0
168 191 0
167 190 0
165 188 0
165 188 0
169 193 0
169 193 0
170 193 0
170 194 0
168 192 0
164 187 0
165 188 0
169 191 0
167 191 0
162 185 0
165 188 0
167 191 0
168 191 0
166 189 0
169 192 0
167 191 0
169 192 0
169 191 0
165 188 0
170 192 0
170 193 0
166 188 0
168 191 0
170 193 0
170 192 0
169 192 0
167 191 0
168 190 0
171 193 0
168 191 0
170 193 0
167 189 0
166 189 0
173 195 0
168 192 0
167 190 0
170 193 0
171 193 0
168 192 0
168 191 0
172 194 0
171 195 0
168 190 0
170 193 0
168 191 0
168 191 0
169 192 0
169 192 0
168 191 0
171 194 0
171 193 0
170 193 0
170 193 0
171 194 0
171 193 0
171 194 0
168 191 0
172 196 0
171 194 0
170 194 0
172 195 0
171 193 0
171 194 0
171 194 0
171 195 0
172 196 0
171 194 0
172 195 0
171 195 0
169 193 0
171 195 0
170 193 0
172 194 0
171 195 0
170 194 0
171 194 0
170 193 0
170 194 0
169 192 0
170 192 0
173 195 0
171 194 0
171 194 0
172 195 0
172 195 0
172 197 0
171 194 0
170 194 0
169 193 0
172 195 0
171 194 0
174 196 0
171 195 0
171 195 0
171 195 0
173 196 0
172 195 0
175 198 0
171 195 0
173 196 0
171 195 0
173 196 0
172 195 0
172 196 0
172 195 0
172 195 0
174 197 0
174 197 0
172 195 0
172 195 0
173 196 0
174 197 0
172 195 0
173 197 0
171 195 0
173 197 0
173 196 0
174 196 0
174 196 0
174 197 0
176 198 0
173 196 0
173 196 0
175 198 0
174 197 0
172 196 0
174 198 0
173 196 0
173 197 0
173 196 0
172 196 0
175 198 0
172 196 0
172 196 0
173 197 0
172 196 0
172 195 0
173 196 0
173 197 0
172 195 0
173 196 0
174 197 0
172 196 0
172 196 0
173 196 0
172 196 0
172 196 0
171 195 0
172 196 0
174 198 0
172 195 0
172 196 0
168 192 0
171 194 0
169 193 0
174 197 0
174 197 0
173 196 0
174 197 0
174 197 0
173 196 0
174 197 0
172 196 0
173 196 0
172 196 0
172 195 0
173 196 0
171 194 0
172 195 0
172 196 0
173 197 0
174 197 0
172 195 0
171 195 0
174 197 0
174 197 0
173 196 0
173 196 0
172 196 0
169 193 0
174 197 0
173 196 0
171 195 0
172 195 0
170 193 0
172 196 0
166 189 0
169 193 0
172 195 0
171 195 0
170 193 0
168 192 0
170 194 0
170 193 0
174 197 0
169 192 0
173 196 0
171 194 0
172 195 0
172 196 0
173 196 0
173 197 0
174 198 0
171 195 0
169 193 0
169 193 0
168 192 0
173 196 18
171 194 0
173 196 25
170 193 0
173 196 0
170 193 18
171 193 47
174 196 40
165 189 0
172 195 40
171 194 25
169 192 40
171 193 40
176 198 44
168 191 40
172 194 54
170 192 25
167 188 54
169 191 44
171 193 51
173 195 25
173 194 57
166 187 40
171 193 60
175 195 47
173 194 65
169 191 65
172 194 51
172 194 72
172 194 72
168 191 76
175 195 84
172 193 67
176 197 84
171 192 51
175 196 62
173 194 88
170 191 57
173 194 80
169 190 76
167 188 67
169 191 84
168 190 72
168 189 80
169 190 80
166 188 51
170 192 80
171 192 76
168 189 76
170 191 76
165 186 76
171 192 57
173 195 67
164 185 67
171 192 80
166 187 76
174 196 80
171 192 72
169 190 57
165 186 80
165 187 57
170 192 67
164 186 57
163 184 51
165 187 44
165 187 44
166 189 36
163 184 57
167 190 25
164 187 25
169 191 0
166 189 0
156 178 0
163 186 0
168 190 0
170 193 0
160 182 0
166 189 0
163 185 0
161 183 0
161 183 0
155 178 0
158 180 0
164 187 0
160 181 0
153 176 0
163 186 0
154 175 0
159 181 0
159 181 0
154 177 0
163 185 0
159 181 0
159 182 0
158 181 0
157 179 0
152 175 0
157 180 0
160 182 0
156 179 0
158 181 0
150 172 0
156 179 0
156 179 0
157 180 0
161 185 0
152 175 0
165 187 0
160 183 0
154 177 0
157 179 0
155 178 0
151 173 0
152 175 0
155 177 0
160 182 0
157 181 0
160 181 0
156 179 0
157 178 0
155 178 0
156 179 0
164 187 0
157 180 0
159 180 0
159 180 0
155 179 0
159 183 0
163 186 0
156 179 0
154 176 0
158 180 0
162 185 0
164 187 0
160 183 0
152 175 0
163 185 0
152 175 0
160 184 0
156 180 0
165 187 0
159 181 0
159 182 0
170 193 0
161 184 0
164 187 0
162 184 0
164 187 0
170 193 0
161 183 0
160 184 0
163 186 0
160 183 0
163 185 0
167 191 0
161 184 0
164 187 0
167 190 0
161 183 0
166 187 0
163 187 0
164 187 0
163 186 0
163 185 0
164 187 0
162 184 0
170 192 0
160 183 0
163 186 0
165 188 0
167 188 0
166 190 0
166 189 0
164 188 0
168 191 0
162 185 0
165 188 0
165 188 0
168 191 0
168 190 0
163 186 0
167 190 0
167 190 0
168 190 0
166 187 0
164 186 0
165 188 0
171 194 0
165 188 0
165 189 0
166 189 0
170 193 0
164 187 0
166 188 0
170 192 0
166 189 0
171 194 0
165 187 0
166 189 0
168 190 0
168 193 0
168 191 0
170 193 0
168 191 0
165 188 0
170 194 0
170 193 0
171 193 0
168 190 0
168 191 0
169 192 0
169 193 0
168 192 0
169 191 0
169 192 0
171 194 0
172 195 0
170 193 0
170 193 0
169 192 0
168 192 0
170 194 0
168 191 0
171 193 0
168 190 0
169 191 0
170 194 0
166 188 0
168 191 0
170 195 0
167 190 0
168 191 0
168 191 0
170 192 0
169 191 0
170 192 0
171 193 0
171 195 0
167 190 0
172 195 0
173 195 0
170 193 0
170 194 0
165 189 0
171 194 0
169 193 0
171 193 0
172 195 0
170 193 0
173 196 0
169 192 0
170 192 0
171 193 0
172 196 0
169 192 0
170 193 0
170 191 0
172 195 0
171 194 0
170 193 0
172 196 0
173 196 0
173 195 0
173 196 0
170 193 0
172 196 0
172 195 0
171 194 0
174 197 0
172 195 0
171 194 0
173 196 0
172 195 0
171 195 0
171 194 0
174 198 0
175 198 0
170 194 0
173 195 0
172 194 0
170 193 0
171 194 0
170 193 0
174 197 0
172 196 0
173 196 0
173 196 0
172 195 0
174 197 0
172 195 0
174 198 0
174 197 0
172 194 0
172 196 0
173 197 0
173 197 0
172 196 0
173 197 0
172 195 0
173 196 0
173 197 0
174 197 0
169 193 0
170 193 0
174 198 0
175 198 0
172 196 0
175 198 0
173 197 0
170 193 0
171 195 0
174 198 0
174 197 0
172 196 0
175 198 0
173 196 0
172 196 0
173 197 0
173 196 0
172 196 0
175 198 0
174 197 0
173 197 0
173 197 0
174 197 0
174 197 0
173 196 0
172 196 0
175 198 0
172 196 0
171 195 0
174 197 0
171 195 0
171 195 0
173 196 0
173 196 0
172 196 0
173 197 0
173 196 0
170 193 0
172 195 0
172 196 0
170 194 0
172 195 0
172 195 0
173 196 0
172 195 0
170 194 0
174 198 0
172 195 0
170 194 0
172 196 0
173 196 0
172 195 0
171 195 0
169 193 0
173 196 0
174 196 0
168 192 0
169 192 0
171 195 0
172 196 0
172 197 0
172 196 0
169 193 0
172 196 0
168 192 0
172 195 0
167 190 0
173 196 0
170 194 0
173 197 0
172 196 0
173 196 0
170 194 0
169 193 0
173 195 0
170 194 0
173 196 0
171 195 0
172 195 0
170 194 0
174 198 0
172 194 0
170 193 0
172 196 0
169 193 0
167 191 0
171 194 0
169 192 0
172 196 0
173 197 0
171 195 0
171 195 0
174 198 0
171 194 0
173 196 0
174 198 0
171 194 0
172 195 0
172 196 0
172 194 0
169 193 18
170 194 31
171 195 0
172 195 0
172 196 0
171 194 31
174 196 51
170 192 25
170 192 31
173 194 31
171 194 36
171 194 31
165 188 51
167 190 47
171 192 36
167 189 36
169 192 57
170 192 57
172 193 65
172 193 44
169 192 67
174 196 60
170 192 70
174 197 78
171 193 60
170 191 40
171 193 62
176 197 72
172 193 76
174 195 84
173 194 62
178 199 72
174 195 62
170 192 88
171 193 67
168 189 57
169 190 57
171 192 72
167 190 51
172 193 76
172 194 80
167 189 67
168 191 84
167 190 67
170 192 76
165 185 67
173 193 72
172 192 84
170 192 62
169 191 62
168 190 67
171 192 72
168 190 62
168 189 84
171 192 72
171 191 51
168 189 62
172 192 72
172 194 80
169 189 72
165 186 36
163 184 25
166 189 36
161 183 0
159 181 51
164 187 0
167 189 25
165 188 0
160 182 25
162 185 25
166 188 0
161 184 0
166 188 0
164 187 0
165 188 0
167 189 0
165 187 0
159 181 0
161 183 0
161 183 0
162 185 0
157 179 0
160 183 0
156 178 0
162 184 0
151 174 0
159 182 0
155 178 0
157 179 0
162 185 0
156 178 0
162 185 0
161 183 0
155 177 0
158 181 0
156 179 0
162 184 0
154 177 0
157 179 0
160 182 0
157 180 0
155 178 0
159 181 0
162 185 0
163 185 0
158 180 0
156 178 0
159 182 0
161 183 0
148 170 0
158 181 0
157 180 0
159 183 0
160 183 0
160 183 0
159 181 0
163 186 0
160 182 0
156 179 0
157 180 0
157 181 0
152 176 0
157 179 0
160 184 0
162 185 0
156 178 0
162 185 0
162 184 0
157 180 0
161 184 0
156 179 0
157 180 0
163 186 0
162 185 0
161 184 0
162 185 0
160 184 0
154 177 0
154 177 0
165 189 0
162 185 0
163 185 0
158 180 0
161 184 0
164 186 0
166 189 0
162 185 0
163 186 0
164 187 0
164 187 0
164 186 0
166 188 0
160 183 0
157 179 0
164 186 0
165 189 0
166 189 0
162 184 0
161 185 0
166 189 0
164 186 0
163 185 0
159 182 0
161 184 0
161 183 0
164 188 0
164 186 0
165 189 0
163 186 0
167 191 0
162 185 0
162 185 0
167 191 0
163 186 0
165 189 0
162 185 0
169 192 0
164 186 0
168 190 0
167 190 0
168 191 0
168 191 0
160 183 0
165 188 0
167 189 0
161 185 0
165 188 0
167 189 0
168 192 0
165 188 0
172 194 0
168 191 0
168 192 0
163 185 0
170 192 0
167 190 0
169 192 0
169 192 0
165 189 0
161 183 0
166 189 0
170 192 0
166 189 0
166 189 0
169 193 0
170 193 0
170 194 0
169 192 0
169 192 0
169 191 0
172 195 0
170 192 0
170 193 0
172 195 0
169 191 0
168 190 0
170 192 0
171 194 0
167 189 0
171 195 0
167 190 0
168 191 0
169 191 0
169 192 0
169 191 0
171 194 0
172 194 0
172 194 0
169 193 0
171 195 0
173 195 0
166 190 0
170 194 0
172 195 0
171 194 0
171 195 0
172 195 0
173 197 0
172 194 0
170 193 0
170 194 0
169 192 0
172 195 0
171 194 0
173 195 0
171 195 0
170 192 0
173 196 0
171 195 0
170 194 0
169 192 0
172 196 0
172 195 0
171 194 0
171 195 0
172 196 0
170 193 0
174 197 0
170 192 0
174 197 0
172 194 0
173 196 0
172 195 0
170 192 0
170 194 0
172 195 0
172 195 0
173 196 0
171 194 0
172 196 0
172 194 0
173 196 0
171 195 0
172 196 0
170 193 0
170 194 0
170 193 0
175 197 0
172 195 0
172 195 0
174 196 0
172 196 0
173 196 0
172 195 0
171 195 0
171 194 0
173 195 0
172 194 0
172 196 0
173 196 0
172 194 0
172 195 0
172 195 0
172 196 0
171 193 0
171 193 0
175 198 0
172 196 0
173 197 0
174 197 0
173 196 0
171 194 0
173 196 0
175 197 0
174 197 0
173 196 0
171 194 0
173 197 0
173 196 0
174 197 0
174 197 0
173 197 0
174 197 0
173 197 0
175 198 0
173 196 0
171 195 0
174 197 0
171 195 0
173 196 0
171 195 0
175 198 0
173 196 0
170 194 0
174 197 0
171 195 0
173 197 0
173 196 0
174 197 0
174 198 0
174 197 0
172 194 0
173 197 0
173 196 0
173 196 0
174 197 0
174 197 0
173 196 0
173 197 0
171 195 0
172 196 0
170 193 0
169 193 0
171 195 0
172 195 0
175 198 0
174 197 0
171 195 0
172 195 0
173 197 0
171 195 0
170 194 0
176 198 0
171 194 0
173 197 0
175 198 0
173 197 0
174 197 0
175 198 0
172 196 0
172 196 0
170 194 0
172 196 0
172 195 0
172 196 0
173 197 0
170 194 0
171 194 0
170 193 0
170 193 0
170 195 0
169 193 0
170 194 0
171 195 0
172 196 0
171 195 0
172 195 0
170 194 0
174 197 0
171 194 0
170 194 0
172 195 0
170 194 0
171 195 0
169 193 0
175 198 0
172 195 0
173 196 0
172 196 0
171 195 0
172 196 0
171 194 0
171 194 0
174 197 0
172 196 0
171 194 0
171 194 0
173 196 0
170 194 0
172 195 0
169 193 0
172 196 0
170 194 25
172 195 0
171 195 18
168 191 25
171 194 0
168 191 44
169 192 36
172 195 31
168 191 36
170 193 47
164 187 0
173 196 40
173 195 44
168 190 36
174 195 65
167 189 54
166 188 18
169 191 51
168 190 40
172 194 84
170 191 70
168 190 54
169 190 57
176 196 44
172 194 57
171 192 40
175 196 65
173 194 65
172 194 72
171 193 72
173 195 67
171 192 67
169 191 67
169 191 76
170 192 76
176 196 95
173 194 80
162 182 72
166 188 62
167 190 80
170 191 67
168 190 72
166 188 57
168 189 51
172 193 80
173 193 76
170 190 76
173 195 80
169 190 72
172 192 51
169 191 62
160 180 57
168 189 76
165 186 62
174 195 44
171 192 57
166 187 44
168 189 36
164 185 57
168 191 44
163 185 25
166 189 25
166 190 36
163 186 0
166 188 0
162 184 36
161 183 25
160 183 0
164 187 0
166 189 0
164 186 0
166 189 0
164 188 0
156 178 0
156 179 0
159 182 0
164 186 0
165 187 0
161 183 0
167 190 0
162 184 0
152 172 0
153 176 0
163 185 0
161 184 0
155 176 0
157 180 0
159 182 0
161 183 0
157 180 0
162 185 0
163 184 0
159 181 0
160 183 0
159 180 0
156 179 0
162 185 0
159 181 0
162 185 0
159 181 0
166 188 0
153 175 0
164 187 0
155 177 0
162 185 0
158 180 0
155 177 0
154 176 0
158 181 0
153 176 0
162 184 0
156 179 0
156 178 0
165 186 0
160 183 0
163 186 0
161 183 0
161 184 0
157 180 0
154 177 0
160 184 0
156 179 0
158 182 0
159 181 0
161 184 0
156 178 0
165 187 0
164 187 0
158 181 0
162 185 0
161 184 0
160 182 0
159 181 0
161 183 0
162 185 0
163 186 0
163 186 0
161 183 0
157 180 0
163 187 0
159 182 0
161 183 0
163 185 0
160 183 0
158 180 0
164 187 0
161 184 0
162 184 0
162 185 0
163 186 0
158 181 0
162 184 0
166 189 0
159 181 0
162 185 0
163 185 0
165 186 0
166 189 0
165 188 0
166 188 0
162 185 0
162 185 0
170 193 0
168 191 0
163 185 0
164 188 0
162 184 0
170 193 0
168 191 0
166 190 0
169 192 0
167 189 0
164 187 0
167 190 0
165 188 0
162 184 0
166 188 0
169 192 0
164 187 0
169 192 0
167 190 0
166 188 0
165 188 0
170 194 0
172 194 0
169 192 0
167 191 0
165 189 0
168 190 0
169 192 0
171 194 0
167 190 0
169 192 0
162 185 0
169 191 0
169 192 0
169 191 0
169 191 0
167 191 0
163 186 0
168 192 0
170 194 0
170 192 0
170 192 0
169 192 0
167 189 0
170 192 0
170 193 0
171 194 0
168 192 0
171 193 0
167 190 0
167 188 0
171 194 0
167 190 0
166 188 0
165 188 0
168 191 0
170 194 0
173 196 0
167 191 0
167 191 0
170 193 0
171 195 0
170 194 0
169 193 0
170 193 0
169 192 0
173 196 0
166 188 0
168 192 0
171 193 0
168 190 0
169 191 0
172 195 0
170 192 0
172 195 0
169 191 0
172 195 0
170 193 0
172 195 0
167 190 0
171 194 0
170 194 0
167 190 0
165 188 0
173 196 0
170 193 0
170 194 0
172 195 0
174 196 0
171 194 0
173 197 0
174 196 0
170 193 0
171 195 0
171 194 0
174 197 0
171 195 0
173 196 0
174 197 0
173 196 0
171 194 0
173 197 0
172 196 0
167 190 0
169 193 0
171 193 0
176 198 0
171 194 0
172 196 0
173 196 0
173 197 0
174 197 0
173 196 0
171 195 0
174 197 0
168 192 0
173 196 0
173 196 0
174 197 0
170 193 0
169 192 0
172 194 0
173 197 0
172 195 0
173 197 0
172 195 0
173 197 0
170 193 0
173 196 0
172 195 0
172 196 0
174 196 0
171 195 0
174 197 0
174 197 0
175 198 0
173 196 0
171 194 0
173 197 0
172 195 0
171 195 0
171 195 0
174 197 0
175 198 0
173 196 0
173 195 0
171 195 0
174 197 0
173 196 0
173 197 0
172 196 0
174 198 0
173 197 0
173 196 0
173 197 0
174 197 0
171 194 0
173 196 0
173 196 0
171 195 0
174 198 0
174 198 0
171 195 0
174 197 0
170 193 0
172 196 0
174 198 0
174 198 0
172 195 0
173 196 0
174 197 0
171 194 0
172 194 0
174 197 0
174 197 0
170 194 0
168 192 0
172 196 0
172 196 0
172 196 0
173 195 0
172 196 0
173 197 0
174 197 0
172 195 0
172 195 0
174 197 0
173 197 0
174 197 0
174 197 0
172 196 0
171 195 0
174 198 0
170 194 0
171 195 0
173 196 0
170 194 0
172 196 0
172 196 0
173 197 0
172 195 0
174 197 0
171 195 0
171 194 0
173 196 0
171 194 0
169 193 0
171 194 0
172 195 0
173 197 0
172 196 0
173 196 0
170 193 0
173 196 0
172 195 0
172 195 0
175 198 0
170 194 0
169 193 0
175 198 0
169 192 0
173 196 0
171 194 0
170 194 0
174 197 0
172 195 0
171 195 0
172 195 0
171 195 0
174 197 0
175 197 0
171 195 0
172 196 0
170 193 18
173 196 0
172 196 0
172 196 0
169 193 31
172 195 0
172 196 0
171 194 18
174 197 0
172 195 36
172 195 0
170 193 18
175 198 25
173 195 51
167 190 36
168 190 25
170 192 51
172 194 60
174 196 60
175 197 60
173 195 57
173 195 54
171 193 40
175 197 57
173 193 65
168 190 44
174 196 57
173 195 51
176 197 60
169 190 44
174 195 65
176 197 67
178 199 76
176 197 60
176 197 72
170 192 76
169 191 67
170 191 72
172 193 92
168 190 51
171 192 62
168 190 72
173 195 72
172 194 80
170 191 62
167 189 72
173 193 67
170 191 80
170 191 84
172 193 51
173 193 80
171 193 76
172 193 67
167 187 57
170 191 72
168 189 72
170 191 44
169 190 62
171 191 62
168 190 51
171 192 76
171 192 72
168 190 25
166 188 36
168 191 36
169 191 44
166 188 36
168 191 0
166 189 0
163 186 25
161 185 0
170 193 0
164 187 0
164 187 0
165 187 0
163 186 0
163 185 0
155 178 0
161 184 0
157 180 0
166 187 0
157 179 0
159 181 0
164 186 0
166 188 0
155 177 0
153 175 0
156 179 0
161 183 0
159 182 0
163 185 0
168 190 0
161 184 0
163 184 0
158 180 0
160 182 0
163 185 0
165 188 0
160 182 0
156 179 0
151 175 0
160 183 0
156 179 0
161 184 0
155 178 0
166 188 0
164 187 0
159 181 0
157 179 0
159 181 0
156 179 0
156 178 0
158 180 0
156 178 0
163 186 0
158 180 0
163 186 0
165 187 0
160 182 0
158 182 0
159 181 0
162 184 0
155 177 0
163 186 0
163 185 0
157 181 0
159 181 0
162 185 0
162 185 0
161 183 0
161 185 0
156 179 0
161 183 0
163 185 0
161 185 0
166 188 0
167 191 0
159 181 0
163 186 0
163 185 0
163 185 0
158 181 0
157 180 0
165 189 0
166 188 0
165 189 0
157 179 0
166 189 0
164 186 0
164 187 0
162 185 0
160 182 0
164 187 0
160 182 0
159 182 0
167 189 0
163 186 0
168 191 0
165 189 0
163 186 0
164 187 0
158 180 0
165 188 0
166 189 0
164 188 0
161 184 0
168 191 0
161 185 0
166 188 0
166 189 0
166 188 0
164 187 0
159 183 0
170 192 0
167 189 0
164 187 0
160 183 0
166 189 0
165 188 0
167 189 0
165 189 0
167 190 0
167 190 0
168 191 0
169 192 0
169 193 0
171 194 0
167 191 0
169 191 0
166 189 0
167 189 0
171 194 0
168 191 0
164 186 0
164 187 0
172 194 0
171 194 0
167 190 0
167 188 0
167 189 0
171 194 0
170 193 0
169 191 0
168 191 0
168 192 0
171 194 0
162 183 0
168 192 0
168 191 0
169 193 0
174 196 0
168 191 0
167 189 0
171 193 0
170 192 0
172 195 0
171 194 0
169 192 0
164 188 0
170 193 0
167 191 0
169 193 0
171 194 0
172 194 0
171 193 0
170 192 0
169 192 0
170 193 0
171 195 0
170 192 0
172 194 0
171 194 0
170 193 0
172 195 0
171 193 0
169 193 0
169 192 0
170 193 0
173 197 0
171 194 0
172 194 0
171 195 0
171 193 0
174 197 0
169 192 0
170 193 0
171 194 0
170 193 0
170 193 0
171 194 0
172 195 0
170 193 0
172 196 0
172 195 0
172 195 0
171 194 0
172 195 0
172 196 0
172 195 0
168 191 0
171 195 0
172 194 0
174 196 0
173 196 0
172 196 0
172 195 0
173 196 0
172 195 0
173 197 0
172 195 0
173 196 0
170 193 0
173 195 0
173 196 0
171 194 0
173 196 0
172 195 0
172 195 0
173 197 0
174 197 0
172 196 0
169 192 0
174 197 0
173 196 0
172 196 0
175 198 0
171 194 0
173 196 0
173 196 0
171 195 0
172 196 0
173 196 0
174 197 0
173 196 0
175 198 0
173 195 0
173 196 0
173 196 0
172 194 0
172 195 0
172 196 0
173 196 0
174 198 0
173 197 0
173 196 0
174 196 0
173 196 0
170 193 0
173 196 0
172 196 0
172 196 0
172 196 0
171 195 0
173 195 0
174 198 0
172 195 0
173 197 0
174 198 0
171 194 0
174 197 0
170 194 0
173 196 0
174 198 0
173 197 0
172 196 0
173 197 0
174 197 0
174 197 0
174 197 0
172 196 0
171 194 0
172 196 0
174 198 0
171 195 0
172 196 0
172 196 0
175 198 0
172 196 0
172 196 0
172 196 0
172 197 0
175 198 0
172 195 0
173 196 0
171 195 0
174 196 0
172 196 0
174 198 0
175 198 0
173 196 0
172 196 0
173 196 0
172 195 0
174 197 0
173 196 0
174 197 0
171 195 0
171 196 0
173 197 0
172 195 0
172 196 0
172 196 0
172 196 0
173 197 0
169 193 0
174 197 0
172 196 0
172 196 0
170 194 0
167 191 0
173 196 0
170 194 0
169 193 0
172 196 0
171 195 0
171 194 0
172 195 0
173 196 0
170 194 0
171 194 0
170 194 0
172 194 0
173 196 0
172 196 0
172 195 0
173 196 0
171 195 0
172 195 0
171 195 0
172 195 0
170 193 0
171 195 0
173 197 0
170 194 0
175 198 0
173 197 0
173 195 0
171 194 0
172 196 0
172 195 0
172 195 0
172 195 0
173 196 0
175 198 36
170 194 18
171 194 0
174 197 0
172 196 0
173 196 0
172 195 0
171 194 25
170 194 31
172 195 36
173 195 25
172 194 36
173 195 44
171 193 25
173 195 40
168 190 47
170 192 36
173 194 67
171 193 67
171 193 44
171 193 40
171 193 62
171 193 51
174 194 65
177 198 97
173 194 60
176 196 57
176 197 65
170 191 60
176 197 62
171 192 80
172 193 51
172 194 67
171 192 72
175 196 76
171 193 67
170 191 62
172 193 67
170 192 51
173 194 80
170 191 67
172 192 57
171 192 67
173 194 57
169 190 72
173 193 80
172 193 80
173 193 67
169 190 57
170 191 36
171 191 51
163 185 67
169 191 57
169 190 44
171 193 67
170 191 62
171 192 57
169 191 36
167 189 51
164 186 44
170 192 36
169 191 25
169 193 25
168 190 0
165 188 36
164 186 25
172 195 25
168 190 0
165 188 0
162 185 0
165 188 0
165 188 0
165 187 0
165 188 0
160 182 0
161 183 0
159 182 0
164 186 0
161 183 0
160 182 0
162 185 0
159 180 0
162 184 0
159 182 0
159 181 0
156 178 0
160 182 0
156 179 0
165 187 0
155 178 0
152 174 0
164 186 0
155 177 0
158 181 0
160 182 0
155 178 0
153 176 0
158 181 0
163 186 0
160 183 0
157 179 0
162 186 0
158 180 0
157 179 0
158 180 0
157 181 0
161 184 0
154 178 0
156 180 0
157 180 0
162 185 0
162 185 0
164 187 0
156 179 0
156 179 0
160 183 0
160 183 0
162 185 0
163 186 0
157 180 0
162 186 0
165 187 0
162 185 0
155 178 0
161 184 0
167 189 0
157 180 0
164 187 0
162 186 0
161 184 0
161 184 0
160 183 0
162 185 0
162 184 0
159 182 0
158 181 0
159 182 0
160 184 0
161 185 0
161 184 0
158 180 0
165 187 0
163 185 0
167 191 0
165 187 0
163 186 0
159 182 0
166 189 0
160 184 0
163 186 0
162 186 0
165 188 0
164 188 0
164 187 0
166 188 0
166 189 0
163 186 0
164 186 0
161 184 0
166 189 0
166 188 0
164 186 0
169 192 0
167 190 0
167 189 0
162 184 0
166 189 0
165 189 0
167 190 0
163 186 0
168 192 0
166 189 0
165 187 0
169 191 0
161 183 0
168 190 0
162 185 0
168 190 0
165 188 0
167 190 0
161 184 0
163 185 0
165 188 0
169 191 0
163 185 0
166 189 0
166 190 0
166 189 0
165 187 0
170 194 0
166 188 0
169 192 0
162 184 0
166 190 0
171 194 0
166 189 0
164 187 0
162 185 0
166 189 0
170 193 0
164 187 0
168 192 0
166 189 0
168 191 0
165 187 0
172 195 0
171 194 0
170 194 0
168 192 0
171 195 0
168 191 0
171 194 0
169 191 0
172 196 0
172 195 0
170 193 0
172 195 0
170 193 0
171 194 0
169 192 0
169 192 0
172 195 0
171 194 0
164 187 0
168 191 0
170 193 0
169 192 0
169 192 0
171 195 0
167 190 0
171 194 0
169 193 0
169 192 0
172 195 0
173 196 0
173 195 0
168 193 0
167 190 0
171 193 0
171 194 0
167 189 0
172 196 0
166 189 0
172 195 0
171 193 0
170 193 0
169 192 0
171 194 0
172 194 0
172 194 0
169 193 0
172 196 0
171 195 0
174 195 0
171 194 0
169 192 0
172 196 0
169 191 0
172 194 0
172 195 0
174 196 0
171 194 0
171 194 0
172 194 0
171 195 0
172 195 0
173 196 0
174 197 0
171 195 0
173 196 0
171 194 0
171 195 0
173 197 0
168 190 0
171 194 0
174 196 0
171 194 0
172 195 0
171 194 0
173 197 0
174 196 0
172 194 0
172 195 0
173 196 0
174 197 0
173 195 0
174 197 0
170 194 0
172 195 0
173 196 0
173 196 0
171 194 0
173 197 0
173 197 0
176 198 0
173 196 0
172 196 0
173 197 0
173 196 0
171 194 0
173 196 0
173 197 0
174 197 0
170 193 0
173 196 0
173 196 0
173 196 0
173 196 0
172 195 0
172 195 0
174 197 0
173 196 0
173 196 0
173 197 0
174 197 0
174 197 0
174 197 0
173 197 0
172 196 0
174 198 0
173 197 0
174 198 0
174 198 0
173 197 0
172 196 0
173 197 0
172 196 0
172 196 0
174 197 0
169 194 0
174 197 0
172 196 0
171 195 0
173 197 0
171 195 0
173 196 0
174 197 0
173 197 0
175 198 0
171 195 0
171 195 0
173 197 0
171 195 0
171 195 0
174 197 0
172 196 0
170 193 0
174 197 0
172 196 0
166 191 0
170 194 0
172 195 0
170 194 0
172 195 0
173 196 0
170 193 0
173 197 0
173 197 0
174 197 0
173 197 0
173 196 0
172 195 0
171 194 0
173 195 0
173 196 0
173 197 0
169 193 0
171 194 0
171 195 0
172 195 0
170 193 0
171 194 0
169 193 0
171 194 0
171 195 0
172 195 0
173 196 0
173 197 0
170 193 0
171 195 0
169 193 0
168 191 0
171 194 0
170 193 0
174 197 0
170 194 0
172 195 0
171 195 0
174 197 0
173 196 0
169 193 0
174 197 0
171 195 0
172 195 0
173 196 0
174 197 0
173 196 0
169 193 0
174 197 0
171 195 0
171 194 0
171 195 0
172 195 18
170 193 18
170 194 18
173 196 25
172 195 31
171 193 36
171 193 0
171 194 18
171 194 44
167 190 40
170 193 0
174 195 44
170 192 36
169 191 40
171 193 54
171 193 44
169 191 54
167 189 36
175 196 70
174 196 65
171 194 65
174 196 60
177 199 82
181 201 74
175 196 70
178 198 86
172 193 40
175 197 95
172 194 62
174 196 36
175 196 76
176 198 76
174 195 51
166 188 57
171 193 88
175 197 80
171 193 76
171 192 84
167 189 67
172 192 67
166 187 51
170 191 72
174 193 80
166 188 67
174 195 88
169 190 51
171 192 72
168 189 72
174 196 67
175 195 67
166 187 57
165 186 62
170 192 51
169 190 36
170 193 62
172 192 44
171 193 44
167 188 36
174 195 62
164 187 36
167 189 0
167 189 36
170 192 44
169 192 0
168 191 0
169 191 0
164 186 0
166 189 0
162 184 0
168 190 25
164 187 0
163 186 0
163 186 0
162 183 0
160 182 0
164 186 0
166 188 0
155 177 0
156 179 0
160 182 0
164 186 0
160 182 0
158 179 0
160 183 0
155 177 0
158 180 0
158 179 0
160 183 0
158 181 0
155 177 0
156 178 0
158 180 0
159 181 0
161 183 0
159 181 0
159 182 0
160 183 0
158 181 0
160 183 0
162 185 0
165 188 0
161 184 0
167 190 0
159 182 0
157 180 0
160 183 0
163 187 0
156 180 0
165 188 0
160 184 0
163 185 0
160 183 0
163 186 0
160 183 0
158 181 0
163 186 0
155 177 0
159 182 0
158 180 0
162 186 0
160 183 0
161 184 0
164 188 0
159 182 0
161 183 0
162 185 0
157 180 0
163 187 0
158 182 0
165 188 0
159 182 0
159 182 0
161 183 0
161 183 0
167 190 0
159 182 0
162 185 0
157 180 0
165 187 0
159 182 0
155 178 0
164 186 0
165 188 0
163 186 0
166 190 0
161 184 0
169 193 0
162 185 0
165 188 0
165 188 0
161 184 0
160 183 0
167 190 0
163 186 0
168 192 0
167 190 0
164 188 0
166 189 0
167 190 0
167 189 0
163 187 0
168 192 0
165 187 0
164 187 0
163 187 0
168 192 0
162 186 0
166 188 0
165 187 0
166 189 0
169 193 0
166 189 0
168 191 0
164 189 0
170 193 0
168 192 0
168 192 0
165 188 0
167 190 0
166 189 0
168 191 0
169 191 0
169 191 0
164 186 0
166 189 0
166 189 0
168 189 0
172 195 0
169 191 0
172 195 0
166 188 0
169 192 0
168 191 0
169 192 0
169 193 0
168 190 0
164 185 0
169 192 0
164 188 0
170 193 0
168 191 0
169 192 0
168 192 0
168 191 0
168 191 0
170 193 0
170 192 0
169 193 0
169 191 0
170 192 0
173 196 0
166 189 0
168 192 0
167 189 0
165 188 0
170 194 0
168 191 0
168 190 0
169 193 0
168 190 0
173 196 0
170 193 0
168 191 0
170 194 0
170 193 0
170 193 0
170 193 0
172 195 0
172 195 0
169 191 0
170 193 0
173 196 0
168 191 0
172 194 0
172 196 0
169 191 0
170 193 0
169 193 0
172 195 0
170 193 0
172 195 0
172 195 0
173 196 0
169 193 0
172 195 0
171 194 0
172 194 0
172 194 0
172 195 0
173 196 0
170 193 0
170 193 0
170 194 0
172 196 0
173 196 0
174 197 0
170 193 0
173 196 0
172 195 0
172 195 0
172 195 0
175 198 0
174 196 0
174 198 0
170 194 0
171 194 0
174 197 0
172 195 0
171 194 0
174 197 0
173 196 0
174 196 0
173 197 0
171 194 0
172 195 0
173 196 0
173 196 0
172 195 0
175 198 0
172 196 0
171 194 0
175 197 0
173 196 0
171 194 0
165 189 0
171 195 0
172 195 0
172 194 0
172 196 0
172 195 0
171 194 0
171 195 0
174 196 0
173 196 0
172 194 0
170 193 0
171 194 0
173 197 0
170 193 0
173 197 0
171 194 0
173 196 0
175 198 0
172 195 0
173 196 0
170 195 0
174 198 0
174 196 0
174 196 0
173 197 0
172 196 0
174 198 0
174 197 0
171 196 0
172 196 0
175 198 0
171 196 0
171 195 0
174 197 0
172 196 0
173 196 0
173 196 0
171 196 0
174 197 0
175 198 0
172 195 0
173 197 0
174 198 0
175 197 0
173 197 0
173 197 0
173 196 0
173 196 0
171 194 0
173 197 0
172 196 0
173 197 0
173 196 0
173 196 0
174 197 0
171 195 0
174 197 0
174 198 0
173 196 0
173 196 0
173 197 0
170 193 0
172 196 0
171 195 0
174 197 0
173 196 0
172 196 0
170 195 0
172 196 0
173 196 0
172 196 0
174 197 0
172 196 0
171 196 0
172 196 0
171 195 0
172 196 0
171 195 0
174 197 0
170 194 0
171 195 0
174 197 0
172 195 0
170 193 0
172 196 0
171 195 0
169 193 0
174 196 0
172 195 0
171 195 0
171 194 0
172 196 0
175 197 0
173 196 0
171 194 0
172 195 0
171 194 0
170 194 0
169 193 0
169 193 0
174 197 0
172 196 0
170 194 0
172 196 0
174 197 0
172 195 0
169 192 0
173 196 0
174 197 0
172 196 0
170 194 0
174 197 0
172 195 0
175 198 0
174 197 0
172 196 0
173 197 25
172 196 0
172 194 0
171 194 0
174 196 0
172 193 28
171 193 31
171 194 51
170 193 31
168 192 40
165 188 44
174 196 44
174 196 62
173 195 36
172 194 51
172 193 57
172 194 57
171 193 57
175 196 60
176 197 72
171 193 57
173 194 57
172 193 36
173 194 67
172 194 47
173 194 67
173 195 67
177 198 57
172 194 67
176 198 72
178 198 76
174 194 62
177 197 57
172 192 51
173 194 62
173 193 57
170 191 62
172 193 62
171 193 57
172 193 62
173 193 80
173 193 76
168 188 62
172 192 72
174 194 62
175 196 76
164 185 51
169 189 67
166 187 36
171 191 57
167 188 57
169 191 44
168 190 51
166 188 36
167 189 0
168 190 36
169 191 0
167 189 25
168 190 36
167 190 51
164 187 0
167 190 0
173 195 0
171 194 0
165 187 0
162 184 0
159 182 0
163 186 0
161 184 0
161 184 0
164 186 0
161 182 0
163 185 0
154 176 0
161 183 0
165 187 0
157 179 0
164 186 0
164 185 0
163 185 0
161 184 0
158 180 0
162 184 0
156 179 0
158 180 0
154 177 0
155 178 0
157 180 0
165 187 0
167 189 0
158 181 0
162 185 0
155 177 0
157 181 0
164 187 0
168 191 0
157 181 0
157 180 0
161 183 0
154 178 0
167 190 0
161 184 0
158 179 0
153 177 0
158 180 0
162 185 0
159 183 0
158 181 0
159 181 0
158 181 0
166 189 0
160 183 0
165 188 0
164 187 0
157 180 0
158 181 0
160 184 0
159 182 0
166 187 0
160 182 0
165 188 0
159 182 0
165 188 0
166 190 0
164 188 0
161 185 0
160 184 0
161 183 0
155 178 0
157 180 0
162 186 0
165 188 0
157 180 0
157 180 0
159 182 0
160 184 0
161 184 0
162 184 0
163 186 0
166 189 0
161 185 0
164 187 0
160 184 0
164 186 0
162 184 0
166 189 0
165 188 0
171 193 0
164 186 0
166 189 0
163 187 0
165 187 0
162 186 0
167 189 0
165 188 0
163 185 0
166 187 0
169 192 0
170 192 0
170 193 0
166 189 0
166 189 0
162 185 0
163 187 0
168 191 0
167 189 0
164 187 0
162 185 0
166 190 0
167 190 0
167 190 0
164 188 0
166 188 0
167 190 0
171 195 0
169 192 0
166 189 0
167 191 0
171 195 0
164 187 0
168 191 0
166 190 0
161 184 0
165 187 0
170 193 0
162 184 0
166 188 0
170 194 0
165 188 0
165 188 0
166 189 0
168 190 0
169 192 0
167 189 0
169 191 0
164 187 0
169 193 0
170 194 0
170 193 0
167 189 0
167 191 0
166 190 0
169 193 0
167 191 0
166 189 0
167 189 0
169 191 0
168 191 0
173 196 0
167 190 0
172 195 0
166 189 0
168 191 0
167 190 0
170 192 0
170 193 0
169 192 0
170 192 0
173 196 0
168 192 0
172 195 0
167 191 0
171 194 0
171 194 0
168 192 0
170 193 0
171 194 0
171 194 0
170 193 0
170 194 0
169 192 0
170 193 0
171 194 0
170 194 0
168 191 0
172 195 0
171 193 0
171 195 0
171 194 0
171 195 0
168 192 0
171 195 0
168 192 0
173 194 0
169 193 0
173 196 0
171 195 0
170 193 0
173 196 0
170 193 0
172 195 0
174 196 0
172 195 0
172 195 0
172 195 0
172 195 0
172 195 0
173 196 0
170 194 0
173 195 0
172 195 0
172 196 0
173 197 0
173 197 0
173 197 0
175 197 0
172 196 0
171 195 0
170 193 0
172 194 0
171 194 0
171 193 0
170 194 0
172 196 0
170 193 0
172 196 0
172 195 0
171 194 0
173 195 0
174 197 0
171 195 0
172 195 0
171 194 0
174 197 0
172 195 0
172 195 0
173 197 0
174 197 0
170 193 0
173 196 0
174 196 0
170 194 0
173 196 0
174 197 0
173 196 0
173 196 0
172 195 0
172 196 0
175 198 0
172 196 0
172 196 0
173 194 0
170 194 0
172 195 0
172 196 0
172 196 0
173 197 0
174 197 0
174 197 0
172 196 0
172 196 0
174 197 0
174 197 0
173 197 0
173 196 0
172 196 0
174 197 0
172 196 0
173 197 0
172 196 0
171 195 0
174 197 0
173 197 0
174 198 0
169 192 0
173 196 0
172 196 0
171 194 0
172 195 0
171 195 0
174 197 0
171 195 0
173 197 0
172 196 0
170 195 0
171 195 0
171 195 0
172 195 0
173 197 0
174 197 0
172 196 0
172 196 0
170 194 0
173 196 0
172 196 0
173 197 0
172 196 0
172 195 0
169 193 0
173 196 0
171 195 0
171 195 0
171 195 0
174 197 0
173 197 0
173 197 0
172 196 0
174 197 0
172 196 0
173 196 0
174 197 0
167 190 0
175 198 0
171 195 0
173 197 0
174 198 0
171 194 0
173 197 0
171 195 0
172 196 0
172 196 0
172 195 0
172 195 0
173 196 0
171 194 0
171 194 0
174 197 0
175 197 0
176 199 0
170 193 0
170 193 0
173 196 0
171 194 0
174 197 0
174 197 0
172 196 0
172 195 0
174 196 0
171 194 0
173 196 0
174 197 0
172 196 0
173 197 0
171 195 0
171 194 0
173 196 0
173 197 18
172 196 0
174 197 0
174 197 25
172 196 25
172 195 0
168 192 18
172 196 0
174 197 0
169 192 36
174 197 25
175 198 0
173 196 25
174 196 36
168 191 0
168 191 25
175 196 57
173 195 44
172 194 51
172 194 40
173 194 44
174 195 60
174 196 60
173 195 57
172 194 65
172 193 36
175 196 60
170 191 44
173 194 67
176 196 67
178 199 62
177 198 67
171 192 57
172 193 67
171 193 67
170 192 72
175 196 72
173 194 84
172 193 72
178 198 72
176 198 76
174 195 72
175 196 72
171 192 76
167 188 44
172 193 57
169 191 72
173 194 67
174 195 72
171 192 51
175 196 72
174 194 80
171 192 51
170 191 25
161 183 51
169 190 57
172 195 51
167 189 51
168 191 36
170 192 25
169 191 0
165 188 0
164 186 36
165 187 25
162 185 0
162 184 25
167 188 0
162 185 0
157 179 0
168 191 0
161 184 0
165 186 0
166 189 0
159 181 0
161 183 0
160 182 0
163 185 0
158 180 0
154 176 0
161 184 0
154 175 0
159 181 0
163 185 0
160 183 0
167 190 0
165 188 0
157 180 0
159 182 0
154 176 0
163 186 0
161 184 0
161 183 0
164 187 0
163 186 0
164 187 0
158 180 0
158 181 0
161 182 0
159 182 0
156 179 0
160 182 0
160 183 0
163 186 0
158 181 0
157 178 0
161 183 0
164 188 0
165 187 0
161 184 0
160 183 0
162 184 0
158 181 0
160 183 0
166 190 0
161 184 0
170 193 0
162 185 0
159 181 0
163 185 0
166 188 0
162 185 0
156 180 0
154 176 0
162 184 0
163 186 0
163 185 0
161 184 0
167 190 0
159 181 0
163 186 0
165 189 0
160 183 0
159 182 0
161 183 0
161 184 0
163 186 0
162 185 0
163 187 0
159 181 0
163 185 0
165 188 0
165 188 0
162 185 0
162 185 0
167 189 0
164 188 0
162 185 0
164 188 0
165 186 0
161 185 0
166 188 0
167 190 0
166 189 0
168 190 0
164 188 0
165 188 0
167 189 0
166 189 0
165 187 0
166 189 0
167 190 0
163 187 0
165 187 0
163 186 0
166 189 0
169 192 0
167 190 0
167 190 0
167 190 0
169 192 0
166 189 0
167 191 0
167 190 0
165 188 0
167 191 0
162 185 0
167 190 0
171 194 0
167 190 0
167 191 0
164 187 0
165 188 0
167 190 0
169 192 0
171 194 0
167 191 0
168 190 0
170 192 0
170 194 0
167 190 0
168 191 0
165 187 0
169 192 0
165 188 0
170 193 0
172 194 0
171 194 0
170 193 0
169 192 0
167 189 0
167 190 0
169 190 0
169 192 0
168 192 0
170 193 0
168 192 0
167 190 0
169 192 0
172 195 0
168 191 0
172 195 0
170 193 0
171 193 0
170 193 0
170 193 0
166 189 0
169 193 0
169 192 0
174 196 0
173 195 0
170 193 0
170 193 0
173 196 0
172 194 0
166 188 0
171 194 0
172 194 0
169 191 0
170 191 0
170 194 0
172 195 0
167 190 0
172 194 0
169 193 0
168 192 0
165 190 0
171 194 0
168 192 0
169 193 0
171 195 0
171 194 0
170 192 0
170 193 0
168 191 0
172 194 0
169 192 0
171 194 0
169 193 0
172 195 0
170 193 0
172 195 0
166 189 0
168 192 0
171 193 0
173 196 0
168 191 0
174 197 0
174 196 0
169 193 0
172 195 0
169 193 0
171 195 0
174 197 0
171 194 0
175 197 0
174 197 0
171 194 0
173 197 0
171 194 0
172 195 0
170 193 0
173 196 0
174 196 0
171 195 0
173 196 0
173 196 0
172 196 0
175 197 0
173 196 0
174 198 0
172 195 0
172 195 0
172 195 0
173 196 0
171 194 0
170 193 0
174 197 0
173 196 0
172 195 0
174 197 0
174 198 0
173 196 0
172 195 0
173 195 0
173 196 0
172 196 0
173 196 0
173 196 0
173 196 0
173 196 0
174 197 0
175 197 0
172 195 0
172 194 0
175 198 0
174 197 0
171 195 0
172 195 0
175 198 0
170 192 0
174 197 0
172 195 0
173 197 0
172 196 0
175 198 0
173 196 0
173 197 0
176 198 0
174 197 0
174 197 0
174 198 0
172 195 0
171 195 0
174 197 0
174 197 0
171 195 0
172 196 0
174 197 0
173 197 0
172 196 0
174 197 0
174 197 0
173 196 0
174 198 0
171 195 0
173 197 0
174 197 0
173 196 0
173 197 0
171 195 0
170 193 0
174 197 0
173 197 0
174 197 0
172 195 0
173 196 0
175 197 0
172 195 0
173 196 0
173 197 0
174 197 0
174 197 0
169 193 0
173 196 0
172 196 0
170 194 0
171 195 0
171 195 0
174 197 0
171 195 0
169 193 0
173 196 0
171 195 0
171 196 0
175 197 0
171 195 0
171 195 0
171 195 0
173 196 0
173 196 0
172 195 0
171 195 0
169 193 0
173 196 0
171 195 0
170 194 0
172 195 0
172 194 0
173 196 0
170 193 0
170 194 0
172 195 0
172 196 0
171 195 0
174 197 0
170 193 0
169 193 0
172 195 0
170 193 0
173 196 0
171 195 0
170 194 0
173 196 0
175 198 0
171 194 0
175 198 0
172 195 0
172 196 0
174 197 0
173 197 0
175 198 0
174 197 0
173 197 0
174 197 0
173 196 0
173 196 0
171 194 0
166 191 0
172 195 0
172 195 18
169 193 18
176 199 51
171 194 0
173 196 31
170 193 36
168 190 31
173 194 44
172 194 40
176 198 44
176 198 70
171 194 47
175 196 0
171 193 54
169 191 44
177 198 65
177 198 80
174 196 57
176 197 74
172 192 62
173 195 44
174 196 36
174 195 51
172 193 57
174 195 67
175 196 62
172 194 57
174 196 67
169 191 62
172 193 62
174 196 76
171 193 72
171 193 57
173 195 67
172 193 72
174 195 67
173 193 57
173 195 57
169 191 44
173 193 51
174 195 62
176 197 62
173 194 62
170 191 51
167 188 36
166 188 25
170 192 25
173 194 36
167 189 36
166 187 25
168 190 0
172 195 0
167 189 25
166 188 25
164 187 25
170 193 0
169 191 0
171 194 0
169 191 0
172 194 0
162 184 0
165 188 0
166 188 0
162 185 0
163 186 0
171 194 0
165 187 0
162 184 0
164 187 0
158 181 0
161 183 0
161 184 0
169 191 0
162 184 0
164 187 0
160 182 0
154 177 0
152 174 0
155 178 0
164 187 0
158 181 0
152 176 0
164 187 0
162 185 0
159 181 0
154 176 0
165 189 0
167 190 0
164 186 0
155 177 0
156 178 0
155 178 0
160 183 0
164 187 0
162 184 0
158 181 0
153 175 0
155 178 0
160 183 0
165 187 0
164 187 0
163 185 0
159 181 0
159 183 0
157 181 0
160 184 0
164 187 0
162 185 0
161 184 0
162 184 0
159 181 0
165 187 0
159 181 0
158 181 0
157 180 0
163 186 0
166 189 0
157 180 0
160 183 0
161 185 0
166 189 0
164 187 0
158 182 0
158 181 0
164 188 0
164 187 0
163 186 0
163 186 0
164 188 0
167 190 0
158 181 0
166 189 0
168 191 0
164 186 0
168 190 0
156 177 0
161 186 0
168 191 0
162 184 0
168 192 0
165 188 0
169 192 0
167 190 0
170 193 0
166 189 0
162 185 0
162 185 0
163 187 0
168 189 0
168 191 0
161 183 0
166 189 0
166 189 0
167 189 0
168 191 0
163 186 0
168 191 0
162 186 0
170 194 0
168 191 0
167 190 0
167 189 0
166 189 0
167 190 0
168 191 0
166 187 0
165 189 0
169 191 0
168 191 0
168 189 0
170 193 0
169 193 0
167 190 0
168 191 0
167 189 0
171 195 0
168 192 0
166 189 0
169 191 0
165 188 0
167 190 0
167 191 0
168 191 0
165 189 0
169 192 0
169 193 0
166 189 0
169 193 0
170 194 0
161 184 0
167 190 0
170 194 0
169 192 0
171 194 0
170 194 0
168 190 0
172 195 0
170 195 0
165 189 0
170 193 0
171 194 0
170 193 0
168 191 0
171 193 0
170 194 0
171 195 0
171 193 0
171 194 0
169 193 0
170 193 0
172 194 0
170 193 0
172 195 0
168 191 0
167 189 0
172 194 0
170 194 0
169 192 0
169 192 0
164 188 0
172 194 0
172 194 0
168 191 0
170 192 0
170 195 0
170 193 0
170 193 0
170 194 0
171 195 0
169 192 0
172 195 0
172 195 0
172 194 0
168 191 0
173 195 0
171 194 0
172 195 0
169 193 0
170 193 0
169 192 0
169 192 0
168 191 0
171 194 0
171 194 0
172 195 0
170 194 0
171 195 0
170 193 0
172 194 0
168 191 0
172 195 0
172 195 0
170 193 0
171 194 0
171 195 0
170 194 0
172 196 0
174 197 0
173 196 0
173 195 0
172 196 0
172 195 0
170 194 0
173 196 0
168 191 0
172 195 0
173 196 0
174 196 0
171 194 0
174 197 0
171 195 0
172 196 0
171 193 0
169 191 0
172 195 0
173 196 0
173 196 0
172 194 0
174 196 0
172 195 0
172 195 0
173 197 0
171 193 0
173 197 0
172 195 0
173 196 0
174 197 0
168 192 0
174 197 0
172 196 0
172 195 0
173 196 0
174 198 0
170 193 0
172 196 0
170 194 0
172 196 0
174 196 0
173 195 0
171 195 0
171 195 0
174 197 0
173 196 0
173 196 0
175 198 0
173 196 0
174 197 0
173 196 0
173 197 0
174 197 0
172 196 0
173 196 0
175 198 0
170 195 0
170 194 0
174 197 0
174 198 0
172 195 0
175 198 0
173 196 0
173 197 0
173 197 0
174 197 0
172 196 0
175 197 0
173 197 0
171 195 0
174 197 0
171 196 0
173 196 0
177 199 0
175 198 0
173 197 0
172 196 0
174 197 0
173 196 0
174 197 0
174 197 0
173 197 0
172 196 0
172 195 0
167 192 0
171 195 0
174 197 0
173 196 0
171 195 0
173 197 0
173 197 0
171 194 0
173 196 0
172 195 0
174 198 0
172 196 0
174 197 0
173 197 0
173 197 0
174 196 0
171 194 0
173 197 0
175 198 0
172 196 0
174 197 0
173 196 0
170 193 0
167 191 0
172 196 0
174 197 0
169 193 0
171 195 0
172 196 0
173 196 0
173 197 0
171 194 0
173 196 0
172 195 0
172 196 0
171 195 0
172 195 0
173 197 0
173 196 0
173 196 0
173 196 0
173 196 0
170 194 0
171 194 0
170 193 0
174 197 0
173 196 0
173 195 0
174 197 0
172 194 0
173 196 0
169 194 0
175 197 0
172 195 0
173 197 0
174 198 0
174 196 0
171 194 0
172 195 0
172 195 0
171 194 0
172 195 25
169 193 0
172 195 25
172 195 0
172 196 36
173 195 47
170 193 36
173 195 25
173 195 36
176 197 44
176 198 36
174 196 62
174 195 44
175 197 67
173 195 25
174 195 67
176 197 67
173 195 51
170 191 62
178 199 76
173 194 62
175 196 72
173 194 62
177 197 51
170 192 57
172 193 36
180 200 67
179 199 72
175 196 76
178 198 84
175 196 76
176 198 51
170 191 67
172 193 67
170 191 51
173 195 57
174 195 36
168 190 36
171 192 57
172 193 51
172 194 57
174 196 67
169 190 44
171 193 57
170 191 25
171 194 0
166 188 36
170 193 36
168 191 0
167 190 0
167 190 0
166 189 0
167 189 0
166 188 0
169 192 0
166 188 0
168 190 0
168 191 0
163 185 0
163 184 0
168 190 0
167 189 0
160 182 0
164 187 0
160 183 0
159 180 0
170 192 0
161 183 0
162 184 0
158 181 0
164 186 0
162 185 0
164 186 0
162 185 0
166 189 0
161 183 0
160 182 0
162 185 0
157 180 0
162 184 0
160 183 0
160 183 0
163 186 0
163 186 0
165 189 0
158 180 0
162 184 0
160 183 0
157 180 0
161 183 0
163 186 0
160 182 0
158 181 0
162 184 0
160 183 0
156 179 0
156 180 0
157 180 0
166 189 0
162 186 0
168 191 0
162 185 0
168 191 0
163 186 0
164 187 0
161 184 0
159 182 0
166 189 0
161 184 0
164 186 0
161 184 0
163 185 0
161 184 0
155 178 0
164 187 0
166 189 0
156 180 0
163 186 0
170 193 0
166 190 0
161 184 0
163 186 0
160 183 0
169 191 0
166 190 0
158 181 0
166 189 0
166 190 0
162 185 0
166 190 0
164 187 0
165 188 0
167 189 0
162 185 0
167 190 0
169 192 0
162 185 0
169 193 0
169 193 0
166 188 0
165 188 0
168 191 0
166 189 0
162 184 0
168 191 0
163 185 0
166 190 0
162 184 0
166 190 0
162 185 0
162 185 0
165 187 0
170 193 0
171 193 0
169 191 0
171 194 0
164 188 0
165 188 0
166 189 0
166 190 0
164 187 0
169 191 0
168 190 0
167 191 0
166 188 0
169 192 0
169 192 0
166 189 0
164 188 0
167 189 0
168 190 0
167 191 0
167 189 0
168 191 0
169 193 0
167 191 0
166 188 0
165 188 0
164 187 0
170 194 0
165 188 0
166 190 0
165 190 0
167 191 0
168 192 0
167 191 0
166 189 0
168 191 0
167 190 0
169 192 0
170 193 0
168 191 0
171 194 0
169 191 0
172 194 0
168 192 0
171 192 0
170 193 0
170 193 0
167 189 0
170 192 0
172 195 0
171 194 0
171 195 0
170 193 0
172 196 0
170 192 0
170 194 0
170 193 0
169 191 0
172 194 0
173 195 0
169 192 0
171 194 0
167 191 0
173 196 0
171 194 0
170 194 0
169 192 0
171 193 0
171 195 0
169 192 0
172 196 0
168 191 0
172 194 0
169 193 0
170 194 0
172 195 0
170 193 0
170 194 0
171 194 0
171 195 0
170 194 0
173 196 0
172 196 0
170 193 0
170 193 0
169 193 0
172 195 0
172 196 0
168 190 0
171 195 0
173 196 0
170 192 0
168 190 0
171 195 0
173 196 0
172 195 0
173 197 0
170 193 0
171 194 0
166 190 0
174 197 0
173 196 0
172 194 0
170 193 0
169 193 0
170 193 0
170 194 0
171 194 0
173 197 0
173 196 0
172 194 0
172 196 0
173 196 0
170 194 0
173 196 0
171 195 0
172 195 0
170 194 0
173 196 0
174 198 0
172 195 0
174 197 0
173 196 0
173 197 0
173 196 0
171 195 0
173 196 0
174 198 0
172 196 0
171 194 0
174 198 0
175 197 0
174 197 0
171 194 0
173 196 0
171 195 0
172 196 0
171 195 0
174 197 0
172 195 0
171 192 0
173 197 0
172 196 0
174 197 0
174 197 0
172 195 0
175 198 0
173 196 0
172 196 0
173 196 0
171 195 0
174 197 0
174 198 0
171 194 0
172 196 0
173 197 0
175 198 0
173 196 0
171 195 0
173 197 0
170 195 0
175 198 0
173 197 0
171 195 0
172 196 0
172 196 0
169 193 0
174 198 0
173 196 0
175 198 0
173 197 0
172 195 0
174 197 0
172 196 0
171 195 0
174 197 0
174 197 0
173 196 0
174 198 0
173 197 0
172 195 0
172 196 0
173 196 0
171 195 0
174 197 0
174 197 0
174 196 0
174 197 0
170 193 0
172 195 0
172 195 0
175 197 0
173 197 0
171 195 0
172 195 0
173 197 0
172 196 0
172 195 0
170 194 0
172 196 0
169 193 0
170 194 0
173 196 0
174 197 0
171 195 0
172 195 0
170 194 0
170 194 0
173 197 0
174 197 0
173 197 0
173 197 0
172 195 0
170 194 0
174 197 0
172 195 0
172 195 0
172 195 0
169 192 0
173 195 0
172 196 0
169 193 0
171 194 0
173 196 0
172 196 0
171 194 0
172 195 0
174 197 0
174 196 0
171 195 0
173 197 0
173 195 0
173 196 0
174 196 0
173 196 0
174 197 0
173 196 0
173 196 0
173 195 0
173 196 0
171 194 0
173 196 0
173 196 0
172 195 0
173 196 25
171 194 0
171 194 25
170 192 0
175 197 0
169 192 25
172 194 18
169 192 25
174 196 0
171 194 36
173 195 0
175 196 25
175 198 57
176 198 25
173 196 44
174 195 57
171 193 18
173 194 25
175 197 57
174 195 44
175 197 82
175 195 51
178 199 67
175 196 44
174 196 57
173 193 44
170 191 62
176 197 51
175 196 36
173 194 62
172 194 57
174 195 57
174 194 67
173 195 76
170 191 76
173 194 44
174 195 67
171 191 62
169 191 44
172 193 44
174 195 67
167 189 44
176 197 57
172 193 36
174 195 36
173 194 25
170 192 25
172 194 25
170 192 25
169 190 0
171 193 25
171 193 36
169 192 0
170 192 25
170 193 25
168 190 25
169 191 0
168 191 0
168 190 0
165 187 0
164 187 0
165 187 0
168 190 0
165 186 0
166 187 0
164 186 0
164 186 0
161 182 0
158 180 0
159 182 0
163 185 0
161 182 0
162 183 0
161 183 0
161 183 0
160 182 0
157 179 0
162 183 0
162 185 0
158 181 0
167 190 0
160 183 0
162 185 0
162 185 0
163 185 0
162 184 0
157 180 0
166 188 0
164 188 0
158 181 0
157 180 0
161 184 0
156 180 0
161 184 0
164 187 0
154 177 0
160 184 0
163 186 0
157 179 0
163 186 0
156 180 0
160 183 0
156 179 0
162 184 0
164 187 0
164 187 0
156 179 0
160 182 0
162 184 0
167 190 0
163 186 0
166 189 0
162 184 0
159 182 0
167 190 0
165 188 0
167 190 0
166 189 0
160 183 0
157 181 0
167 191 0
167 190 0
164 187 0
159 184 0
163 185 0
166 189 0
165 187 0
164 188 0
168 191 0
166 190 0
160 184 0
165 188 0
165 188 0
163 185 0
161 184 0
166 189 0
164 187 0
161 184 0
161 185 0
164 187 0
166 189 0
164 188 0
166 189 0
163 187 0
161 184 0
159 182 0
161 184 0
173 196 0
163 184 0
161 184 0
166 188 0
161 185 0
168 191 0
170 194 0
164 186 0
163 186 0
171 194 0
163 186 0
167 190 0
167 189 0
169 193 0
168 191 0
169 192 0
163 186 0
166 188 0
168 191 0
164 187 0
165 189 0
165 190 0
168 192 0
165 188 0
168 190 0
168 191 0
162 186 0
168 192 0
168 190 0
166 188 0
167 190 0
172 195 0
171 195 0
169 190 0
167 190 0
169 192 0
169 192 0
168 191 0
168 191 0
165 188 0
168 191 0
167 189 0
167 189 0
168 190 0
168 192 0
171 194 0
168 191 0
163 187 0
171 193 0
171 193 0
169 191 0
168 190 0
166 190 0
169 192 0
168 191 0
169 192 0
167 189 0
169 193 0
169 192 0
168 192 0
170 193 0
173 196 0
171 194 0
171 195 0
169 192 0
169 193 0
168 191 0
170 193 0
171 194 0
168 191 0
167 191 0
169 192 0
171 195 0
170 193 0
170 193 0
172 195 0
168 192 0
169 191 0
171 193 0
168 192 0
171 195 0
172 195 0
172 195 0
171 195 0
171 193 0
172 195 0
170 194 0
171 194 0
170 193 0
172 196 0
174 197 0
169 192 0
173 196 0
171 196 0
170 193 0
168 191 0
171 194 0
173 196 0
173 196 0
171 194 0
171 194 0
171 195 0
170 193 0
174 197 0
173 196 0
173 195 0
172 195 0
173 195 0
171 195 0
169 192 0
172 196 0
171 193 0
168 192 0
173 196 0
172 196 0
171 194 0
174 196 0
171 193 0
171 194 0
174 197 0
171 194 0
171 194 0
171 194 0
171 193 0
173 196 0
173 195 0
170 193 0
171 194 0
171 194 0
174 197 0
170 193 0
174 197 0
172 196 0
170 194 0
173 196 0
174 197 0
171 195 0
173 196 0
172 195 0
172 196 0
172 195 0
174 197 0
171 194 0
172 195 0
174 196 0
172 196 0
172 196 0
171 194 0
174 197 0
174 198 0
173 196 0
175 198 0
172 195 0
173 197 0
173 197 0
172 196 0
173 197 0
173 196 0
174 197 0
173 197 0
172 196 0
173 196 0
174 198 0
174 197 0
172 196 0
172 195 0
172 196 0
171 195 0
172 196 0
170 195 0
172 196 0
173 197 0
174 197 0
175 198 0
173 196 0
172 196 0
172 196 0
174 197 0
172 195 0
171 195 0
173 197 0
172 196 0
172 195 0
175 198 0
174 197 0
173 196 0
174 196 0
173 197 0
174 197 0
172 195 0
172 195 0
174 197 0
173 196 0
170 193 0
172 196 0
170 194 0
172 195 0
170 194 0
173 197 0
171 195 0
173 197 0
172 195 0
172 196 0
170 194 0
173 196 0
172 196 0
172 195 0
170 194 0
172 195 0
174 197 0
174 198 0
173 196 0
168 193 0
172 196 0
174 197 0
171 194 0
174 197 0
174 197 0
173 196 0
171 194 0
173 196 0
173 196 0
174 196 0
174 197 0
173 196 0
173 196 0
173 196 0
173 196 0
171 195 0
172 196 0
173 197 0
172 195 0
172 194 0
170 193 0
172 195 0
172 195 0
173 196 0
173 195 0
171 195 0
173 196 0
171 194 0
173 196 0
173 196 0
173 196 0
175 197 0
168 191 0
170 193 0
173 196 0
173 197 0
173 196 0
173 196 0
172 195 0
174 197 0
174 196 0
173 196 0
171 194 0
173 196 18
175 197 0
172 194 0
171 194 0
171 194 18
172 195 36
171 194 0
174 196 0
174 196 36
171 194 31
173 196 57
174 196 36
174 196 44
170 192 51
173 194 36
178 199 36
178 199 36
175 196 44
173 195 36
175 197 62
176 196 76
176 198 80
177 198 62
170 192 44
171 192 36
172 193 51
176 196 67
170 192 44
175 196 44
172 193 62
170 191 62
172 193 72
174 194 51
173 195 51
171 193 25
175 197 44
170 193 57
170 192 44
169 190 0
169 190 36
175 196 25
166 189 44
173 195 0
171 192 0
166 188 0
168 191 0
168 191 36
165 187 25
167 190 0
168 191 0
169 191 0
168 191 0
169 191 0
165 188 0
171 193 0
170 193 0
168 191 0
170 192 0
161 184 0
162 184 0
168 192 0
165 186 0
168 190 0
157 180 0
161 182 0
165 187 0
165 187 0
164 186 0
160 182 0
161 183 0
159 181 0
161 183 0
167 189 0
156 178 0
161 183 0
161 183 0
165 188 0
163 186 0
163 186 0
160 183 0
165 188 0
162 185 0
159 182 0
161 184 0
161 184 0
162 184 0
163 185 0
159 181 0
165 187 0
164 187 0
154 176 0
163 185 0
156 179 0
161 184 0
163 186 0
165 189 0
163 186 0
160 183 0
161 184 0
163 186 0
163 187 0
161 185 0
164 187 0
166 189 0
163 187 0
164 187 0
167 191 0
162 186 0
156 178 0
164 188 0
158 181 0
160 183 0
159 181 0
161 183 0
159 182 0
166 188 0
165 189 0
161 184 0
160 184 0
164 186 0
171 195 0
163 188 0
169 192 0
163 186 0
162 186 0
162 185 0
163 186 0
165 187 0
158 180 0
165 188 0
169 192 0
170 193 0
166 188 0
166 190 0
165 188 0
165 187 0
165 189 0
166 189 0
170 193 0
165 187 0
167 190 0
167 191 0
163 186 0
161 184 0
164 186 0
165 188 0
166 190 0
164 187 0
165 187 0
169 191 0
164 187 0
163 187 0
166 190 0
169 191 0
170 192 0
167 190 0
166 188 0
166 190 0
169 192 0
166 189 0
168 191 0
165 188 0
166 189 0
166 189 0
167 190 0
168 191 0
168 191 0
165 189 0
168 191 0
167 189 0
168 192 0
167 190 0
168 191 0
166 189 0
170 193 0
165 188 0
171 194 0
169 192 0
168 190 0
167 189 0
164 188 0
169 193 0
169 192 0
169 192 0
166 189 0
168 191 0
167 189 0
166 189 0
166 189 0
168 191 0
171 194 0
168 191 0
166 190 0
171 194 0
171 195 0
170 193 0
169 192 0
170 193 0
169 192 0
169 192 0
170 191 0
169 191 0
170 194 0
168 189 0
172 195 0
171 193 0
171 193 0
168 192 0
172 195 0
172 195 0
170 192 0
170 193 0
172 195 0
173 196 0
169 192 0
171 195 0
167 191 0
170 193 0
171 194 0
168 192 0
172 196 0
170 193 0
170 194 0
171 195 0
167 190 0
171 194 0
172 194 0
173 196 0
174 197 0
169 192 0
169 191 0
168 192 0
173 196 0
172 196 0
173 195 0
168 191 0
172 195 0
169 192 0
170 194 0
170 192 0
171 194 0
172 195 0
170 193 0
173 197 0
173 196 0
171 194 0
170 193 0
171 194 0
170 194 0
171 195 0
172 196 0
171 193 0
172 194 0
172 196 0
172 195 0
172 195 0
174 197 0
174 196 0
172 195 0
171 196 0
175 198 0
172 196 0
172 196 0
173 196 0
170 194 0
171 195 0
171 194 0
170 193 0
170 193 0
171 195 0
174 197 0
173 197 0
173 197 0
173 196 0
171 194 0
174 197 0
173 196 0
172 196 0
173 196 0
171 195 0
173 196 0
172 195 0
172 196 0
172 195 0
173 197 0
171 195 0
173 196 0
174 197 0
172 194 0
173 196 0
173 196 0
172 196 0
172 196 0
172 195 0
174 197 0
172 196 0
172 195 0
174 197 0
175 197 0
175 198 0
172 195 0
172 197 0
173 197 0
174 197 0
173 196 0
176 198 0
175 198 0
172 196 0
173 197 0
174 198 0
174 197 0
173 197 0
174 198 0
173 197 0
172 196 0
174 197 0
171 195 0
172 195 0
173 197 0
174 197 0
175 198 0
172 195 0
175 198 0
171 195 0
175 198 0
173 197 0
171 195 0
173 197 0
172 196 0
173 196 0
172 195 0
174 197 0
171 195 0
174 197 0
172 196 0
173 196 0
171 195 0
171 195 0
168 192 0
174 197 0
173 196 0
173 197 0
172 195 0
176 198 0
173 196 0
172 196 0
172 196 0
173 196 0
169 193 0
171 195 0
171 194 0
173 196 0
172 196 0
170 194 0
174 197 0
171 195 0
173 196 0
174 197 0
175 198 0
171 195 0
171 195 0
172 195 0
168 192 0
175 197 0
172 196 0
172 195 0
171 194 0
174 196 0
172 195 0
170 194 0
171 195 0
173 196 0
174 197 0
171 195 0
170 195 0
173 196 0
173 196 0
170 193 0
172 195 0
173 196 0
171 194 0
171 194 0
171 194 0
173 196 0
170 194 0
171 194 0
169 193 0
172 196 0
173 196 0
172 195 0
174 197 0
174 197 0
172 196 0
172 195 0
175 198 0
170 193 0
172 195 0
170 194 0
174 197 0
171 194 0
175 197 0
170 193 31
173 195 31
173 196 25
175 197 0
173 195 25
172 195 0
174 197 25
173 195 36
175 197 36
173 195 47
172 195 36
174 196 44
171 194 36
169 192 25
170 192 25
176 198 44
174 195 0
177 199 57
174 197 51
176 197 51
173 194 44
177 198 44
173 195 51
176 197 67
174 196 72
176 197 57
176 197 84
176 197 44
177 198 76
169 191 51
175 196 57
174 195 36
172 194 44
175 196 62
174 195 36
171 193 0
174 196 25
170 192 25
173 196 25
170 193 36
169 191 25
172 194 25
175 197 36
173 195 25
170 192 0
167 190 25
168 190 25
172 194 36
171 193 25
167 190 0
168 190 0
172 195 0
164 186 0
165 187 0
164 186 0
164 187 0
168 190 0
165 187 0
162 184 0
170 192 0
163 185 0
164 186 0
162 184 0
164 186 0
159 181 0
166 189 0
164 186 0
166 188 0
166 187 0
157 180 0
160 183 0
162 185 0
163 186 0
166 189 0
160 183 0
165 188 0
160 182 0
158 181 0
157 179 0
160 182 0
157 179 0
160 183 0
156 180 0
166 189 0
158 181 0
160 184 0
163 187 0
168 190 0
164 187 0
157 180 0
163 186 0
163 186 0
159 183 0
167 191 0
157 180 0
164 187 0
167 190 0
159 182 0
160 184 0
168 190 0
166 189 0
162 185 0
162 185 0
165 188 0
164 187 0
163 185 0
163 186 0
165 189 0
165 188 0
162 185 0
162 185 0
166 189 0
160 183 0
167 190 0
161 184 0
166 190 0
165 187 0
164 187 0
166 189 0
159 181 0
164 188 0
167 190 0
162 185 0
163 186 0
164 186 0
162 184 0
163 185 0
164 188 0
164 188 0
160 184 0
166 188 0
166 189 0
163 187 0
166 189 0
163 185 0
165 189 0
168 191 0
160 184 0
163 186 0
167 190 0
167 189 0
167 189 0
163 187 0
163 185 0
165 189 0
167 189 0
169 192 0
166 189 0
170 192 0
166 189 0
165 187 0
166 188 0
168 191 0
166 188 0
165 188 0
168 192 0
166 190 0
164 188 0
168 192 0
164 186 0
166 189 0
162 186 0
168 191 0
167 191 0
170 192 0
163 187 0
166 189 0
164 187 0
164 188 0
169 192 0
165 188 0
170 194 0
165 187 0
169 192 0
167 189 0
167 190 0
166 190 0
168 191 0
168 191 0
171 194 0
167 190 0
170 193 0
169 191 0
168 192 0
170 193 0
167 189 0
170 194 0
170 193 0
172 194 0
168 191 0
168 192 0
170 194 0
172 196 0
170 194 0
169 192 0
171 195 0
168 192 0
171 193 0
172 195 0
172 194 0
169 192 0
170 193 0
173 196 0
167 190 0
171 193 0
172 195 0
172 195 0
166 190 0
165 188 0
169 192 0
169 192 0
171 195 0
169 191 0
171 193 0
167 191 0
169 193 0
173 195 0
164 188 0
172 194 0
172 195 0
172 194 0
170 193 0
173 196 0
168 191 0
171 193 0
170 193 0
173 196 0
171 195 0
171 194 0
171 193 0
173 196 0
171 195 0
172 195 0
172 195 0
173 195 0
170 194 0
170 194 0
171 193 0
173 195 0
173 197 0
173 196 0
173 196 0
171 194 0
171 194 0
171 194 0
172 195 0
170 193 0
172 194 0
172 197 0
173 196 0
173 196 0
172 195 0
172 196 0
174 197 0
170 193 0
169 193 0
175 198 0
173 196 0
170 194 0
173 196 0
171 195 0
172 194 0
171 195 0
173 196 0
172 196 0
170 194 0
173 196 0
173 197 0
171 195 0
171 194 0
174 197 0
173 196 0
171 193 0
173 197 0
172 195 0
172 196 0
174 197 0
174 197 0
170 193 0
172 195 0
175 197 0
171 194 0
171 193 0
173 196 0
172 195 0
170 194 0
169 193 0
171 194 0
173 196 0
175 198 0
171 195 0
173 196 0
173 195 0
172 196 0
174 197 0
172 195 0
173 197 0
174 197 0
176 198 0
171 194 0
172 195 0
173 197 0
171 195 0
175 198 0
174 198 0
174 197 0
174 198 0
174 198 0
172 196 0
174 198 0
171 194 0
171 195 0
173 197 0
171 195 0
175 198 0
174 197 0
175 198 0
172 196 0
172 196 0
174 198 0
172 195 0
173 196 0
172 196 0
173 196 0
174 197 0
172 195 0
173 197 0
173 197 0
174 198 0
173 197 0
173 196 0
173 197 0
173 196 0
172 196 0
175 198 0
173 196 0
173 197 0
172 195 0
174 197 0
174 197 0
172 195 0
170 193 0
168 192 0
174 197 0
173 196 0
170 195 0
174 197 0
173 197 0
173 197 0
172 196 0
173 196 0
173 197 0
168 192 0
170 194 0
173 196 0
171 195 0
172 196 0
172 196 0
174 197 0
172 195 0
174 196 0
170 194 0
170 194 0
174 197 0
171 195 0
174 197 0
173 196 0
173 196 0
174 198 0
173 195 0
167 192 0
173 195 0
171 194 0
173 196 0
171 194 0
170 194 0
172 195 0
170 194 0
172 196 0
169 193 0
173 196 0
172 194 0
172 195 0
171 194 0
175 197 0
173 195 0
173 196 0
172 195 0
174 196 0
174 197 0
171 194 0
172 195 0
173 197 0
169 192 0
171 194 0
174 197 0
175 197 0
172 195 18
174 197 0
173 195 0
173 196 25
171 194 18
173 196 0
172 195 25
171 195 0
174 197 36
174 196 47
172 195 0
169 193 0
171 194 0
176 198 44
174 196 47
177 198 36
174 195 44
174 197 57
172 195 36
173 195 36
173 195 25
175 197 44
174 196 72
174 195 51
174 196 25
175 196 44
176 198 44
173 195 57
175 197 44
172 195 44
172 195 44
169 191 25
175 196 36
169 190 0
172 194 67
173 195 44
172 194 0
175 196 57
172 194 0
171 193 36
172 194 25
174 194 36
171 194 36
170 192 36
164 187 0
173 196 25
174 196 25
171 193 44
170 192 25
174 196 36
172 195 25
164 186 0
169 192 0
169 193 0
167 190 0
165 187 0
168 191 0
173 194 0
163 185 0
166 188 0
173 195 0
170 191 0
160 183 0
166 188 0
158 181 0
165 187 0
170 192 0
165 188 0
167 189 0
159 182 0
163 185 0
159 181 0
160 183 0
156 179 0
167 189 0
164 186 0
163 185 0
157 180 0
165 188 0
165 187 0
163 185 0
162 184 0
160 183 0
163 185 0
164 187 0
161 184 0
162 184 0
167 190 0
167 189 0
159 180 0
164 187 0
158 182 0
162 186 0
162 185 0
161 184 0
161 184 0
163 186 0
163 187 0
166 189 0
163 187 0
167 190 0
161 184 0
158 180 0
162 185 0
164 188 0
165 187 0
162 186 0
166 189 0
160 183 0
167 190 0
162 185 0
165 187 0
161 184 0
167 190 0
162 185 0
167 190 0
166 189 0
167 189 0
168 191 0
168 191 0
166 190 0
169 192 0
167 191 0
161 185 0
166 189 0
161 185 0
163 186 0
165 188 0
168 191 0
163 186 0
166 188 0
160 184 0
164 186 0
166 189 0
166 189 0
165 187 0
169 192 0
166 188 0
165 188 0
158 181 0
167 191 0
166 190 0
169 192 0
164 187 0
165 189 0
167 191 0
168 192 0
172 195 0
164 187 0
167 189 0
166 189 0
166 189 0
163 187 0
164 188 0
165 187 0
169 192 0
169 192 0
164 187 0
166 190 0
171 194 0
167 190 0
168 192 0
167 190 0
170 193 0
163 187 0
167 190 0
168 191 0
169 192 0
166 190 0
168 192 0
169 191 0
171 194 0
169 192 0
169 192 0
171 194 0
167 190 0
166 189 0
168 191 0
170 192 0
169 192 0
167 191 0
168 191 0
166 189 0
164 187 0
171 194 0
169 191 0
169 192 0
166 189 0
171 194 0
167 191 0
170 194 0
168 192 0
167 191 0
169 193 0
169 192 0
171 193 0
172 194 0
171 194 0
167 190 0
171 193 0
171 194 0
169 192 0
164 186 0
169 193 0
170 194 0
173 196 0
171 194 0
167 191 0
168 191 0
171 194 0
172 195 0
169 193 0
170 192 0
169 192 0
170 193 0
167 191 0
170 193 0
170 193 0
171 194 0
171 195 0
172 195 0
171 195 0
168 192 0
170 193 0
170 193 0
173 197 0
171 193 0
171 194 0
171 194 0
169 192 0
173 196 0
173 195 0
170 193 0
172 195 0
173 196 0
171 194 0
172 195 0
171 194 0
172 195 0
171 195 0
170 193 0
173 196 0
173 196 0
172 195 0
174 197 0
171 194 0
172 195 0
172 195 0
171 194 0
171 194 0
171 195 0
172 195 0
173 197 0
174 197 0
171 194 0
171 194 0
170 193 0
173 196 0
173 196 0
172 195 0
172 195 0
175 198 0
173 197 0
173 196 0
171 194 0
170 193 0
172 195 0
172 195 0
173 197 0
174 196 0
170 194 0
174 198 0
173 197 0
174 197 0
173 196 0
173 197 0
173 196 0
172 195 0
172 195 0
174 197 0
171 195 0
173 197 0
174 198 0
173 197 0
172 196 0
173 195 0
171 194 0
174 198 0
173 197 0
172 195 0
172 195 0
173 197 0
173 197 0
174 197 0
172 195 0
173 196 0
173 195 0
172 195 0
170 194 0
174 197 0
174 197 0
172 196 0
174 197 0
174 197 0
172 196 0
172 196 0
174 197 0
172 196 0
173 196 0
174 197 0
175 198 0
173 197 0
172 196 0
174 197 0
171 195 0
171 195 0
173 197 0
173 197 0
172 196 0
174 197 0
171 195 0
175 198 0
171 195 0
171 194 0
172 196 0
173 197 0
174 197 0
172 196 0
173 197 0
172 196 0
173 197 0
173 197 0
173 197 0
175 198 0
172 195 0
174 198 0
170 194 0
174 197 0
173 197 0
172 195 0
171 195 0
174 198 0
173 196 0
175 198 0
174 198 0
172 195 0
169 193 0
173 197 0
171 195 0
174 197 0
173 196 0
172 195 0
172 196 0
171 195 0
174 197 0
171 194 0
174 197 0
174 197 0
170 193 0
172 196 0
173 196 0
173 196 0
172 196 0
171 194 0
174 197 0
169 193 0
174 197 0
172 195 0
173 196 0
174 197 0
172 195 0
171 195 0
171 194 0
172 195 0
171 194 0
174 197 0
173 196 0
173 196 0
173 197 0
171 196 0
174 197 0
173 196 0
173 196 0
174 197 0
174 197 0
171 193 0
168 191 0
174 196 0
172 195 0
173 195 0
171 193 0
172 195 0
172 195 0
173 196 0
173 196 0
169 192 0
169 192 0
174 196 0
173 197 0
169 193 0
172 196 0
171 194 0
174 196 0
175 197 0
173 195 0
173 196 0
170 193 18
169 192 18
176 198 25
174 196 18
174 197 25
174 196 44
175 196 36
173 196 0
171 194 25
177 199 44
177 199 0
174 196 57
175 197 44
174 196 44
173 196 0
175 197 51
174 195 51
171 193 25
172 194 0
173 196 44
173 195 51
172 193 25
174 196 62
174 196 51
172 194 51
173 195 0
172 195 44
175 197 36
170 191 0
170 192 57
173 196 44
169 192 25
173 194 25
171 193 36
170 192 0
169 192 0
172 193 44
173 195 0
169 191 25
170 192 25
171 193 0
169 191 0
163 185 25
168 191 0
171 193 0
170 192 25
164 186 0
164 186 0
172 195 0
164 187 0
168 190 0
169 192 0
166 187 0
168 190 0
168 190 0
167 190 0
163 186 0
159 181 0
168 189 0
165 187 0
163 185 0
162 185 0
162 184 0
159 182 0
161 184 0
158 180 0
168 190 0
163 185 0
164 186 0
161 184 0
159 181 0
163 186 0
163 186 0
170 193 0
164 187 0
161 183 0
161 183 0
166 188 0
161 185 0
161 184 0
163 185 0
154 178 0
164 187 0
162 186 0
164 187 0
154 177 0
165 188 0
164 187 0
161 183 0
166 189 0
157 179 0
162 184 0
159 182 0
164 187 0
167 190 0
166 188 0
160 183 0
164 187 0
163 188 0
162 185 0
166 189 0
161 185 0
169 192 0
165 189 0
172 194 0
162 185 0
161 184 0
161 184 0
167 190 0
168 191 0
162 185 0
166 188 0
157 181 0
160 183 0
166 189 0
166 190 0
166 189 0
164 187 0
161 184 0
168 190 0
170 193 0
165 189 0
169 193 0
160 182 0
165 189 0
163 186 0
162 185 0
164 186 0
170 193 0
167 190 0
166 188 0
169 193 0
162 185 0
169 192 0
161 185 0
169 193 0
165 190 0
169 191 0
164 186 0
166 190 0
164 187 0
165 188 0
167 190 0
167 191 0
162 185 0
163 187 0
162 185 0
168 191 0
160 183 0
169 193 0
165 188 0
169 192 0
164 188 0
168 191 0
167 189 0
167 191 0
168 192 0
168 192 0
168 190 0
165 188 0
162 185 0
170 192 0
168 192 0
167 190 0
171 193 0
168 191 0
168 190 0
168 192 0
168 191 0
165 188 0
168 192 0
171 194 0
168 191 0
166 190 0
168 192 0
168 190 0
168 191 0
166 189 0
168 192 0
170 193 0
169 192 0
168 192 0
169 191 0
170 193 0
171 194 0
170 194 0
169 191 0
169 190 0
170 192 0
166 188 0
170 193 0
166 190 0
170 193 0
169 193 0
170 193 0
169 192 0
172 195 0
171 193 0
168 191 0
170 194 0
169 192 0
168 190 0
170 194 0
173 195 0
168 192 0
169 192 0
166 188 0
170 193 0
171 195 0
172 195 0
173 196 0
173 196 0
170 194 0
169 192 0
173 195 0
169 193 0
172 195 0
172 196 0
174 196 0
172 194 0
169 192 0
171 193 0
169 193 0
170 194 0
171 194 0
173 196 0
172 195 0
169 191 0
170 193 0
171 195 0
172 195 0
173 197 0
169 192 0
170 193 0
173 196 0
172 195 0
173 196 0
173 196 0
171 195 0
172 195 0
171 193 0
170 194 0
172 195 0
174 196 0
171 194 0
174 197 0
172 194 0
173 196 0
167 190 0
172 195 0
169 192 0
167 191 0
173 196 0
173 196 0
170 193 0
174 197 0
173 196 0
172 195 0
172 194 0
173 196 0
171 193 0
171 194 0
172 195 0
173 196 0
169 194 0
173 196 0
173 197 0
172 195 0
171 194 0
171 194 0
173 196 0
172 194 0
172 195 0
173 196 0
171 194 0
172 196 0
172 194 0
174 198 0
171 195 0
173 196 0
171 195 0
172 195 0
173 196 0
172 195 0
175 198 0
173 197 0
173 196 0
172 196 0
172 195 0
172 195 0
172 194 0
171 195 0
174 197 0
174 197 0
171 194 0
173 196 0
173 197 0
174 197 0
171 195 0
172 197 0
174 197 0
173 197 0
172 196 0
175 198 0
172 196 0
172 195 0
172 196 0
172 195 0
172 196 0
171 195 0
175 197 0
172 196 0
173 197 0
172 196 0
176 198 0
173 197 0
172 196 0
174 197 0
174 198 0
173 196 0
174 197 0
174 197 0
171 195 0
175 198 0
171 196 0
172 195 0
172 196 0
171 194 0
174 198 0
172 195 0
170 193 0
173 196 0
169 193 0
171 195 0
172 195 0
173 196 0
173 196 0
170 194 0
173 196 0
173 196 0
172 195 0
172 195 0
172 196 0
174 198 0
172 196 0
172 196 0
172 195 0
173 196 0
172 195 0
173 197 0
173 197 0
170 194 0
170 194 0
170 194 0
171 194 0
172 195 0
172 195 0
174 197 0
173 197 0
172 195 0
171 195 0
172 196 0
173 196 0
171 194 0
170 193 0
173 197 0
172 195 0
171 195 0
174 197 0
172 196 0
172 195 0
172 195 0
173 196 0
174 197 0
171 195 0
174 197 0
171 194 0
172 196 0
172 196 0
169 192 0
168 191 0
172 195 0
174 196 0
175 198 0
173 195 0
173 196 0
174 196 0
172 196 0
175 198 0
173 196 0
174 196 0
173 196 0
174 197 0
174 197 0
175 198 0
172 194 0
172 195 0
173 196 0
172 194 0
171 195 0
171 194 0
173 196 36
174 197 0
173 196 25
172 195 25
172 196 25
173 196 36
175 198 25
171 193 25
173 196 44
173 196 51
175 197 36
174 196 36
174 197 36
176 198 44
172 194 25
170 191 36
173 195 44
173 195 25
173 195 44
174 196 44
173 196 25
170 192 36
174 196 44
173 196 0
170 192 36
171 194 25
171 194 25
172 194 0
175 197 36
170 192 36
173 195 25
172 195 25
169 192 36
173 195 0
170 193 0
171 193 0
171 193 25
172 195 25
171 194 25
172 195 0
167 189 0
172 194 0
170 193 0
169 192 0
169 191 0
166 188 0
165 188 0
165 188 0
168 190 0
171 193 0
168 189 0
167 189 0
165 186 0
167 188 0
167 189 0
161 182 0
165 186 0
166 188 0
168 190 0
168 189 0
163 184 0
166 188 0
161 184 0
166 188 0
164 186 0
158 180 0
165 186 0
164 187 0
164 186 0
167 190 0
163 185 0
165 187 0
166 188 0
165 189 0
165 188 0
161 183 0
161 184 0
161 184 0
160 184 0
164 188 0
163 185 0
161 184 0
166 190 0
162 185 0
161 185 0
162 184 0
164 188 0
159 182 0
166 189 0
157 180 0
164 187 0
162 186 0
161 184 0
167 191 0
164 188 0
163 186 0
162 185 0
164 185 0
164 187 0
167 190 0
166 189 0
169 192 0
165 186 0
167 189 0
160 183 0
164 188 0
165 188 0
164 186 0
165 188 0
169 191 0
167 190 0
167 190 0
169 192 0
165 189 0
162 184 0
166 190 0
165 188 0
166 190 0
162 186 0
165 188 0
164 187 0
165 188 0
169 191 0
163 186 0
167 190 0
165 189 0
168 191 0
163 186 0
167 190 0
167 190 0
164 186 0
168 190 0
163 187 0
164 187 0
168 191 0
169 193 0
162 185 0
162 186 0
164 186 0
165 189 0
170 193 0
165 189 0
165 188 0
168 190 0
168 191 0
166 188 0
168 192 0
164 187 0
171 194 0
169 192 0
170 193 0
167 190 0
168 190 0
168 191 0
169 193 0
168 191 0
167 190 0
166 190 0
166 190 0
171 193 0
170 193 0
168 191 0
166 190 0
168 192 0
172 195 0
166 189 0
167 190 0
166 188 0
170 193 0
168 192 0
169 192 0
170 193 0
172 195 0
171 194 0
168 191 0
165 188 0
171 194 0
170 194 0
169 192 0
172 195 0
168 191 0
166 190 0
170 193 0
168 191 0
170 194 0
172 194 0
168 192 0
166 189 0
169 192 0
170 194 0
166 188 0
168 191 0
169 192 0
170 193 0
169 192 0
167 191 0
173 196 0
173 196 0
173 196 0
171 194 0
170 193 0
169 193 0
170 193 0
169 192 0
174 197 0
170 194 0
170 193 0
172 195 0
169 193 0
168 191 0
168 191 0
174 196 0
171 195 0
170 194 0
168 191 0
173 195 0
170 193 0
170 194 0
167 191 0
174 197 0
172 195 0
169 193 0
169 193 0
169 193 0
170 192 0
171 193 0
166 190 0
168 190 0
173 197 0
173 196 0
169 191 0
173 196 0
170 192 0
168 191 0
171 194 0
172 194 0
169 192 0
170 193 0
170 193 0
171 195 0
172 194 0
171 194 0
174 197 0
173 196 0
173 197 0
172 194 0
171 193 0
172 196 0
169 192 0
172 194 0
169 193 0
173 196 0
174 197 0
171 194 0
171 193 0
171 195 0
173 196 0
170 193 0
169 193 0
171 194 0
171 195 0
174 197 0
174 196 0
172 195 0
170 194 0
171 193 0
173 196 0
172 195 0
175 198 0
172 195 0
172 195 0
174 197 0
172 196 0
172 196 0
172 196 0
173 195 0
175 197 0
171 195 0
174 197 0
173 196 0
168 192 0
175 198 0
174 198 0
172 196 0
173 196 0
170 194 0
172 196 0
172 195 0
173 197 0
174 197 0
173 196 0
173 196 0
174 197 0
173 197 0
174 196 0
172 196 0
175 198 0
174 197 0
171 195 0
173 196 0
170 194 0
173 196 0
172 195 0
172 195 0
175 198 0
174 198 0
172 197 0
171 195 0
172 197 0
171 195 0
173 197 0
172 196 0
172 196 0
173 197 0
172 195 0
172 196 0
173 196 0
173 197 0
173 196 0
172 196 0
172 196 0
174 197 0
170 194 0
175 198 0
170 194 0
171 195 0
173 197 0
175 198 0
172 195 0
175 198 0
174 197 0
172 196 0
172 196 0
174 197 0
175 198 0
173 196 0
174 197 0
174 197 0
174 198 0
174 197 0
170 195 0
172 196 0
170 195 0
173 196 0
174 197 0
173 196 0
172 196 0
175 198 0
173 196 0
175 198 0
173 196 0
171 195 0
170 194 0
173 196 0
171 195 0
173 197 0
173 197 0
172 195 0
173 197 0
172 196 0
170 193 0
175 198 0
171 194 0
171 194 0
173 196 0
173 196 0
172 195 0
172 195 0
174 197 0
175 197 0
172 196 0
174 197 0
172 195 0
171 194 0
173 196 0
173 197 0
172 195 0
172 195 0
171 194 0
172 195 0
173 195 0
170 192 0
173 196 0
174 196 0
173 195 0
171 193 0
174 197 0
172 195 0
174 197 0
174 197 0
174 196 0
176 198 0
174 197 0
172 195 0
169 193 0
171 194 18
169 192 0
172 196 0
175 197 0
171 193 0
174 196 0
172 195 0
173 195 25
173 197 25
171 193 25
173 196 25
173 195 0
172 195 25
172 195 0
173 195 0
172 194 25
174 195 0
174 196 25
174 197 62
173 196 25
169 192 25
174 196 44
168 191 25
172 195 25
172 195 0
173 196 51
170 193 0
170 193 25
172 193 25
172 194 36
173 194 0
175 197 36
174 196 36
171 193 0
173 196 0
169 192 0
174 196 0
172 194 0
170 191 0
172 194 0
172 194 0
171 193 0
173 195 0
167 189 0
171 194 0
170 192 0
172 194 0
171 194 0
166 189 25
169 192 0
168 190 0
166 188 25
167 189 0
169 190 0
168 189 0
170 192 0
169 191 0
164 186 0
172 194 0
167 189 0
170 192 0
167 188 0
165 186 0
163 185 0
165 187 0
162 184 0
160 183 0
157 180 0
167 189 0
163 185 0
168 190 0
164 186 0
163 186 0
168 190 0
166 189 0
163 185 0
166 188 0
159 182 0
155 178 0
162 186 0
164 187 0
157 180 0
168 192 0
167 189 0
169 192 0
165 187 0
163 186 0
159 182 0
166 189 0
169 193 0
163 186 0
161 185 0
163 186 0
159 181 0
165 188 0
167 190 0
166 189 0
160 184 0
161 184 0
162 186 0
159 182 0
164 188 0
164 188 0
166 188 0
163 187 0
166 190 0
168 190 0
164 187 0
163 186 0
165 189 0
161 183 0
164 186 0
165 188 0
168 191 0
165 189 0
165 187 0
163 187 0
164 187 0
163 187 0
162 185 0
165 188 0
160 184 0
168 190 0
165 188 0
166 189 0
166 189 0
167 191 0
164 186 0
159 181 0
162 185 0
167 190 0
166 190 0
168 190 0
167 190 0
166 189 0
160 184 0
170 192 0
167 191 0
163 186 0
166 189 0
166 190 0
163 187 0
167 190 0
167 190 0
170 193 0
165 189 0
166 189 0
168 190 0
165 189 0
163 185 0
167 189 0
164 188 0
166 188 0
166 189 0
168 191 0
171 194 0
169 193 0
166 189 0
171 194 0
164 187 0
168 190 0
168 192 0
164 186 0
165 187 0
170 193 0
171 193 0
165 188 0
166 189 0
166 189 0
171 194 0
169 193 0
166 189 0
169 192 0
171 194 0
172 195 0
172 194 0
164 187 0
170 193 0
165 188 0
170 194 0
168 191 0
171 194 0
171 193 0
164 187 0
167 190 0
168 191 0
167 190 0
172 195 0
171 194 0
170 193 0
171 195 0
167 190 0
169 191 0
171 193 0
170 194 0
165 189 0
172 195 0
169 193 0
168 191 0
172 194 0
170 192 0
165 188 0
170 193 0
164 187 0
170 193 0
173 196 0
170 193 0
171 194 0
170 193 0
171 194 0
168 193 0
171 193 0
171 194 0
171 193 0
171 194 0
171 194 0
170 193 0
171 193 0
170 194 0
170 194 0
172 196 0
170 192 0
170 193 0
173 197 0
171 194 0
168 191 0
170 193 0
173 196 0
173 196 0
171 194 0
172 195 0
170 193 0
170 193 0
172 195 0
168 191 0
168 192 0
172 196 0
171 193 0
171 194 0
169 192 0
172 194 0
175 198 0
170 194 0
171 194 0
172 196 0
168 191 0
172 195 0
172 196 0
172 195 0
174 196 0
173 195 0
173 195 0
169 192 0
173 195 0
174 197 0
172 195 0
174 197 0
173 197 0
173 197 0
174 197 0
170 193 0
172 195 0
173 196 0
174 196 0
171 194 0
170 194 0
173 196 0
170 193 0
172 195 0
173 197 0
172 195 0
175 198 0
172 196 0
174 198 0
172 195 0
174 198 0
174 197 0
171 194 0
173 196 0
171 195 0
173 196 0
174 197 0
172 195 0
174 197 0
173 196 0
170 193 0
171 194 0
174 198 0
173 197 0
175 198 0
176 199 0
172 196 0
172 196 0
175 197 0
172 195 0
173 196 0
170 193 0
174 197 0
172 196 0
172 194 0
171 194 0
171 196 0
176 199 0
175 198 0
174 197 0
174 197 0
172 196 0
173 196 0
171 195 0
173 197 0
174 197 0
172 196 0
172 197 0
174 197 0
173 197 0
174 197 0
173 197 0
171 195 0
173 197 0
173 196 0
172 196 0
174 197 0
172 196 0
172 196 0
173 196 0
171 194 0
172 195 0
172 196 0
173 196 0
174 198 0
172 194 0
171 194 0
172 196 0
174 197 0
175 198 0
174 197 0
175 198 0
173 196 0
171 195 0
174 197 0
174 197 0
173 196 0
172 195 0
171 195 0
173 196 0
171 195 0
174 198 0
174 197 0
174 196 0
174 197 0
175 197 0
172 196 0
171 196 0
173 197 0
172 196 0
172 195 0
171 194 0
173 197 0
172 196 0
173 196 0
176 198 0
171 195 0
171 195 0
170 194 0
174 197 0
168 192 0
174 198 0
174 197 0
174 197 0
171 194 0
174 197 0
170 194 0
173 195 0
174 197 0
169 192 0
174 197 0
166 191 0
171 194 0
170 194 0
172 196 0
173 196 0
172 196 0
172 194 0
171 194 0
173 196 0
174 197 0
170 193 0
170 193 0
174 196 0
172 195 0
173 196 0
172 194 0
172 195 0
174 197 0
175 197 0
175 198 0
170 193 0
173 195 0
173 196 0
172 195 0
172 195 0
174 197 0
175 197 0
173 196 0
173 195 0
172 195 25
174 196 0
172 195 0
170 193 0
174 197 0
173 196 0
171 194 0
169 193 0
172 195 0
173 196 25
172 195 25
173 195 36
173 195 36
174 196 25
173 195 25
171 194 44
168 191 25
174 196 0
173 195 0
169 192 25
171 193 0
172 195 36
169 191 0
174 195 25
173 195 36
169 193 25
171 194 36
170 193 25
168 189 25
172 193 25
172 194 0
171 193 0
170 192 0
169 193 0
172 194 0
173 195 0
174 196 0
171 194 0
170 193 0
171 193 0
173 195 0
169 191 0
170 192 0
165 188 0
170 193 0
166 187 0
165 188 0
168 190 0
169 190 0
168 190 0
163 185 0
160 183 0
168 188 0
164 186 0
167 189 0
168 190 0
173 194 0
166 187 0
166 188 0
164 187 0
164 186 0
169 191 0
165 187 0
164 186 0
161 183 0
164 187 0
166 188 0
163 186 0
165 187 0
162 185 0
160 183 0
167 189 0
167 190 0
167 190 0
160 181 0
159 182 0
166 189 0
163 185 0
164 187 0
161 184 0
164 187 0
165 187 0
166 189 0
165 188 0
167 190 0
154 178 0
166 188 0
163 186 0
166 189 0
165 188 0
165 189 0
161 185 0
168 191 0
163 186 0
167 191 0
163 186 0
164 187 0
164 188 0
162 186 0
162 185 0
166 191 0
165 188 0
159 182 0
169 193 0
164 187 0
162 186 0
162 185 0
167 191 0
166 188 0
161 184 0
164 187 0
164 187 0
163 186 0
167 191 0
164 187 0
165 188 0
167 189 0
163 186 0
162 185 0
161 183 0
164 186 0
159 183 0
163 185 0
166 189 0
167 190 0
165 188 0
167 189 0
166 190 0
163 186 0
161 184 0
167 190 0
165 188 0
169 192 0
167 190 0
167 190 0
168 192 0
169 192 0
164 186 0
168 190 0
166 190 0
166 190 0
165 189 0
170 194 0
167 189 0
164 187 0
165 188 0
163 187 0
168 191 0
167 191 0
165 188 0
165 188 0
166 188 0
170 193 0
167 191 0
171 193 0
168 190 0
169 191 0
170 194 0
167 190 0
170 192 0
167 189 0
169 193 0
170 193 0
167 190 0
168 192 0
166 189 0
166 189 0
166 189 0
169 191 0
172 194 0
169 193 0
167 190 0
171 194 0
168 190 0
168 192 0
169 192 0
168 192 0
169 193 0
169 191 0
174 196 0
167 190 0
165 188 0
166 189 0
164 188 0
172 195 0
172 195 0
169 192 0
168 191 0
173 196 0
171 194 0
169 192 0
169 192 0
172 196 0
166 190 0
171 195 0
168 191 0
166 190 0
169 192 0
171 194 0
173 195 0
170 192 0
171 194 0
171 193 0
171 194 0
172 196 0
172 195 0
172 196 0
173 195 0
173 195 0
173 196 0
171 193 0
170 193 0
167 190 0
171 193 0
170 193 0
168 191 0
169 192 0
171 194 0
171 193 0
174 197 0
171 195 0
170 194 0
170 193 0
171 194 0
171 193 0
171 194 0
169 192 0
172 195 0
169 191 0
171 194 0
169 192 0
169 192 0
171 194 0
171 194 0
172 195 0
171 195 0
170 193 0
170 195 0
173 196 0
171 195 0
173 196 0
173 195 0
174 197 0
169 192 0
172 196 0
172 195 0
170 194 0
170 193 0
172 195 0
169 192 0
170 193 0
170 194 0
173 196 0
171 195 0
172 195 0
171 194 0
170 193 0
172 196 0
174 197 0
173 196 0
173 197 0
174 196 0
172 196 0
173 197 0
172 195 0
172 194 0
171 194 0
172 195 0
173 196 0
173 195 0
172 195 0
174 198 0
175 197 0
172 195 0
169 193 0
174 197 0
173 196 0
172 194 0
172 195 0
173 196 0
173 197 0
174 197 0
172 195 0
173 196 0
173 195 0
174 197 0
171 194 0
173 196 0
171 195 0
172 195 0
174 197 0
172 196 0
173 196 0
172 195 0
173 197 0
172 195 0
174 197 0
171 195 0
175 197 0
174 198 0
173 197 0
174 197 0
173 196 0
172 196 0
173 197 0
175 198 0
173 197 0
172 196 0
175 198 0
175 198 0
175 198 0
172 196 0
173 196 0
173 197 0
175 198 0
173 197 0
175 198 0
170 194 0
172 195 0
170 194 0
172 196 0
173 196 0
171 196 0
173 196 0
174 198 0
173 197 0
172 196 0
172 196 0
175 198 0
173 197 0
173 197 0
172 196 0
168 192 0
174 197 0
170 194 0
174 197 0
172 196 0
174 197 0
174 196 0
174 198 0
170 194 0
170 194 0
170 194 0
170 194 0
172 196 0
171 195 0
173 195 0
173 196 0
171 195 0
172 196 0
172 196 0
174 197 0
175 197 0
172 196 0
173 196 0
174 197 0
174 198 0
174 197 0
170 194 0
170 195 0
171 194 0
175 198 0
170 194 0
172 195 0
173 196 0
174 197 0
175 198 0
174 197 0
172 195 0
171 195 0
173 196 0
172 196 0
170 193 0
173 196 0
173 196 0
173 196 0
171 194 0
172 195 0
172 195 0
171 194 0
173 197 0
172 195 0
168 191 0
171 194 0
173 197 0
172 194 0
174 196 0
175 197 0
173 196 0
176 198 0
173 195 0
171 194 0
174 197 0
174 197 0
172 195 0
175 197 0
172 195 0
173 196 0
173 196 0
173 196 0
175 197 0
170 194 0
172 196 0
170 193 0
174 197 0
175 197 25
176 198 0
173 195 0
175 198 0
174 196 0
175 197 0
172 196 25
173 196 0
174 196 0
166 189 0
171 193 25
172 195 0
172 195 0
175 198 36
172 194 25
173 196 0
176 198 25
173 195 0
173 195 0
172 194 25
174 196 36
170 192 0
171 193 25
172 195 0
170 193 0
171 193 0
176 198 0
169 192 25
170 193 0
170 193 0
168 190 25
174 196 0
170 191 0
169 191 0
172 194 0
169 191 0
171 192 0
172 193 0
168 191 0
168 190 0
168 190 0
164 185 0
168 190 0
170 192 0
163 185 0
165 186 0
163 185 0
172 194 0
171 193 0
165 188 0
170 191 0
167 189 0
170 192 0
167 188 0
165 188 0
164 186 0
165 188 0
168 191 0
170 193 0
166 189 0
161 183 0
165 187 0
165 187 0
157 180 0
167 190 0
166 188 0
163 187 0
165 188 0
160 182 0
171 193 0
159 183 0
166 189 0
164 186 0
162 186 0
164 188 0
165 188 0
167 189 0
163 187 0
164 185 0
163 186 0
165 188 0
161 184 0
164 187 0
168 191 0
167 190 0
163 187 0
167 189 0
161 184 0
159 182 0
167 191 0
158 181 0
156 178 0
163 187 0
166 189 0
163 188 0
161 185 0
165 189 0
160 182 0
165 188 0
163 186 0
163 186 0
162 186 0
165 188 0
167 190 0
165 188 0
162 186 0
163 185 0
167 190 0
168 190 0
169 192 0
164 187 0
169 192 0
162 186 0
168 192 0
165 187 0
166 189 0
163 185 0
163 186 0
167 190 0
166 189 0
163 187 0
170 193 0
168 190 0
165 188 0
166 189 0
165 188 0
162 186 0
168 191 0
163 186 0
170 194 0
166 189 0
166 188 0
162 185 0
167 191 0
171 194 0
167 189 0
169 192 0
165 189 0
166 191 0
168 191 0
168 191 0
164 188 0
166 189 0
167 189 0
172 195 0
168 191 0
168 191 0
168 190 0
163 187 0
170 193 0
169 192 0
167 191 0
168 192 0
168 191 0
169 191 0
169 192 0
168 191 0
170 194 0
164 187 0
171 194 0
171 194 0
168 192 0
168 190 0
168 191 0
171 194 0
170 193 0
171 194 0
173 196 0
169 193 0
167 190 0
170 194 0
170 193 0
168 192 0
171 194 0
171 194 0
169 192 0
171 193 0
169 192 0
172 195 0
170 194 0
168 191 0
170 193 0
168 192 0
167 189 0
171 194 0
169 192 0
168 192 0
168 191 0
167 190 0
170 194 0
171 194 0
170 193 0
169 192 0
170 193 0
174 197 0
167 191 0
171 194 0
167 190 0
168 192 0
171 194 0
173 196 0
172 196 0
168 192 0
171 195 0
172 195 0
171 194 0
170 193 0
168 191 0
170 193 0
171 194 0
170 193 0
170 193 0
168 191 0
170 193 0
171 194 0
172 195 0
169 193 0
170 192 0
172 196 0
170 194 0
173 196 0
174 196 0
174 196 0
170 192 0
173 196 0
173 196 0
172 195 0
172 195 0
174 196 0
175 198 0
172 195 0
172 195 0
173 195 0
172 195 0
173 197 0
168 191 0
173 196 0
171 195 0
174 196 0
173 196 0
170 193 0
169 193 0
171 195 0
174 197 0
168 192 0
172 196 0
171 194 0
172 194 0
172 195 0
169 192 0
173 196 0
174 198 0
173 197 0
170 194 0
172 196 0
170 193 0
172 195 0
176 198 0
174 197 0
174 198 0
171 195 0
171 194 0
172 195 0
172 196 0
172 195 0
174 197 0
171 195 0
173 197 0
174 197 0
172 196 0
173 197 0
173 196 0
172 195 0
174 197 0
169 193 0
169 191 0
173 196 0
173 196 0
172 195 0
172 195 0
173 196 0
175 198 0
175 198 0
175 198 0
173 196 0
174 197 0
175 198 0
174 197 0
174 197 0
172 196 0
173 196 0
173 197 0
172 196 0
173 196 0
174 197 0
174 197 0
173 197 0
173 197 0
173 197 0
173 197 0
175 198 0
171 195 0
173 197 0
175 198 0
174 197 0
173 196 0
173 196 0
173 197 0
174 197 0
170 194 0
172 196 0
174 198 0
173 196 0
173 197 0
174 198 0
172 196 0
173 197 0
175 198 0
175 198 0
173 196 0
174 197 0
172 196 0
172 196 0
173 197 0
173 197 0
174 198 0
172 196 0
172 196 0
172 196 0
174 197 0
172 196 0
172 196 0
174 197 0
172 195 0
173 196 0
174 198 0
170 194 0
174 197 0
174 196 0
173 196 0
173 196 0
171 195 0
173 196 0
170 194 0
172 196 0
174 197 0
171 194 0
172 195 0
174 197 0
172 195 0
170 193 0
175 198 0
174 197 0
170 193 0
169 193 0
174 197 0
173 197 0
169 193 0
173 196 0
174 197 0
172 195 0
172 195 0
170 193 0
172 196 0
172 195 0
174 198 0
173 196 0
174 196 0
172 196 0
173 196 0
173 195 0
170 193 0
173 195 0
172 195 0
175 197 0
171 194 0
173 196 0
175 198 0
175 197 0
172 194 0
174 196 0
172 195 0
172 195 0
171 194 0
172 195 0
172 195 0
173 196 0
171 194 0
171 193 0
170 194 0
173 196 0
173 195 0
172 195 0
171 194 25
172 196 0
174 196 0
174 197 0
173 196 0
173 195 0
174 196 0
170 194 0
173 196 25
175 198 0
174 196 0
169 192 0
172 194 0
172 195 0
169 191 0
174 197 25
172 195 36
173 196 0
173 196 25
175 197 0
171 194 0
174 196 0
172 195 0
173 194 25
173 195 0
171 192 0
169 192 0
172 195 0
169 191 0
171 193 0
173 194 0
171 193 0
168 190 0
173 194 0
172 194 0
170 193 0
170 192 0
170 192 0
174 196 25
173 195 0
171 194 0
168 190 0
169 191 0
170 192 0
170 192 0
167 189 0
171 192 0
172 194 0
172 193 0
169 191 0
167 189 0
171 193 0
165 187 0
163 185 0
167 189 0
169 191 0
167 189 0
165 187 0
167 190 0
164 186 0
166 189 0
165 187 0
164 185 0
165 187 0
163 185 0
165 188 0
162 185 0
165 187 0
164 186 0
165 188 0
163 185 0
165 189 0
162 185 0
166 188 0
152 174 0
164 187 0
166 190 0
166 188 0
163 186 0
165 187 0
167 189 0
169 191 0
167 189 0
163 185 0
165 187 0
164 188 0
160 183 0
162 185 0
168 192 0
162 185 0
165 188 0
161 185 0
164 188 0
167 190 0
158 182 0
165 189 0
165 189 0
165 189 0
164 187 0
168 191 0
165 188 0
164 188 0
170 192 0
168 190 0
160 184 0
162 186 0
165 188 0
165 188 0
163 186 0
163 187 0
163 187 0
164 187 0
163 185 0
167 191 0
163 187 0
166 189 0
166 189 0
164 186 0
167 191 0
163 187 0
168 191 0
167 190 0
169 192 0
163 187 0
166 189 0
165 188 0
168 190 0
167 190 0
166 189 0
168 191 0
162 186 0
170 193 0
168 192 0
167 191 0
165 188 0
168 191 0
168 191 0
164 187 0
168 192 0
161 185 0
169 192 0
168 190 0
163 186 0
169 192 0
166 190 0
166 189 0
167 191 0
167 190 0
170 194 0
171 195 0
170 193 0
166 189 0
166 190 0
160 183 0
166 190 0
167 189 0
163 186 0
169 192 0
168 192 0
168 190 0
169 192 0
171 195 0
167 191 0
169 192 0
166 189 0
171 194 0
169 192 0
171 194 0
170 193 0
169 192 0
168 191 0
168 189 0
174 197 0
171 195 0
168 191 0
172 196 0
165 187 0
171 194 0
167 191 0
168 191 0
170 194 0
169 192 0
168 191 0
170 193 0
168 192 0
170 193 0
169 192 0
167 191 0
169 193 0
171 194 0
168 193 0
171 194 0
170 192 0
169 192 0
171 195 0
172 195 0
168 191 0
166 189 0
169 192 0
174 197 0
171 194 0
169 193 0
171 193 0
169 193 0
165 188 0
168 192 0
168 192 0
170 194 0
173 196 0
172 196 0
173 196 0
170 193 0
170 193 0
172 195 0
167 190 0
172 195 0
170 194 0
169 192 0
170 193 0
173 196 0
171 193 0
170 192 0
168 192 0
172 194 0
173 196 0
171 194 0
172 196 0
171 194 0
174 197 0
173 196 0
172 196 0
172 195 0
169 192 0
173 196 0
169 192 0
174 197 0
169 193 0
171 194 0
173 197 0
171 194 0
171 195 0
171 194 0
171 194 0
172 195 0
173 196 0
172 195 0
173 196 0
172 195 0
170 194 0
172 194 0
173 196 0
171 195 0
173 196 0
171 194 0
172 195 0
170 192 0
173 196 0
174 197 0
172 196 0
175 197 0
173 196 0
172 196 0
173 196 0
169 194 0
172 195 0
171 195 0
175 197 0
171 195 0
171 194 0
173 195 0
173 196 0
170 194 0
175 198 0
172 195 0
172 196 0
173 196 0
171 194 0
175 198 0
172 194 0
173 195 0
173 197 0
172 195 0
174 197 0
175 198 0
175 197 0
173 196 0
174 197 0
174 197 0
174 197 0
174 196 0
173 197 0
173 196 0
172 195 0
171 194 0
174 197 0
171 196 0
173 197 0
172 196 0
174 198 0
173 197 0
173 196 0
174 198 0
172 196 0
171 195 0
174 197 0
172 196 0
174 197 0
173 196 0
173 196 0
174 197 0
173 197 0
173 196 0
173 197 0
175 198 0
171 195 0
174 197 0
173 197 0
173 197 0
173 197 0
173 196 0
172 195 0
173 196 0
172 195 0
172 195 0
172 195 0
173 197 0
173 197 0
172 196 0
171 195 0
173 196 0
173 197 0
172 196 0
174 197 0
173 197 0
173 197 0
174 197 0
171 195 0
174 197 0
172 195 0
174 197 0
174 197 0
172 196 0
173 197 0
174 197 0
172 196 0
172 196 0
170 193 0
174 197 0
175 198 0
173 196 0
172 196 0
172 195 0
173 196 0
173 196 0
173 197 0
171 195 0
174 196 0
173 196 0
174 196 0
172 195 0
170 193 0
169 193 0
172 195 0
173 196 0
175 197 0
172 195 0
173 195 0
174 197 0
170 194 0
174 196 0
174 197 0
170 193 0
172 194 0
171 194 0
171 194 0
173 196 0
170 193 0
171 194 0
171 195 0
171 194 0
173 195 0
169 192 0
169 192 0
173 196 0
174 197 0
175 198 0
174 196 0
173 196 0
172 195 0
169 193 0
169 192 0
173 195 0
172 195 0
171 194 0
173 195 0
173 196 0
173 196 0
175 198 0
172 195 0
172 195 0
173 196 0
174 197 0
174 197 0
172 195 0
176 198 0
173 196 0
174 196 0
171 194 0
173 197 0
171 194 25
175 197 25
171 194 0
176 197 25
173 196 0
173 196 25
171 194 25
176 198 0
175 197 0
173 196 0
173 195 0
174 197 25
172 194 0
173 195 0
175 197 0
173 195 0
168 191 0
172 194 0
172 194 0
167 189 0
170 193 0
169 191 0
172 194 0
176 197 0
173 195 0
169 191 0
169 191 0
170 193 0
170 192 0
176 197 0
172 195 0
171 194 0
170 191 0
172 194 0
170 192 0
175 196 0
169 191 25
168 190 0
169 191 0
168 190 0
170 191 0
169 191 0
172 193 0
171 194 0
171 193 0
168 189 0
165 186 0
166 188 0
167 188 0
170 193 0
162 184 0
163 186 0
168 189 0
166 188 0
167 190 0
162 185 0
163 186 0
164 186 0
166 188 0
164 186 0
162 185 0
165 188 0
160 182 0
167 190 0
168 191 0
162 185 0
157 179 0
166 189 0
166 189 0
159 181 0
162 185 0
167 190 0
165 187 0
168 190 0
161 184 0
169 193 0
167 190 0
170 192 0
166 189 0
165 189 0
167 190 0
162 185 0
163 186 0
168 191 0
166 189 0
165 188 0
163 187 0
161 185 0
160 182 0
163 185 0
168 191 0
157 181 0
167 190 0
166 190 0
166 189 0
165 188 0
164 188 0
166 189 0
163 186 0
162 185 0
164 187 0
168 192 0
169 192 0
167 191 0
159 182 0
166 189 0
168 192 0
168 192 0
159 182 0
165 189 0
163 186 0
162 186 0
164 188 0
163 186 0
168 190 0
169 191 0
167 191 0
161 184 0
167 189 0
162 186 0
168 191 0
166 189 0
170 194 0
166 188 0
163 187 0
167 191 0
167 190 0
163 186 0
163 186 0
168 192 0
166 189 0
167 190 0
167 190 0
160 183 0
165 189 0
167 191 0
169 192 0
168 192 0
167 190 0
163 186 0
165 187 0
165 189 0
162 185 0
169 192 0
170 194 0
167 190 0
171 194 0
171 195 0
171 194 0
169 193 0
171 195 0
171 194 0
171 194 0
167 189 0
171 195 0
167 190 0
172 194 0
173 195 0
167 190 0
169 192 0
166 189 0
165 188 0
169 193 0
174 196 0
170 193 0
168 191 0
172 196 0
170 193 0
167 190 0
170 193 0
168 191 0
170 193 0
171 194 0
166 189 0
166 189 0
170 193 0
172 195 0
172 196 0
169 192 0
171 194 0
165 188 0
172 195 0
167 190 0
173 196 0
167 191 0
170 194 0
170 192 0
169 192 0
173 195 0
169 193 0
168 191 0
169 193 0
168 191 0
171 195 0
168 192 0
170 193 0
172 195 0
169 192 0
171 194 0
173 196 0
172 194 0
170 192 0
168 191 0
171 195 0
169 193 0
171 194 0
174 197 0
169 192 0
173 196 0
172 195 0
170 193 0
171 194 0
173 196 0
171 194 0
169 192 0
172 194 0
170 193 0
170 193 0
173 196 0
171 194 0
171 195 0
171 194 0
172 195 0
171 194 0
174 197 0
173 197 0
170 195 0
170 193 0
172 195 0
172 196 0
172 195 0
171 194 0
173 195 0
173 196 0
172 196 0
172 195 0
173 195 0
171 194 0
174 196 0
172 195 0
173 196 0
173 196 0
169 193 0
174 197 0
172 195 0
168 192 0
172 195 0
174 197 0
171 194 0
168 191 0
173 197 0
175 198 0
173 196 0
171 195 0
174 197 0
174 197 0
173 196 0
172 195 0
173 196 0
170 193 0
172 196 0
171 194 0
173 196 0
172 194 0
172 195 0
172 196 0
174 197 0
173 196 0
174 197 0
173 196 0
173 197 0
174 197 0
170 194 0
173 197 0
173 196 0
174 198 0
173 196 0
171 195 0
175 198 0
173 197 0
174 197 0
173 196 0
172 196 0
174 197 0
173 196 0
170 193 0
173 196 0
174 197 0
174 196 0
171 194 0
173 197 0
174 197 0
173 196 0
174 197 0
172 195 0
174 197 0
174 197 0
171 195 0
172 197 0
173 197 0
172 196 0
173 197 0
171 195 0
171 195 0
174 197 0
172 195 0
172 195 0
173 197 0
173 197 0
171 195 0
176 199 0
173 197 0
173 197 0
174 197 0
171 194 0
175 198 0
174 198 0
171 196 0
175 198 0
173 197 0
173 197 0
172 196 0
172 196 0
174 197 0
175 198 0
173 196 0
174 197 0
174 197 0
169 193 0
172 195 0
171 195 0
172 195 0
171 194 0
172 196 0
171 195 0
173 197 0
173 197 0
171 196 0
170 194 0
171 195 0
172 195 0
173 197 0
172 196 0
172 196 0
169 193 0
173 197 0
172 195 0
174 197 0
174 197 0
174 197 0
175 197 0
171 194 0
173 196 0
171 195 0
175 197 0
175 197 0
172 195 0
173 196 0
173 197 0
174 197 0
171 195 0
172 196 0
173 196 0
173 196 0
174 196 0
173 196 0
171 195 0
172 194 0
175 197 0
174 196 0
175 198 0
173 196 0
174 197 0
173 196 0
174 198 0
173 196 0
175 197 0
172 195 0
173 196 0
173 195 0
171 194 0
174 197 0
172 195 0
173 196 0
173 195 0
175 197 0
172 195 0
169 192 0
173 196 0
176 198 0
173 196 0
174 197 0
169 193 0
174 197 0
171 195 0
173 195 0
174 196 0
174 196 0
172 195 0
172 195 0
172 195 25
175 197 0
170 193 0
174 196 0
171 193 0
172 195 0
176 198 36
174 196 0
172 194 0
173 195 0
173 196 0
174 196 0
173 195 0
173 195 0
173 195 0
169 193 0
174 196 0
172 194 0
169 191 0
169 192 0
174 197 0
174 196 0
173 195 0
174 195 0
172 193 0
170 192 0
172 195 0
170 192 0
170 191 0
169 190 0
172 194 0
169 190 0
171 193 0
171 193 0
173 195 0
165 187 0
173 195 0
170 192 0
165 187 0
169 191 0
168 190 0
170 191 0
167 188 0
165 187 0
171 193 0
172 194 0
166 188 0
172 195 0
168 190 0
165 187 0
164 186 0
170 192 0
169 191 0
163 185 0
164 186 0
172 194 0
166 190 0
170 193 0
163 186 0
169 192 0
163 185 0
169 191 0
165 187 0
167 189 0
161 184 0
167 190 0
162 185 0
163 185 0
163 185 0
165 188 0
165 188 0
164 187 0
167 190 0
164 186 0
166 188 0
163 187 0
162 185 0
165 188 0
162 186 0
163 186 0
164 187 0
160 183 0
168 190 0
169 192 0
164 187 0
164 188 0
158 181 0
165 188 0
166 190 0
167 191 0
162 185 0
161 185 0
164 188 0
167 190 0
164 187 0
165 188 0
162 186 0
165 188 0
163 186 0
169 192 0
164 188 0
166 189 0
162 185 0
167 190 0
162 185 0
164 186 0
166 190 0
156 180 0
167 189 0
165 189 0
168 192 0
161 184 0
166 189 0
163 186 0
165 188 0
168 192 0
165 189 0
167 189 0
167 190 0
169 193 0
168 191 0
165 188 0
166 189 0
165 188 0
164 187 0
165 188 0
167 191 0
167 189 0
165 189 0
171 194 0
166 190 0
168 191 0
165 188 0
167 189 0
168 192 0
166 190 0
162 185 0
167 190 0
169 192 0
165 189 0
167 191 0
171 194 0
170 194 0
167 190 0
168 191 0
169 193 0
166 189 0
169 192 0
166 188 0
172 195 0
169 192 0
170 193 0
166 189 0
162 186 0
169 191 0
171 194 0
168 192 0
169 192 0
167 190 0
168 191 0
170 193 0
167 190 0
164 189 0
167 191 0
170 193 0
168 191 0
169 192 0
173 196 0
166 189 0
168 191 0
169 192 0
167 190 0
170 194 0
166 188 0
172 195 0
173 195 0
167 190 0
170 194 0
169 193 0
169 192 0
170 193 0
173 196 0
172 194 0
169 193 0
171 194 0
170 193 0
170 194 0
169 191 0
170 193 0
173 197 0
169 192 0
170 193 0
171 195 0
167 191 0
172 196 0
172 194 0
170 194 0
172 195 0
168 191 0
170 194 0
171 195 0
171 195 0
172 195 0
170 193 0
173 196 0
175 197 0
171 194 0
171 193 0
168 192 0
168 191 0
170 193 0
171 195 0
172 196 0
167 191 0
172 196 0
170 194 0
172 195 0
169 192 0
171 194 0
170 193 0
170 193 0
172 195 0
175 197 0
172 195 0
168 192 0
171 194 0
171 194 0
173 196 0
171 193 0
171 194 0
174 197 0
172 195 0
172 196 0
172 195 0
173 197 0
170 194 0
174 197 0
171 194 0
171 194 0
172 195 0
171 194 0
172 196 0
172 196 0
173 196 0
172 195 0
171 194 0
173 196 0
174 196 0
175 197 0
172 194 0
169 192 0
171 194 0
174 197 0
168 190 0
173 196 0
171 194 0
171 194 0
173 196 0
173 197 0
173 196 0
169 192 0
169 193 0
171 195 0
172 196 0
171 194 0
171 195 0
175 198 0
174 197 0
172 194 0
172 195 0
171 195 0
174 197 0
172 195 0
175 198 0
171 194 0
173 196 0
173 197 0
174 196 0
174 197 0
172 196 0
173 197 0
173 196 0
171 194 0
173 197 0
173 195 0
174 197 0
172 196 0
173 197 0
173 196 0
171 195 0
173 197 0
174 197 0
174 198 0
173 197 0
172 196 0
172 196 0
173 197 0
172 195 0
175 198 0
173 197 0
176 198 0
174 198 0
172 196 0
173 197 0
174 198 0
172 196 0
173 197 0
174 197 0
174 197 0
172 196 0
174 197 0
174 197 0
172 195 0
172 195 0
173 196 0
173 196 0
173 197 0
171 196 0
172 196 0
173 196 0
173 196 0
171 194 0
173 197 0
172 196 0
173 197 0
173 197 0
171 195 0
172 195 0
169 193 0
174 197 0
174 197 0
173 196 0
172 195 0
173 197 0
170 194 0
173 197 0
172 195 0
172 196 0
173 197 0
173 197 0
172 197 0
173 196 0
172 195 0
174 197 0
174 197 0
175 197 0
172 195 0
173 197 0
170 194 0
172 195 0
172 196 0
174 197 0
173 196 0
173 196 0
171 196 0
175 198 0
172 196 0
172 195 0
172 195 0
174 197 0
173 196 0
173 196 0
174 196 0
173 196 0
173 196 0
172 195 0
173 196 0
172 195 0
173 196 0
174 197 0
169 192 0
173 197 0
173 196 0
173 196 0
176 198 0
173 195 0
173 196 0
171 194 0
175 198 25
174 196 0
171 194 0
171 194 0
170 192 0
171 194 0
175 197 0
175 197 0
173 196 0
173 195 0
173 195 0
174 195 0
169 192 0
173 195 0
173 195 0
176 198 0
173 196 0
172 195 0
173 195 0
174 196 0
172 194 0
175 198 25
175 197 25
175 198 0
175 197 0
174 197 0
170 192 0
173 195 0
172 194 0
175 197 0
171 193 0
173 195 0
176 197 0
172 195 0
171 194 0
174 196 0
173 195 0
172 194 0
172 193 0
171 194 0
173 194 0
172 195 0
173 195 0
169 191 0
177 198 0
171 194 0
177 199 0
171 194 0
171 193 0
174 196 25
169 191 0
172 192 0
174 196 0
172 194 0
172 194 0
169 189 0
171 192 0
170 193 0
169 191 0
172 194 0
165 187 0
169 192 0
167 188 0
170 190 0
163 184 0
168 189 0
170 192 0
170 193 0
167 189 0
169 191 0
168 189 0
165 187 0
166 188 0
168 191 0
163 185 0
169 191 0
170 192 0
165 188 0
167 190 0
162 184 0
167 190 0
167 190 0
169 191 0
160 184 0
162 184 0
160 183 0
164 187 0
166 189 0
164 188 0
172 196 0
168 191 0
165 187 0
161 183 0
167 189 0
170 193 0
161 183 0
168 191 0
168 190 0
167 191 0
166 190 0
163 185 0
167 190 0
162 184 0
157 181 0
161 184 0
170 194 0
161 184 0
169 192 0
161 184 0
169 192 0
163 187 0
166 189 0
159 182 0
167 190 0
162 186 0
165 188 0
162 186 0
164 186 0
167 191 0
167 190 0
165 189 0
159 182 0
165 188 0
172 195 0
163 187 0
167 190 0
169 192 0
163 186 0
170 193 0
164 188 0
164 188 0
165 188 0
168 190 0
168 191 0
166 190 0
163 186 0
162 186 0
170 193 0
170 193 0
167 190 0
163 185 0
164 187 0
166 191 0
168 191 0
166 190 0
168 191 0
164 188 0
168 191 0
168 191 0
168 191 0
169 192 0
164 187 0
163 186 0
169 192 0
164 186 0
170 194 0
165 188 0
168 192 0
167 191 0
167 190 0
168 191 0
169 192 0
168 191 0
173 196 0
164 186 0
169 192 0
169 192 0
167 191 0
169 192 0
166 189 0
167 191 0
170 193 0
169 192 0
164 187 0
168 192 0
166 189 0
164 187 0
171 194 0
167 191 0
168 192 0
169 193 0
169 192 0
169 192 0
168 191 0
171 193 0
170 193 0
167 190 0
170 193 0
167 190 0
169 192 0
172 195 0
169 192 0
169 192 0
167 190 0
168 192 0
168 192 0
166 189 0
169 192 0
169 193 0
167 190 0
168 192 0
168 192 0
169 190 0
171 192 0
171 195 0
170 193 0
167 190 0
170 193 0
169 193 0
171 195 0
176 198 0
170 192 0
169 192 0
168 191 0
172 195 0
171 195 0
170 193 0
171 193 0
170 194 0
168 192 0
171 194 0
170 194 0
169 193 0
172 195 0
168 192 0
171 195 0
172 195 0
172 195 0
169 193 0
168 192 0
172 195 0
170 194 0
171 194 0
172 196 0
172 196 0
171 193 0
169 191 0
171 195 0
172 196 0
172 194 0
173 196 0
172 195 0
172 194 0
174 197 0
170 193 0
171 194 0
169 193 0
171 193 0
170 193 0
173 196 0
173 197 0
171 194 0
175 197 0
171 194 0
172 196 0
174 197 0
170 194 0
173 196 0
174 198 0
173 196 0
171 194 0
171 194 0
171 194 0
172 196 0
174 196 0
173 196 0
174 197 0
174 197 0
172 195 0
173 196 0
172 195 0
173 197 0
171 194 0
174 197 0
170 193 0
171 195 0
172 195 0
172 195 0
174 197 0
173 196 0
171 194 0
174 197 0
173 196 0
173 196 0
174 197 0
173 196 0
173 196 0
173 197 0
172 195 0
173 197 0
174 197 0
171 195 0
173 197 0
173 197 0
170 192 0
173 197 0
173 196 0
172 196 0
174 197 0
174 195 0
175 197 0
175 198 0
175 198 0
172 195 0
175 197 0
170 194 0
173 197 0
173 197 0
171 194 0
172 195 0
173 197 0
172 196 0
174 197 0
173 197 0
173 196 0
175 198 0
173 197 0
176 199 0
174 197 0
173 196 0
173 197 0
173 196 0
173 196 0
174 197 0
173 196 0
171 195 0
174 198 0
173 197 0
173 197 0
173 196 0
171 195 0
172 195 0
173 197 0
173 197 0
175 198 0
171 195 0
176 198 0
173 196 0
174 197 0
173 196 0
172 195 0
174 198 0
172 196 0
174 197 0
172 196 0
175 198 0
173 197 0
173 196 0
172 196 0
171 194 0
173 196 0
175 198 0
171 195 0
171 196 0
173 196 0
173 196 0
173 197 0
173 196 0
174 198 0
175 198 0
170 194 0
172 195 0
173 197 0
172 195 0
172 196 0
174 197 0
171 195 0
173 197 0
173 197 0
172 195 0
175 198 0
172 196 0
172 194 0
172 195 0
170 194 0
171 195 0
172 196 0
173 197 0
171 194 0
173 197 0
174 197 0
174 196 0
174 197 0
173 196 0
173 196 0
170 193 0
174 197 0
172 195 0
169 193 0
174 196 0
171 195 0
168 191 0
174 197 0
171 194 0
173 196 0
173 195 0
175 198 0
175 198 0
175 198 0
173 195 0
171 193 0
173 195 0
174 197 0
172 195 0
172 195 0
172 195 0
175 197 0
175 197 0
171 195 0
174 197 0
171 194 0
174 196 0
171 193 0
174 196 0
173 195 0
174 197 0
171 194 0
173 195 0
171 194 0
176 198 0
176 198 0
171 194 0
173 195 0
173 195 0
172 194 0
169 191 0
170 192 0
173 195 0
174 196 0
174 196 0
174 196 0
166 190 0
171 194 0
175 196 0
172 194 0
172 194 0
171 193 0
169 192 0
171 194 0
172 195 0
175 197 0
173 194 0
171 193 0
171 193 0
173 194 0
173 195 0
172 194 0
173 194 0
173 195 0
172 194 0
168 190 25
175 196 0
171 192 0
168 189 0
173 194 0
169 191 0
174 195 0
169 191 0
170 191 0
166 188 0
172 193 0
173 194 0
169 190 0
168 190 0
164 185 0
168 189 0
170 193 0
170 192 0
171 193 0
167 189 0
163 185 0
167 188 0
171 193 0
166 188 0
166 188 0
166 188 0
165 187 0
164 186 0
167 189 0
160 183 0
165 188 0
163 186 0
170 192 0
169 191 0
167 188 0
160 183 0
163 186 0
165 187 0
155 177 0
164 186 0
163 185 0
169 191 0
164 187 0
163 185 0
157 180 0
165 189 0
167 191 0
165 188 0
169 192 0
161 184 0
163 187 0
166 189 0
163 187 0
165 187 0
166 189 0
166 190 0
165 188 0
166 190 0
166 189 0
164 186 0
163 185 0
165 188 0
163 186 0
163 186 0
164 187 0
155 178 0
163 186 0
167 190 0
167 191 0
163 188 0
166 189 0
160 183 0
167 191 0
165 188 0
164 187 0
168 191 0
168 191 0
166 188 0
169 192 0
167 191 0
169 192 0
164 187 0
165 189 0
165 188 0
166 190 0
163 186 0
164 187 0
167 191 0
166 190 0
166 189 0
169 191 0
165 188 0
167 190 0
170 193 0
166 189 0
167 190 0
169 192 0
169 192 0
165 188 0
168 192 0
169 192 0
168 192 0
170 192 0
166 189 0
170 193 0
168 191 0
167 188 0
162 186 0
166 188 0
172 195 0
170 195 0
168 191 0
167 190 0
164 187 0
165 188 0
169 193 0
165 188 0
169 192 0
160 182 0
165 188 0
166 190 0
167 191 0
170 193 0
171 193 0
171 194 0
172 195 0
165 188 0
169 192 0
168 191 0
167 190 0
168 191 0
168 191 0
173 196 0
170 193 0
167 190 0
165 188 0
166 189 0
172 195 0
169 193 0
171 194 0
172 195 0
170 193 0
170 194 0
169 192 0
166 188 0
169 192 0
173 195 0
170 193 0
169 193 0
169 192 0
172 194 0
170 192 0
170 193 0
170 193 0
169 193 0
168 191 0
170 194 0
170 193 0
172 194 0
171 194 0
168 192 0
171 195 0
171 194 0
172 195 0
165 188 0
173 196 0
168 192 0
170 193 0
169 191 0
172 194 0
171 195 0
172 196 0
169 194 0
171 194 0
168 192 0
167 190 0
172 195 0
171 194 0
169 192 0
167 191 0
172 195 0
173 196 0
169 193 0
171 195 0
174 197 0
172 195 0
172 194 0
170 193 0
169 192 0
172 195 0
174 197 0
171 195 0
171 195 0
173 196 0
170 193 0
172 195 0
170 194 0
170 194 0
174 197 0
170 192 0
171 195 0
169 193 0
172 195 0
174 197 0
172 195 0
173 196 0
173 196 0
174 197 0
171 194 0
173 196 0
170 194 0
172 195 0
174 196 0
171 194 0
171 194 0
172 195 0
168 192 0
170 194 0
173 197 0
173 197 0
173 196 0
171 194 0
174 196 0
172 195 0
173 196 0
170 193 0
172 195 0
172 196 0
171 194 0
172 195 0
174 197 0
174 196 0
172 195 0
174 198 0
173 196 0
172 196 0
169 193 0
172 196 0
174 198 0
173 196 0
174 196 0
170 195 0
175 198 0
174 197 0
173 196 0
175 197 0
173 196 0
172 195 0
173 195 0
171 194 0
172 195 0
173 196 0
172 195 0
172 196 0
170 193 0
174 197 0
174 197 0
172 195 0
174 197 0
172 195 0
173 197 0
174 197 0
173 196 0
173 196 0
173 196 0
172 196 0
172 195 0
174 197 0
174 197 0
174 197 0
172 196 0
173 196 0
174 197 0
171 195 0
174 198 0
172 196 0
174 197 0
173 197 0
173 197 0
172 196 0
175 198 0
172 196 0
172 195 0
172 196 0
173 196 0
173 197 0
170 194 0
172 196 0
175 198 0
174 197 0
175 198 0
175 198 0
174 197 0
171 195 0
173 197 0
171 194 0
172 196 0
173 197 0
171 195 0
172 196 0
173 197 0
169 193 0
174 197 0
173 197 0
174 197 0
172 195 0
172 195 0
173 197 0
169 193 0
172 195 0
172 196 0
169 193 0
172 195 0
174 197 0
174 197 0
173 196 0
172 196 0
171 195 0
173 196 0
173 196 0
175 197 0
175 198 0
172 196 0
171 195 0
175 198 0
170 195 0
171 196 0
174 197 0
170 194 0
170 193 0
173 196 0
174 196 0
173 196 0
171 195 0
171 193 0
171 194 0
174 196 0
173 196 0
171 194 0
171 194 0
174 197 0
173 196 0
170 193 0
174 196 0
173 197 0
174 196 0
172 195 0
172 195 0
172 195 0
171 194 0
171 193 0
169 192 0
175 197 0
173 195 0
172 194 0
174 195 0
174 196 0
172 194 0
172 194 0
175 197 0
175 197 0
173 195 0
175 196 0
176 197 0
171 193 0
174 196 25
169 191 0
174 196 0
172 194 0
174 195 0
172 194 0
171 194 0
174 196 0
174 197 0
172 194 0
174 197 0
173 195 0
170 192 0
173 195 25
173 194 0
178 199 0
176 197 0
177 198 0
170 192 0
173 195 0
174 196 0
176 197 0
173 195 0
171 193 0
172 195 0
174 195 0
173 195 0
172 193 0
172 193 0
173 194 0
172 194 0
174 196 0
172 194 0
171 193 0
173 195 0
174 195 0
172 193 0
172 193 0
171 192 0
171 192 0
172 193 0
174 196 0
168 190 0
173 194 0
168 191 0
168 189 0
173 195 0
168 189 0
166 187 0
168 189 0
162 185 0
166 188 0
174 196 0
170 192 0
164 186 0
169 191 0
169 191 0
168 191 0
165 186 0
166 189 0
168 189 0
167 190 0
169 191 0
169 192 0
165 188 0
167 190 0
165 188 0
162 185 0
169 193 0
164 187 0
161 183 0
168 191 0
165 189 0
163 186 0
164 186 0
166 188 0
165 188 0
169 192 0
160 184 0
168 192 0
166 189 0
166 189 0
163 186 0
169 192 0
170 193 0
162 185 0
167 191 0
164 187 0
170 193 0
168 191 0
163 186 0
169 192 0
162 186 0
165 188 0
168 191 0
164 188 0
167 190 0
169 193 0
164 187 0
166 190 0
170 193 0
162 186 0
169 191 0
165 188 0
167 191 0
161 184 0
164 187 0
166 189 0
166 189 0
163 186 0
165 189 0
167 190 0
171 194 0
172 195 0
168 191 0
166 189 0
164 188 0
166 190 0
165 189 0
165 188 0
169 193 0
170 193 0
166 190 0
165 188 0
159 182 0
166 189 0
171 194 0
168 192 0
168 191 0
165 189 0
169 192 0
173 195 0
167 191 0
167 191 0
168 192 0
167 189 0
172 195 0
167 191 0
168 191 0
168 191 0
166 188 0
165 188 0
170 193 0
167 191 0
172 194 0
168 191 0
169 192 0
172 195 0
163 186 0
170 193 0
171 194 0
167 189 0
167 190 0
169 192 0
172 195 0
165 188 0
163 187 0
168 191 0
168 190 0
171 194 0
169 192 0
170 194 0
172 195 0
169 192 0
163 187 0
167 190 0
168 191 0
167 191 0
167 190 0
169 191 0
172 195 0
169 192 0
168 191 0
169 191 0
169 193 0
169 192 0
169 192 0
170 193 0
170 193 0
169 192 0
171 194 0
166 189 0
170 194 0
171 194 0
167 191 0
172 195 0
168 192 0
170 192 0
170 193 0
172 195 0
169 192 0
169 192 0
168 192 0
169 192 0
171 194 0
170 193 0
171 195 0
170 193 0
170 193 0
170 193 0
170 194 0
170 194 0
169 192 0
171 195 0
169 193 0
172 196 0
169 193 0
173 197 0
172 195 0
169 193 0
171 193 0
173 197 0
170 193 0
175 197 0
170 194 0
171 194 0
168 192 0
169 192 0
173 196 0
170 193 0
170 193 0
171 194 0
172 195 0
172 195 0
171 194 0
171 194 0
170 192 0
169 193 0
169 192 0
169 192 0
169 192 0
172 195 0
174 197 0
170 193 0
170 193 0
172 195 0
170 193 0
168 190 0
173 196 0
173 196 0
171 195 0
172 195 0
173 197 0
173 197 0
171 194 0
173 196 0
170 193 0
170 193 0
171 196 0
172 196 0
172 196 0
171 195 0
172 195 0
170 193 0
173 197 0
175 197 0
174 196 0
173 195 0
172 196 0
174 197 0
170 194 0
174 197 0
169 193 0
173 196 0
173 194 0
175 198 0
173 196 0
169 192 0
172 196 0
173 197 0
173 196 0
173 196 0
174 197 0
174 197 0
170 193 0
171 195 0
172 196 0
173 197 0
174 198 0
173 196 0
175 197 0
175 198 0
172 195 0
174 197 0
174 197 0
174 197 0
173 196 0
174 197 0
173 196 0
174 197 0
171 195 0
171 195 0
175 197 0
173 196 0
173 196 0
173 196 0
172 195 0
172 195 0
173 196 0
171 194 0
173 197 0
174 197 0
174 197 0
173 197 0
173 197 0
175 198 0
174 197 0
173 197 0
173 197 0
173 197 0
172 196 0
174 197 0
171 195 0
173 197 0
170 194 0
173 197 0
174 197 0
173 196 0
174 197 0
175 197 0
175 197 0
172 195 0
174 198 0
172 195 0
174 198 0
174 198 0
173 196 0
174 197 0
173 196 0
173 196 0
172 196 0
171 195 0
173 197 0
175 198 0
174 197 0
173 197 0
169 193 0
174 197 0
173 196 0
173 197 0
170 194 0
172 196 0
171 196 0
173 197 0
174 197 0
174 196 0
173 196 0
175 197 0
173 197 0
175 198 0
174 197 0
174 197 0
172 195 0
175 198 0
173 196 0
173 197 0
172 196 0
171 193 0
173 197 0
171 195 0
174 197 0
174 197 0
171 194 0
175 198 0
171 195 0
174 197 0
172 195 0
172 195 0
172 195 0
170 193 0
174 196 0
170 193 0
171 195 0
174 197 0
171 195 0
172 195 0
175 198 0
172 196 0
171 194 0
175 198 0
174 197 0
170 193 0
174 198 0
171 193 0
170 192 0
176 198 0
172 195 0
173 196 0
173 196 0
171 194 0
171 193 0
172 194 0
173 195 0
172 194 0
175 197 0
171 194 0
172 195 0
174 197 0
173 195 0
173 196 0
174 196 0
174 196 0
174 196 0
172 194 0
172 195 0
176 197 0
173 195 0
174 196 0
173 195 0
173 196 0
174 196 0
170 192 0
171 194 0
171 193 0
173 195 0
172 194 0
170 192 0
173 194 0
171 193 0
172 194 0
171 192 0
172 193 0
171 193 0
174 196 0
174 195 0
174 197 0
173 195 0
170 193 0
173 194 0
172 194 0
172 193 0
176 197 0
174 196 0
173 195 0
173 194 0
171 193 0
169 191 0
166 187 0
171 193 0
173 194 0
170 192 0
174 196 0
171 193 0
173 195 0
168 189 0
169 191 0
171 193 0
167 189 0
166 189 0
169 190 0
171 193 0
166 189 0
167 190 0
169 192 0
168 190 0
166 188 0
168 191 0
168 191 0
168 191 0
169 192 0
166 189 0
167 189 0
163 186 0
163 186 0
163 186 0
167 189 0
167 190 0
167 189 0
169 192 0
167 189 0
164 186 0
169 191 0
167 190 0
170 193 0
169 192 0
162 185 0
166 189 0
165 187 0
168 190 0
165 188 0
163 186 0
163 186 0
162 186 0
164 187 0
165 188 0
170 193 0
166 190 0
167 190 0
170 193 0
163 187 0
170 193 0
163 186 0
169 191 0
167 189 0
166 190 0
170 194 0
163 186 0
171 194 0
162 184 0
163 187 0
166 190 0
164 187 0
171 193 0
165 188 0
164 186 0
165 187 0
168 192 0
162 185 0
161 186 0
166 189 0
170 193 0
164 187 0
168 192 0
167 190 0
169 193 0
159 182 0
167 190 0
163 186 0
166 189 0
164 185 0
165 189 0
164 187 0
164 187 0
169 192 0
168 192 0
169 192 0
164 189 0
164 187 0
166 190 0
167 191 0
167 191 0
166 188 0
167 190 0
162 185 0
171 195 0
165 188 0
168 192 0
167 190 0
167 191 0
169 192 0
168 191 0
169 193 0
167 190 0
171 193 0
169 192 0
167 191 0
168 192 0
171 193 0
168 191 0
169 192 0
168 191 0
168 190 0
166 190 0
169 192 0
169 193 0
168 191 0
165 188 0
166 188 0
169 192 0
168 191 0
167 190 0
170 193 0
168 191 0
165 189 0
169 192 0
169 193 0
170 194 0
166 190 0
169 191 0
168 191 0
170 193 0
167 190 0
169 192 0
168 191 0
166 189 0
171 194 0
167 190 0
170 194 0
169 193 0
172 195 0
170 194 0
172 194 0
169 192 0
170 193 0
167 190 0
169 193 0
171 194 0
169 192 0
164 187 0
172 196 0
173 197 0
169 194 0
168 191 0
170 194 0
169 192 0
171 194 0
170 194 0
171 194 0
170 193 0
169 192 0
172 195 0
171 194 0
171 194 0
171 193 0
170 193 0
173 194 0
173 196 0
170 193 0
168 192 0
167 190 0
172 194 0
168 191 0
172 196 0
170 193 0
171 193 0
172 195 0
168 191 0
171 194 0
171 194 0
171 194 0
170 193 0
174 196 0
171 194 0
171 195 0
169 193 0
172 196 0
171 194 0
171 194 0
172 195 0
172 195 0
168 192 0
170 194 0
172 196 0
169 193 0
171 194 0
172 195 0
172 195 0
173 197 0
171 195 0
173 195 0
173 197 0
173 196 0
172 197 0
173 196 0
173 195 0
175 197 0
172 196 0
169 193 0
174 197 0
168 192 0
174 196 0
173 196 0
173 196 0
173 196 0
172 196 0
172 195 0
173 197 0
169 193 0
174 198 0
173 196 0
173 196 0
173 197 0
174 197 0
172 196 0
171 195 0
173 197 0
171 196 0
172 195 0
171 194 0
171 194 0
170 194 0
172 195 0
170 194 0
174 197 0
174 197 0
173 196 0
174 197 0
174 197 0
174 198 0
174 197 0
173 196 0
173 197 0
172 196 0
172 196 0
174 197 0
174 196 0
173 196 0
173 196 0
172 196 0
172 196 0
170 194 0
174 197 0
171 195 0
173 197 0
172 196 0
174 197 0
174 197 0
173 197 0
174 197 0
172 195 0
175 198 0
172 196 0
174 198 0
174 197 0
172 196 0
174 198 0
173 196 0
171 195 0
174 197 0
174 197 0
175 198 0
173 196 0
175 198 0
170 194 0
175 198 0
174 197 0
170 194 0
172 196 0
174 197 0
172 196 0
175 198 0
170 193 0
173 197 0
173 197 0
173 197 0
173 197 0
172 196 0
174 198 0
175 198 0
171 195 0
172 195 0
173 197 0
173 197 0
174 197 0
172 196 0
174 197 0
171 195 0
174 197 0
173 196 0
172 196 0
172 196 0
173 197 0
174 197 0
174 197 0
171 195 0
171 195 0
171 195 0
171 195 0
174 197 0
174 196 0
175 198 0
171 195 0
173 196 0
174 198 0
175 198 0
172 196 0
174 197 0
175 197 0
172 196 0
170 194 0
172 195 0
172 196 0
172 195 0
174 198 0
174 197 0
172 196 0
174 197 0
172 195 0
170 193 0
173 197 0
171 194 0
171 195 0
172 195 0
173 196 0
175 197 0
173 197 0
170 193 0
172 195 0
173 195 0
172 195 0
170 194 0
174 197 0
175 197 0
173 195 0
172 194 0
174 197 0
174 197 0
174 197 0
170 193 0
171 194 0
172 195 0
171 193 0
172 195 0
173 195 0
173 195 0
177 199 0
173 196 0
171 193 0
174 196 0
172 194 0
172 194 0
173 196 0
172 194 0
173 195 0
176 198 0
171 193 0
172 194 0
172 195 0
172 194 0
175 197 0
173 194 0
174 196 0
174 196 0
171 192 0
172 194 0
174 196 0
174 196 0
171 192 0
173 195 0
173 195 0
175 197 0
174 196 0
175 196 0
174 196 0
172 194 0
173 195 0
171 192 0
174 195 0
169 191 0
169 190 0
171 193 0
173 193 25
174 196 0
174 195 0
171 192 0
169 191 0
172 194 0
171 192 0
171 193 0
170 192 0
170 192 0
170 191 0
174 196 0
170 191 0
170 191 0
168 190 0
172 194 0
170 192 0
173 195 0
173 194 0
172 193 0
170 193 0
171 194 0
170 192 0
167 189 0
172 193 0
164 187 0
167 189 0
165 188 0
169 192 0
168 190 0
170 193 0
169 192 0
172 195 0
163 187 0
166 189 0
167 190 0
169 193 0
167 190 0
166 189 0
170 193 0
165 188 0
164 188 0
168 191 0
166 190 0
166 187 0
164 186 0
170 193 0
165 189 0
168 191 0
162 186 0
162 185 0
165 187 0
165 188 0
162 185 0
166 189 0
162 186 0
166 189 0
171 194 0
171 194 0
167 190 0
167 189 0
164 187 0
162 185 0
164 186 0
168 192 0
167 190 0
167 191 0
166 189 0
164 186 0
170 194 0
166 190 0
168 191 0
169 192 0
167 190 0
168 191 0
166 189 0
163 186 0
165 189 0
161 184 0
167 190 0
162 185 0
166 188 0
165 189 0
164 188 0
167 191 0
166 188 0
165 188 0
169 193 0
167 189 0
167 191 0
166 189 0
165 190 0
168 191 0
166 189 0
169 192 0
165 188 0
166 189 0
165 188 0
168 190 0
169 192 0
167 191 0
165 189 0
169 193 0
166 190 0
168 191 0
166 190 0
169 192 0
169 192 0
168 191 0
162 186 0
167 190 0
172 194 0
167 190 0
171 194 0
171 195 0
171 194 0
166 189 0
169 193 0
167 191 0
170 193 0
167 190 0
169 193 0
169 192 0
169 192 0
170 194 0
170 194 0
170 193 0
169 193 0
169 193 0
167 189 0
172 195 0
169 191 0
167 190 0
172 195 0
173 196 0
169 192 0
170 193 0
168 191 0
169 193 0
172 195 0
170 194 0
172 196 0
169 191 0
169 192 0
172 195 0
164 187 0
172 196 0
169 192 0
172 194 0
166 189 0
171 193 0
175 197 0
168 191 0
170 193 0
170 193 0
172 195 0
168 192 0
169 192 0
166 190 0
170 193 0
172 195 0
169 192 0
168 191 0
172 195 0
171 192 0
169 192 0
173 196 0
170 194 0
173 196 0
171 194 0
173 195 0
171 195 0
171 195 0
169 193 0
171 195 0
173 196 0
172 195 0
173 195 0
170 193 0
171 195 0
169 192 0
170 194 0
172 195 0
169 192 0
172 196 0
170 193 0
172 196 0
172 193 0
172 195 0
171 194 0
172 196 0
169 193 0
170 193 0
170 194 0
173 195 0
172 195 0
170 194 0
172 194 0
172 195 0
170 194 0
172 195 0
172 195 0
173 197 0
172 194 0
173 196 0
174 197 0
172 194 0
172 195 0
173 196 0
173 195 0
170 193 0
173 196 0
172 195 0
172 195 0
168 192 0
172 196 0
173 197 0
170 194 0
171 194 0
173 196 0
172 195 0
174 197 0
172 194 0
169 192 0
173 195 0
174 197 0
173 197 0
174 197 0
172 195 0
174 197 0
174 196 0
171 194 0
171 194 0
172 196 0
173 196 0
173 196 0
173 196 0
174 196 0
172 196 0
174 198 0
169 193 0
175 198 0
174 197 0
174 195 0
171 194 0
172 196 0
172 196 0
171 195 0
172 196 0
173 196 0
175 197 0
171 193 0
172 196 0
172 196 0
174 197 0
171 194 0
171 195 0
174 197 0
171 195 0
175 198 0
173 197 0
173 197 0
174 197 0
173 196 0
173 196 0
172 195 0
174 197 0
172 195 0
172 195 0
172 195 0
173 197 0
175 198 0
174 197 0
172 195 0
171 195 0
174 198 0
174 198 0
173 197 0
175 198 0
175 198 0
172 196 0
171 195 0
174 198 0
173 197 0
172 196 0
171 195 0
173 197 0
174 197 0
175 198 0
172 196 0
173 197 0
174 197 0
173 197 0
175 198 0
174 197 0
174 198 0
174 198 0
172 195 0
172 195 0
173 195 0
175 198 0
173 197 0
175 197 0
173 197 0
173 196 0
171 194 0
173 197 0
173 197 0
172 196 0
172 196 0
174 198 0
173 197 0
174 197 0
171 195 0
171 195 0
171 195 0
175 198 0
172 196 0
172 196 0
170 194 0
172 196 0
172 195 0
172 196 0
169 194 0
173 196 0
172 195 0
173 196 0
174 197 0
174 197 0
169 193 0
173 195 0
170 194 0
171 195 0
173 197 0
174 197 0
173 196 0
169 192 0
172 196 0
173 196 0
172 195 0
175 198 0
170 194 0
172 195 0
174 197 0
173 196 0
173 195 0
175 198 0
173 196 0
171 194 0
174 196 0
171 194 0
173 195 0
172 195 0
173 196 0
174 196 0
173 195 0
173 196 0
175 198 0
173 196 0
171 193 0
171 194 0
172 194 0
173 196 0
176 198 0
172 194 0
174 195 0
173 195 0
173 195 0
171 193 0
170 193 0
172 194 0
173 196 0
173 196 0
173 195 0
173 195 0
171 193 0
175 197 0
170 192 0
175 198 0
172 193 0
173 194 0
174 196 0
171 194 0
173 195 0
171 193 0
171 193 25
173 195 0
175 197 0
168 190 0
174 197 0
170 192 0
173 195 0
172 195 0
172 195 0
169 191 0
172 194 0
171 193 0
170 192 0
170 192 0
170 192 0
171 193 0
173 195 0
173 194 0
167 188 0
171 193 0
169 190 0
169 192 0
168 191 0
173 194 0
170 192 0
172 193 0
171 193 0
169 190 0
169 191 0
167 190 0
170 193 0
168 190 0
167 189 0
167 189 0
166 189 0
171 193 0
168 191 0
168 190 0
166 187 0
166 188 0
169 191 0
171 193 0
171 193 0
166 188 0
167 189 0
168 191 0
167 190 0
170 192 0
169 191 0
169 191 0
168 191 0
168 191 0
165 188 0
163 186 0
163 186 0
164 187 0
164 187 0
165 189 0
166 190 0
165 188 0
169 192 0
169 192 0
167 192 0
166 189 0
164 186 0
170 193 0
166 190 0
164 187 0
167 190 0
168 191 0
165 188 0
166 189 0
166 189 0
169 192 0
166 188 0
165 188 0
167 191 0
166 190 0
165 188 0
167 191 0
167 191 0
165 189 0
163 187 0
169 192 0
167 190 0
162 185 0
171 193 0
165 188 0
168 192 0
169 193 0
167 191 0
169 192 0
168 190 0
168 192 0
165 188 0
165 188 0
169 192 0
169 192 0
165 189 0
169 193 0
164 187 0
165 189 0
168 191 0
167 191 0
165 190 0
165 189 0
172 194 0
167 190 0
166 189 0
164 188 0
168 192 0
170 193 0
170 193 0
172 195 0
171 194 0
168 191 0
165 189 0
169 192 0
163 186 0
171 194 0
166 190 0
167 190 0
167 191 0
165 189 0
167 191 0
168 191 0
166 189 0
167 191 0
165 188 0
165 189 0
167 190 0
164 188 0
167 191 0
170 192 0
170 194 0
169 193 0
167 192 0
167 191 0
164 188 0
166 190 0
163 187 0
171 194 0
173 195 0
168 192 0
164 186 0
169 193 0
168 191 0
171 194 0
168 192 0
172 195 0
174 196 0
169 193 0
167 191 0
170 193 0
169 192 0
170 194 0
172 195 0
165 187 0
171 193 0
168 192 0
172 195 0
169 193 0
165 189 0
169 193 0
171 194 0
168 191 0
170 193 0
171 194 0
171 194 0
169 192 0
171 193 0
165 188 0
165 188 0
169 192 0
172 195 0
170 193 0
171 193 0
170 194 0
170 193 0
169 193 0
170 193 0
170 193 0
170 193 0
169 191 0
173 197 0
170 194 0
170 193 0
170 193 0
170 194 0
172 195 0
171 195 0
170 193 0
172 196 0
169 192 0
172 196 0
173 196 0
170 193 0
172 195 0
168 191 0
170 193 0
168 192 0
172 195 0
173 196 0
171 194 0
170 193 0
174 196 0
172 196 0
169 192 0
173 196 0
173 197 0
175 197 0
171 195 0
173 196 0
169 193 0
169 193 0
170 194 0
172 195 0
170 194 0
171 195 0
174 198 0
172 195 0
174 197 0
172 195 0
174 197 0
170 194 0
172 195 0
174 197 0
173 196 0
171 194 0
173 196 0
169 194 0
171 196 0
172 194 0
170 194 0
173 197 0
171 194 0
172 195 0
171 195 0
175 197 0
172 195 0
173 195 0
173 196 0
169 192 0
173 196 0
175 198 0
173 196 0
171 194 0
172 195 0
170 193 0
171 194 0
174 197 0
170 193 0
171 194 0
173 196 0
174 197 0
171 195 0
169 192 0
172 195 0
173 196 0
173 196 0
173 195 0
171 194 0
171 194 0
173 197 0
171 195 0
174 197 0
170 194 0
171 194 0
172 196 0
174 197 0
172 194 0
173 197 0
172 195 0
173 196 0
174 196 0
172 195 0
172 195 0
173 197 0
174 197 0
173 196 0
171 194 0
174 197 0
171 195 0
174 197 0
173 197 0
174 197 0
176 198 0
173 197 0
173 196 0
173 197 0
172 195 0
175 198 0
173 196 0
172 196 0
173 196 0
173 197 0
173 197 0
175 198 0
172 196 0
176 199 0
174 198 0
173 197 0
174 198 0
172 196 0
175 198 0
173 197 0
171 195 0
173 197 0
173 196 0
171 195 0
172 196 0
175 198 0
173 197 0
173 196 0
173 196 0
172 196 0
173 197 0
171 195 0
174 197 0
173 197 0
172 195 0
173 196 0
171 195 0
174 197 0
173 196 0
171 196 0
175 198 0
173 197 0
173 196 0
174 198 0
175 198 0
174 197 0
173 196 0
173 197 0
174 197 0
173 196 0
175 198 0
172 195 0
172 195 0
175 197 0
173 196 0
173 196 0
170 194 0
172 195 0
172 195 0
173 196 0
173 197 0
172 196 0
174 197 0
174 197 0
169 193 0
174 197 0
172 194 0
171 194 0
174 197 0
176 197 0
173 196 0
175 197 0
175 198 0
171 194 0
175 197 0
174 197 0
175 198 0
171 195 0
174 196 0
174 197 0
172 195 0
171 194 0
172 195 0
174 197 0
175 197 0
172 194 0
171 194 0
172 194 0
171 193 0
173 196 0
170 192 0
174 196 0
171 194 0
169 191 0
173 195 0
172 195 0
173 195 0
172 195 0
174 195 0
173 195 0
174 196 0
174 196 0
174 196 0
173 195 0
174 197 0
173 195 0
174 197 0
175 196 0
171 194 0
172 194 0
173 195 0
171 193 0
173 195 0
170 192 0
170 193 0
171 193 0
174 195 0
172 194 0
174 196 0
173 194 0
170 193 0
169 190 0
173 194 0
171 192 0
171 192 0
173 194 0
175 196 0
170 192 0
172 194 0
171 193 0
170 191 0
174 196 25
170 191 0
171 192 0
169 191 0
174 195 0
168 189 0
174 195 0
169 191 0
171 193 0
169 191 0
173 194 0
168 190 0
171 193 0
169 190 0
172 195 0
170 192 0
171 193 0
167 190 0
171 193 0
171 194 0
169 192 0
162 185 0
169 191 0
170 193 0
170 192 0
166 188 0
168 190 0
168 191 0
169 192 0
169 192 0
171 193 0
170 193 0
171 193 0
167 190 0
167 189 0
170 193 0
165 188 0
167 190 0
168 191 0
170 193 0
167 190 0
167 190 0
165 188 0
172 195 0
167 190 0
165 188 0
167 191 0
160 182 0
166 190 0
167 191 0
168 191 0
165 188 0
166 189 0
166 189 0
170 192 0
168 192 0
165 189 0
171 193 0
164 188 0
170 193 0
164 187 0
166 189 0
164 187 0
168 191 0
163 186 0
165 188 0
162 185 0
169 192 0
164 187 0
161 184 0
168 191 0
165 188 0
164 188 0
165 189 0
164 187 0
163 187 0
166 188 0
169 193 0
167 191 0
168 192 0
163 187 0
165 188 0
166 190 0
167 191 0
168 192 0
168 190 0
167 190 0
165 188 0
167 192 0
170 193 0
168 192 0
166 190 0
169 191 0
166 188 0
164 187 0
164 188 0
165 188 0
165 188 0
164 187 0
166 189 0
166 190 0
164 187 0
166 190 0
166 189 0
170 192 0
173 196 0
163 186 0
166 188 0
167 190 0
168 191 0
172 194 0
168 192 0
166 188 0
169 192 0
165 188 0
165 188 0
166 190 0
170 193 0
170 192 0
171 194 0
169 192 0
168 192 0
168 192 0
165 188 0
166 190 0
168 191 0
167 190 0
173 196 0
171 195 0
168 192 0
166 190 0
167 190 0
168 192 0
167 191 0
170 193 0
168 191 0
171 193 0
167 190 0
171 195 0
170 193 0
173 196 0
170 194 0
170 193 0
165 190 0
169 192 0
171 194 0
168 191 0
170 194 0
169 192 0
171 195 0
170 193 0
169 193 0
169 192 0
173 196 0
167 191 0
169 193 0
169 193 0
172 196 0
171 193 0
170 194 0
170 193 0
171 195 0
166 190 0
169 193 0
171 195 0
171 194 0
171 194 0
171 195 0
171 194 0
168 190 0
172 196 0
171 195 0
173 197 0
169 191 0
172 195 0
168 192 0
172 195 0
172 194 0
172 195 0
172 195 0
172 196 0
172 196 0
173 196 0
169 193 0
170 194 0
171 194 0
169 192 0
168 191 0
174 197 0
172 195 0
173 196 0
173 195 0
172 194 0
173 196 0
172 195 0
169 193 0
174 197 0
173 196 0
172 195 0
170 194 0
170 193 0
172 195 0
170 194 0
174 196 0
173 196 0
172 196 0
172 195 0
170 194 0
171 194 0
171 195 0
172 196 0
170 192 0
171 195 0
173 196 0
172 196 0
171 195 0
170 193 0
171 194 0
172 195 0
175 198 0
172 196 0
171 194 0
172 195 0
172 195 0
174 197 0
173 196 0
173 195 0
170 193 0
171 194 0
170 194 0
174 197 0
171 194 0
172 196 0
174 197 0
173 197 0
172 196 0
174 197 0
174 197 0
173 196 0
173 196 0
171 194 0
174 197 0
171 194 0
172 195 0
171 193 0
175 198 0
173 196 0
174 197 0
172 196 0
172 195 0
172 196 0
172 195 0
173 197 0
171 194 0
173 197 0
174 197 0
173 197 0
172 195 0
173 196 0
172 196 0
173 197 0
174 197 0
173 197 0
173 197 0
172 196 0
172 196 0
173 197 0
173 197 0
172 196 0
172 196 0
173 197 0
172 196 0
172 196 0
173 196 0
174 197 0
172 195 0
174 197 0
172 195 0
173 196 0
172 197 0
175 198 0
174 198 0
174 197 0
173 197 0
174 198 0
172 196 0
173 196 0
173 196 0
171 195 0
173 196 0
174 198 0
173 196 0
174 197 0
173 197 0
176 198 0
174 197 0
173 197 0
173 196 0
172 196 0
173 197 0
172 196 0
172 195 0
172 195 0
172 196 0
172 195 0
173 197 0
171 195 0
174 197 0
172 196 0
175 198 0
170 194 0
173 196 0
173 196 0
174 197 0
173 195 0
176 198 0
170 194 0
174 197 0
174 197 0
173 196 0
172 195 0
172 195 0
173 196 0
173 197 0
172 196 0
172 196 0
174 197 0
173 197 0
174 198 0
169 192 0
173 197 0
174 196 0
172 194 0
172 195 0
174 196 0
175 198 0
172 195 0
172 196 0
174 196 0
173 197 0
175 198 0
172 195 0
175 197 0
172 196 0
174 197 0
172 195 0
173 196 0
172 195 0
173 195 0
174 197 0
172 194 0
174 197 0
172 194 0
174 196 0
172 195 0
172 195 0
174 197 0
173 195 0
172 194 0
172 194 0
174 197 0
174 197 0
172 194 0
171 194 0
176 198 0
174 196 0
174 197 0
173 195 0
175 197 0
173 196 0
173 194 0
174 196 0
176 198 0
177 198 0
169 191 0
172 194 0
172 194 0
174 196 0
172 194 0
169 191 0
175 197 0
172 194 0
173 194 0
173 195 0
173 195 0
174 197 0
173 195 0
170 192 0
174 195 0
170 191 0
175 197 0
171 193 0
171 193 0
173 195 0
170 191 0
174 196 0
175 196 0
175 196 0
172 194 0
171 193 0
172 194 0
170 191 0
173 195 0
171 193 0
169 191 0
175 196 0
170 192 0
173 195 0
169 191 0
170 192 0
172 194 0
171 192 0
171 193 0
174 196 0
164 186 0
173 195 0
166 189 0
169 192 0
169 192 0
165 187 0
167 189 0
171 193 0
168 190 0
170 193 0
170 193 0
167 189 0
163 185 0
163 186 0
169 193 0
171 193 0
169 191 0
168 191 0
166 189 0
171 194 0
167 190 0
168 192 0
162 186 0
169 192 0
165 188 0
166 188 0
167 189 0
170 192 0
168 190 0
166 189 0
162 184 0
166 188 0
163 187 0
163 186 0
169 192 0
164 186 0
168 190 0
170 193 0
169 192 0
165 188 0
168 191 0
166 190 0
161 184 0
166 190 0
166 188 0
167 190 0
164 188 0
161 185 0
167 190 0
165 187 0
167 191 0
163 186 0
163 186 0
165 188 0
167 190 0
166 188 0
169 193 0
164 189 0
166 189 0
170 193 0
163 186 0
166 190 0
168 192 0
171 195 0
170 193 0
167 190 0
169 192 0
164 188 0
168 192 0
168 192 0
167 190 0
170 193 0
166 190 0
173 196 0
164 188 0
167 190 0
168 191 0
165 188 0
170 193 0
166 189 0
171 194 0
165 188 0
166 188 0
168 191 0
168 190 0
171 193 0
168 192 0
166 190 0
170 194 0
171 194 0
169 192 0
165 189 0
168 192 0
170 194 0
167 190 0
167 190 0
170 194 0
167 191 0
168 192 0
172 196 0
167 189 0
170 193 0
170 193 0
170 193 0
166 190 0
171 195 0
167 192 0
166 190 0
168 191 0
171 194 0
166 188 0
172 196 0
168 190 0
166 190 0
166 189 0
172 196 0
168 191 0
169 192 0
171 194 0
167 191 0
170 193 0
168 191 0
172 194 0
169 193 0
167 191 0
170 193 0
170 195 0
170 194 0
168 192 0
170 193 0
168 192 0
167 191 0
168 192 0
171 194 0
168 193 0
168 191 0
169 194 0
169 192 0
169 193 0
171 194 0
172 195 0
171 194 0
173 195 0
168 192 0
170 194 0
169 192 0
171 195 0
168 191 0
170 193 0
171 193 0
170 194 0
170 193 0
168 191 0
171 194 0
173 196 0
167 191 0
171 194 0
171 194 0
172 195 0
173 196 0
168 191 0
171 194 0
171 195 0
174 198 0
168 191 0
173 197 0
172 194 0
171 193 0
172 195 0
170 193 0
171 195 0
170 192 0
171 195 0
173 196 0
172 194 0
173 196 0
170 193 0
172 194 0
169 192 0
172 195 0
172 195 0
171 194 0
172 195 0
172 195 0
172 195 0
171 194 0
171 195 0
171 194 0
169 193 0
171 195 0
171 194 0
171 194 0
171 195 0
172 196 0
173 196 0
175 198 0
171 193 0
171 195 0
173 196 0
172 196 0
170 193 0
176 198 0
171 195 0
174 197 0
174 197 0
167 189 0
173 196 0
172 195 0
172 196 0
171 194 0
170 193 0
173 195 0
169 191 0
173 195 0
172 194 0
172 195 0
172 197 0
173 196 0
172 196 0
173 196 0
176 198 0
173 196 0
173 197 0
173 197 0
172 195 0
173 196 0
172 194 0
173 196 0
172 196 0
173 197 0
170 194 0
174 198 0
170 194 0
174 197 0
171 195 0
173 195 0
172 195 0
172 195 0
173 196 0
172 195 0
173 195 0
173 197 0
175 198 0
174 197 0
174 197 0
170 193 0
172 196 0
174 197 0
172 196 0
175 198 0
174 197 0
172 196 0
174 198 0
174 197 0
173 196 0
174 197 0
173 196 0
173 196 0
173 197 0
173 196 0
173 197 0
174 198 0
175 198 0
172 196 0
173 197 0
171 195 0
173 197 0
175 198 0
172 195 0
172 196 0
170 194 0
172 196 0
172 196 0
174 197 0
174 198 0
171 195 0
173 196 0
174 197 0
173 196 0
173 197 0
171 194 0
175 198 0
173 197 0
173 196 0
174 197 0
172 196 0
175 198 0
174 197 0
174 198 0
173 197 0
170 195 0
171 195 0
173 196 0
172 195 0
173 197 0
174 197 0
173 196 0
171 195 0
174 197 0
173 196 0
170 193 0
172 196 0
172 195 0
173 196 0
171 194 0
172 196 0
174 197 0
172 196 0
172 196 0
174 197 0
172 196 0
171 195 0
173 197 0
173 196 0
172 195 0
173 196 0
172 195 0
169 192 0
173 196 0
170 194 0
172 196 0
169 193 0
175 198 0
173 196 0
172 195 0
171 194 0
175 197 0
172 196 0
173 197 0
172 195 0
173 196 0
173 195 0
173 195 0
173 196 0
172 195 0
175 197 0
173 196 0
169 192 0
173 195 0
172 195 0
175 197 0
171 193 0
175 197 0
172 195 0
175 197 0
169 192 0
174 195 0
169 192 0
172 194 0
174 197 0
171 194 0
173 195 0
173 195 0
173 195 0
176 198 0
173 195 0
173 194 0
174 196 0
172 194 0
173 196 0
172 194 0
170 192 0
171 193 0
170 193 0
171 193 0
172 193 0
177 197 0
173 195 0
174 195 0
176 197 0
176 197 0
172 194 0
174 195 0
172 194 0
169 191 0
173 195 0
175 196 0
176 197 0
178 199 0
167 188 0
173 195 0
175 197 0
170 192 0
172 194 0
172 194 0
175 197 0
170 193 0
174 195 0
171 193 0
166 189 0
173 195 0
172 193 0
172 192 0
169 190 0
171 194 0
175 197 0
169 192 0
173 195 0
173 194 0
165 188 0
171 193 0
166 188 0
168 190 0
168 191 0
173 195 0
167 190 0
171 193 0
169 192 0
170 193 0
168 191 0
165 188 0
173 195 0
166 189 0
171 194 0
170 192 0
172 195 0
168 191 0
168 191 0
167 189 0
167 190 0
164 188 0
169 192 0
165 188 0
164 186 0
168 190 0
172 195 0
170 193 0
168 191 0
163 186 0
168 191 0
169 192 0
170 193 0
169 191 0
166 189 0
173 196 0
167 190 0
170 191 0
160 184 0
169 192 0
169 193 0
163 186 0
167 190 0
170 193 0
166 190 0
164 187 0
172 197 0
173 196 0
164 187 0
166 190 0
168 192 0
167 190 0
168 192 0
162 185 0
167 190 0
167 190 0
168 191 0
166 189 0
169 192 0
166 189 0
168 191 0
169 192 0
167 192 0
166 189 0
166 190 0
171 195 0
168 191 0
166 190 0
167 191 0
169 192 0
166 189 0
162 185 0
169 193 0
166 190 0
169 192 0
166 190 0
162 186 0
170 193 0
168 192 0
167 190 0
167 191 0
168 191 0
172 195 0
166 189 0
167 190 0
167 190 0
168 191 0
171 194 0
171 194 0
169 192 0
166 189 0
172 196 0
170 194 0
166 189 0
170 193 0
170 193 0
164 186 0
171 193 0
168 192 0
168 191 0
170 193 0
172 195 0
171 195 0
171 195 0
169 193 0
167 190 0
170 194 0
168 192 0
169 193 0
168 191 0
173 196 0
168 192 0
170 193 0
172 195 0
171 194 0
167 191 0
171 194 0
170 194 0
172 195 0
171 195 0
172 196 0
168 191 0
167 190 0
168 191 0
170 193 0
172 194 0
169 192 0
172 196 0
172 195 0
170 193 0
170 193 0
170 193 0
172 195 0
170 193 0
172 195 0
172 195 0
173 195 0
173 195 0
171 194 0
171 195 0
169 192 0
170 194 0
171 194 0
170 192 0
170 193 0
166 190 0
169 193 0
172 195 0
174 196 0
172 195 0
172 196 0
168 191 0
173 195 0
171 194 0
173 195 0
168 191 0
172 195 0
169 192 0
171 194 0
174 196 0
174 197 0
173 196 0
172 196 0
172 196 0
170 193 0
171 195 0
171 193 0
171 194 0
172 196 0
170 194 0
172 196 0
172 196 0
170 193 0
169 191 0
171 194 0
171 194 0
167 191 0
172 196 0
171 195 0
171 195 0
169 192 0
172 195 0
172 195 0
173 196 0
171 194 0
171 195 0
173 196 0
173 197 0
173 196 0
173 196 0
173 197 0
171 194 0
174 197 0
171 194 0
172 195 0
170 194 0
173 196 0
171 195 0
172 195 0
172 194 0
174 197 0
171 195 0
171 195 0
172 195 0
175 198 0
174 197 0
173 197 0
174 196 0
173 196 0
172 196 0
172 196 0
171 194 0
171 194 0
174 197 0
172 195 0
172 195 0
172 196 0
173 197 0
172 196 0
171 194 0
169 192 0
171 194 0
173 197 0
174 197 0
170 194 0
172 195 0
172 195 0
173 196 0
173 195 0
173 195 0
174 197 0
172 195 0
173 196 0
173 197 0
173 197 0
173 197 0
173 196 0
173 196 0
174 197 0
172 196 0
172 196 0
173 197 0
175 198 0
174 197 0
172 195 0
174 197 0
174 197 0
172 196 0
174 198 0
172 196 0
172 196 0
174 198 0
172 195 0
174 197 0
172 196 0
173 197 0
171 195 0
172 196 0
173 196 0
174 198 0
172 197 0
174 197 0
175 198 0
174 197 0
173 197 0
174 198 0
172 196 0
174 197 0
171 195 0
174 198 0
171 195 0
174 198 0
172 196 0
172 196 0
173 197 0
173 197 0
173 197 0
173 196 0
172 196 0
172 195 0
173 197 0
173 197 0
173 197 0
175 198 0
173 197 0
173 196 0
169 193 0
173 196 0
171 195 0
175 198 0
172 196 0
173 197 0
174 197 0
172 196 0
172 196 0
176 199 0
173 197 0
171 195 0
175 198 0
173 196 0
172 195 0
175 198 0
173 196 0
174 197 0
174 197 0
174 197 0
173 195 0
174 197 0
172 196 0
173 196 0
173 196 0
174 197 0
173 196 0
172 195 0
172 196 0
176 198 0
172 195 0
171 195 0
173 197 0
173 196 0
170 194 0
174 197 0
172 195 0
176 198 0
174 197 0
175 198 0
171 195 0
171 193 0
172 195 0
169 193 0
173 196 0
172 196 0
175 197 0
171 195 0
173 196 0
171 193 0
174 197 0
174 197 0
172 195 0
170 193 0
171 194 0
175 197 0
174 197 0
175 197 0
173 195 0
175 197 0
173 196 0
172 194 0
173 196 0
173 195 0
174 196 0
174 196 0
173 196 0
173 196 0
170 193 0
175 197 0
173 195 0
169 192 0
174 196 0
176 198 0
169 190 0
176 197 0
173 194 0
171 193 0
174 197 0
175 196 0
177 198 0
171 193 0
172 193 0
174 195 0
171 192 0
176 197 0
175 197 0
176 197 0
174 194 0
171 192 0
174 196 0
171 193 0
176 197 0
172 194 0
173 194 0
173 194 0
168 191 0
172 194 0
170 192 0
170 193 0
170 192 0
172 194 0
169 191 0
175 196 0
172 193 0
174 195 0
173 195 0
170 192 0
173 195 0
172 194 0
169 191 0
172 195 0
172 193 0
171 193 0
172 194 0
166 188 0
171 193 0
165 188 0
167 189 0
166 189 0
170 192 0
164 187 0
172 194 0
170 193 0
165 189 0
170 193 0
172 195 0
169 192 0
169 192 0
164 187 0
171 193 0
168 192 0
166 189 0
164 188 0
170 192 0
169 192 0
167 190 0
168 191 0
170 193 0
169 192 0
165 189 0
168 192 0
162 185 0
168 191 0
166 189 0
167 191 0
165 188 0
160 183 0
168 190 0
167 190 0
167 190 0
164 187 0
165 189 0
167 190 0
169 192 0
167 190 0
168 191 0
166 189 0
165 188 0
166 188 0
169 192 0
166 189 0
169 192 0
170 192 0
166 189 0
167 190 0
164 188 0
168 191 0
166 189 0
171 195 0
168 192 0
170 193 0
165 188 0
168 192 0
168 192 0
170 193 0
165 188 0
165 190 0
169 192 0
167 190 0
163 187 0
167 190 0
166 190 0
167 190 0
164 187 0
168 191 0
168 192 0
170 194 0
172 196 0
167 191 0
168 192 0
170 194 0
169 192 0
169 192 0
168 192 0
169 192 0
171 194 0
169 193 0
170 194 0
165 189 0
169 193 0
168 191 0
168 192 0
169 192 0
168 192 0
166 189 0
170 193 0
170 194 0
168 192 0
172 195 0
170 193 0
168 192 0
168 192 0
167 190 0
165 189 0
167 190 0
168 191 0
170 193 0
167 191 0
173 196 0
171 195 0
171 193 0
170 194 0
170 193 0
169 193 0
168 191 0
171 195 0
171 194 0
169 192 0
171 194 0
173 196 0
167 190 0
168 191 0
167 190 0
170 193 0
173 196 0
170 193 0
168 192 0
171 194 0
171 195 0
168 190 0
167 190 0
170 194 0
170 194 0
168 192 0
171 193 0
170 194 0
170 194 0
171 194 0
170 193 0
173 195 0
171 193 0
174 197 0
169 193 0
173 196 0
170 194 0
170 194 0
172 195 0
169 192 0
171 194 0
172 195 0
169 192 0
172 195 0
170 193 0
170 194 0
172 195 0
171 194 0
171 194 0
170 193 0
172 195 0
172 195 0
171 194 0
168 191 0
169 193 0
171 194 0
171 194 0
173 196 0
171 196 0
171 194 0
169 193 0
170 193 0
170 194 0
169 192 0
169 192 0
168 191 0
173 196 0
169 192 0
172 195 0
172 195 0
171 195 0
174 197 0
171 194 0
173 195 0
169 193 0
173 197 0
171 194 0
170 194 0
175 198 0
173 195 0
174 197 0
173 195 0
171 194 0
170 193 0
172 195 0
172 195 0
175 198 0
171 194 0
173 195 0
172 195 0
174 198 0
173 196 0
175 198 0
172 196 0
173 195 0
172 195 0
171 194 0
173 196 0
174 197 0
172 195 0
173 197 0
173 196 0
174 197 0
172 196 0
171 194 0
174 197 0
174 197 0
172 194 0
172 195 0
173 197 0
175 198 0
173 197 0
171 192 0
172 195 0
173 196 0
173 196 0
172 196 0
173 195 0
171 194 0
171 194 0
173 196 0
172 195 0
174 197 0
171 196 0
173 196 0
173 196 0
171 194 0
171 195 0
173 196 0
173 197 0
171 196 0
174 197 0
172 196 0
172 196 0
173 197 0
175 198 0
174 197 0
173 196 0
172 195 0
172 196 0
174 197 0
172 196 0
175 198 0
176 198 0
174 197 0
173 196 0
173 197 0
174 197 0
174 197 0
174 197 0
175 198 0
174 197 0
174 197 0
173 197 0
173 197 0
172 196 0
173 196 0
170 194 0
172 196 0
172 195 0
173 196 0
174 197 0
173 197 0
172 196 0
172 196 0
172 196 0
175 198 0
174 197 0
175 198 0
172 196 0
173 197 0
175 198 0
174 197 0
173 196 0
174 197 0
173 197 0
174 197 0
175 198 0
173 197 0
172 195 0
172 196 0
174 197 0
174 197 0
173 196 0
174 197 0
174 197 0
172 196 0
171 196 0
170 194 0
172 195 0
174 197 0
174 197 0
174 197 0
172 195 0
172 197 0
170 194 0
174 197 0
173 196 0
173 197 0
172 196 0
173 197 0
174 197 0
173 196 0
170 193 0
174 198 0
170 195 0
173 197 0
174 197 0
174 197 0
170 192 0
174 197 0
174 197 0
175 198 0
172 195 0
174 197 0
175 197 0
173 196 0
173 196 0
170 194 0
174 197 0
173 197 0
172 196 0
170 193 0
171 194 0
172 195 0
174 196 0
174 196 0
173 196 0
171 195 0
170 193 0
173 196 0
172 195 0
174 196 0
174 197 0
172 195 0
172 195 0
173 196 0
176 198 0
171 194 0
173 195 0
169 192 0
173 196 0
171 195 0
175 197 0
169 193 0
168 191 0
174 196 0
175 197 0
174 196 0
173 195 0
172 194 0
172 194 0
170 192 0
171 193 0
172 195 0
176 198 0
174 196 0
173 194 0
173 195 0
173 194 0
169 191 0
175 197 0
174 196 0
175 196 0
176 198 25
170 192 0
173 195 0
174 196 0
171 194 0
174 195 0
174 196 0
175 194 0
173 194 0
175 196 0
173 195 0
170 191 0
173 195 0
172 194 0
174 195 0
172 193 0
172 193 0
173 194 0
171 193 0
169 191 0
171 193 0
173 195 0
172 194 0
173 195 0
169 191 0
174 196 0
170 192 0
170 192 0
173 195 0
172 194 0
173 196 0
173 195 0
171 193 0
171 193 0
165 188 0
169 192 0
166 189 0
167 190 0
168 190 0
171 193 0
170 193 0
171 193 0
167 190 0
169 191 0
168 191 0
168 191 0
170 193 0
168 191 0
165 188 0
167 190 0
166 189 0
170 192 0
163 185 0
169 192 0
166 190 0
167 189 0
172 194 0
167 191 0
171 193 0
165 188 0
169 193 0
166 190 0
164 188 0
168 192 0
165 188 0
165 188 0
166 189 0
168 191 0
166 189 0
169 191 0
166 189 0
169 192 0
169 192 0
164 188 0
165 188 0
163 185 0
164 187 0
159 183 0
164 187 0
165 189 0
170 191 0
164 187 0
168 191 0
165 188 0
170 193 0
166 189 0
167 191 0
170 194 0
169 194 0
165 189 0
166 190 0
165 188 0
161 185 0
167 191 0
168 190 0
164 187 0
169 192 0
167 190 0
170 194 0
169 192 0
171 194 0
164 188 0
166 190 0
163 187 0
164 188 0
167 191 0
170 194 0
174 197 0
167 190 0
168 191 0
169 192 0
168 192 0
170 193 0
169 194 0
165 188 0
165 188 0
168 191 0
170 193 0
167 189 0
172 195 0
169 192 0
168 191 0
171 194 0
170 192 0
170 193 0
167 191 0
170 193 0
169 193 0
167 191 0
165 187 0
171 193 0
169 192 0
170 193 0
168 191 0
166 190 0
166 189 0
170 192 0
173 196 0
169 192 0
168 192 0
168 191 0
167 190 0
171 194 0
171 194 0
170 193 0
168 191 0
164 188 0
171 194 0
169 193 0
168 191 0
166 190 0
164 187 0
171 194 0
169 192 0
171 195 0
172 196 0
168 192 0
170 194 0
172 195 0
171 193 0
174 197 0
170 193 0
170 194 0
170 193 0
171 194 0
171 193 0
168 191 0
170 194 0
168 191 0
169 192 0
171 194 0
169 193 0
172 196 0
171 194 0
171 194 0
169 194 0
172 195 0
171 195 0
171 192 0
172 196 0
171 193 0
173 196 0
168 192 0
174 197 0
170 194 0
173 196 0
171 195 0
169 191 0
169 193 0
172 196 0
171 194 0
172 195 0
167 189 0
169 192 0
170 192 0
173 195 0
171 194 0
169 193 0
171 194 0
170 194 0
169 194 0
172 197 0
172 195 0
171 194 0
171 192 0
173 196 0
171 195 0
172 195 0
173 195 0
173 196 0
170 194 0
172 196 0
171 194 0
174 196 0
171 196 0
170 193 0
174 196 0
174 197 0
174 196 0
171 194 0
170 194 0
174 197 0
172 195 0
171 195 0
173 196 0
173 196 0
169 193 0
170 194 0
173 196 0
174 196 0
172 195 0
174 197 0
172 194 0
172 196 0
172 195 0
171 194 0
175 197 0
172 196 0
172 195 0
172 196 0
171 195 0
172 196 0
173 196 0
173 196 0
171 195 0
172 194 0
171 194 0
170 193 0
172 195 0
173 197 0
170 193 0
173 197 0
173 196 0
172 196 0
175 198 0
174 197 0
169 193 0
172 196 0
173 196 0
175 198 0
171 196 0
172 196 0
171 194 0
175 198 0
172 197 0
168 191 0
173 197 0
173 196 0
173 196 0
172 196 0
174 197 0
173 197 0
174 198 0
172 196 0
173 196 0
170 194 0
173 197 0
171 195 0
175 198 0
175 197 0
172 196 0
173 196 0
173 197 0
174 197 0
173 197 0
172 196 0
172 196 0
170 195 0
173 197 0
174 198 0
173 197 0
174 197 0
173 197 0
173 197 0
176 199 0
175 198 0
174 197 0
173 197 0
172 196 0
176 198 0
174 197 0
175 197 0
173 197 0
171 195 0
173 197 0
174 197 0
174 197 0
174 197 0
174 197 0
173 197 0
172 195 0
172 196 0
174 197 0
172 196 0
173 196 0
174 197 0
172 196 0
174 198 0
172 196 0
176 199 0
172 196 0
173 195 0
174 197 0
173 197 0
173 196 0
172 196 0
169 194 0
174 197 0
173 196 0
172 196 0
172 196 0
170 194 0
171 194 0
173 197 0
173 197 0
173 197 0
171 195 0
173 196 0
172 195 0
168 191 0
169 193 0
175 198 0
172 195 0
172 195 0
175 198 0
175 198 0
173 196 0
172 196 0
172 195 0
172 195 0
174 197 0
171 194 0
172 195 0
175 198 0
172 195 0
170 194 0
171 195 0
174 197 0
171 195 0
174 196 0
175 198 0
175 198 0
173 196 0
170 193 0
174 197 0
170 193 0
174 196 0
174 197 0
175 197 0
175 197 0
173 195 0
172 194 0
172 195 0
175 197 0
173 195 0
175 197 0
173 195 0
170 193 0
174 195 0
173 196 0
171 194 0
171 194 0
168 191 0
172 194 0
174 196 0
175 197 0
174 197 0
176 198 0
171 193 0
173 195 0
175 197 0
173 195 0
173 195 0
173 194 0
173 195 0
174 196 0
176 197 0
171 193 0
172 193 0
172 193 0
172 195 0
171 192 0
171 193 0
172 194 0
174 195 0
172 194 0
173 195 0
175 196 0
172 194 0
172 194 0
173 196 0
173 195 0
173 195 0
174 196 0
174 196 0
169 191 0
171 194 0
171 193 0
173 195 0
171 193 0
173 195 0
168 191 0
170 192 0
172 194 0
167 189 0
173 195 0
172 194 0
170 193 0
171 193 0
174 196 0
171 192 0
173 195 0
167 190 0
173 195 0
171 193 0
168 191 0
169 191 0
172 195 0
169 193 0
167 190 0
171 194 0
170 192 0
172 195 0
168 191 0
168 191 0
172 193 0
168 190 0
169 191 0
171 194 0
167 190 0
168 190 0
169 191 0
164 188 0
170 193 0
170 193 0
167 191 0
167 189 0
170 193 0
168 192 0
168 191 0
170 192 0
167 189 0
170 192 0
170 191 0
165 189 0
167 191 0
169 191 0
169 192 0
167 191 0
169 192 0
167 191 0
167 190 0
168 191 0
169 192 0
165 189 0
163 186 0
169 192 0
170 193 0
166 189 0
162 185 0
169 192 0
172 195 0
167 189 0
165 189 0
166 190 0
165 189 0
168 192 0
165 188 0
168 193 0
167 190 0
165 189 0
163 187 0
167 191 0
165 188 0
167 190 0
167 191 0
170 193 0
170 194 0
171 194 0
169 192 0
169 193 0
167 190 0
168 191 0
168 191 0
169 194 0
168 192 0
166 189 0
171 194 0
167 191 0
166 189 0
169 192 0
168 191 0
170 194 0
173 196 0
168 191 0
168 191 0
167 190 0
163 186 0
168 192 0
168 191 0
169 192 0
169 193 0
167 191 0
165 190 0
167 191 0
170 194 0
171 194 0
170 192 0
170 193 0
170 193 0
169 193 0
172 196 0
165 189 0
171 195 0
170 194 0
170 193 0
169 193 0
167 190 0
168 192 0
168 191 0
171 194 0
170 194 0
170 193 0
170 194 0
170 192 0
168 191 0
170 192 0
167 190 0
170 194 0
168 191 0
171 194 0
171 194 0
170 194 0
170 193 0
171 196 0
171 194 0
169 192 0
169 191 0
167 190 0
171 194 0
169 193 0
171 194 0
167 190 0
170 194 0
171 195 0
169 193 0
171 195 0
172 195 0
167 191 0
174 198 0
170 193 0
170 193 0
167 190 0
171 195 0
169 193 0
170 193 0
172 196 0
168 191 0
171 194 0
171 194 0
171 194 0
171 195 0
170 193 0
171 195 0
171 194 0
168 192 0
172 194 0
166 190 0
168 191 0
172 195 0
173 196 0
172 195 0
167 191 0
171 195 0
171 194 0
167 190 0
169 192 0
172 195 0
169 192 0
172 195 0
173 195 0
170 193 0
171 195 0
173 196 0
172 195 0
171 194 0
172 195 0
174 198 0
173 196 0
172 195 0
171 194 0
172 196 0
174 197 0
171 194 0
173 196 0
170 193 0
172 195 0
173 196 0
174 197 0
173 196 0
174 197 0
173 196 0
172 195 0
172 196 0
172 195 0
174 196 0
171 194 0
171 194 0
170 194 0
170 193 0
172 195 0
172 195 0
170 194 0
172 195 0
169 193 0
170 194 0
172 196 0
173 196 0
171 195 0
174 197 0
171 195 0
173 197 0
173 196 0
174 197 0
173 196 0
174 196 0
172 195 0
174 197 0
173 196 0
173 197 0
171 194 0
172 195 0
173 196 0
173 196 0
174 196 0
173 197 0
172 196 0
172 195 0
174 196 0
176 199 0
171 194 0
172 196 0
173 196 0
170 193 0
173 196 0
175 197 0
172 196 0
174 196 0
174 197 0
173 197 0
173 196 0
174 197 0
172 195 0
174 197 0
174 197 0
173 196 0
173 196 0
171 194 0
171 195 0
175 197 0
171 195 0
175 198 0
174 197 0
174 198 0
173 196 0
173 196 0
174 197 0
176 199 0
173 197 0
173 196 0
174 198 0
173 197 0
174 198 0
173 197 0
175 198 0
172 197 0
173 197 0
171 196 0
174 197 0
176 199 0
172 196 0
174 197 0
174 198 0
174 198 0
173 196 0
174 197 0
172 195 0
173 196 0
174 196 0
173 196 0
174 198 0
173 197 0
171 195 0
171 195 0
170 194 0
173 196 0
173 197 0
173 197 0
173 196 0
171 193 0
175 198 0
172 195 0
173 196 0
174 197 0
172 195 0
171 195 0
172 196 0
175 197 0
172 196 0
173 197 0
173 196 0
173 197 0
176 198 0
173 196 0
174 197 0
172 196 0
174 197 0
173 196 0
175 198 0
174 197 0
174 197 0
172 196 0
173 195 0
171 195 0
173 197 0
175 198 0
173 196 0
173 197 0
173 196 0
172 195 0
171 194 0
175 198 0
174 197 0
173 197 0
173 197 0
175 198 0
173 195 0
174 197 0
172 195 0
173 195 0
172 195 0
173 197 0
172 194 0
171 195 0
173 196 0
173 196 0
174 196 0
172 194 0
172 195 0
173 196 0
170 193 0
176 198 0
175 198 0
173 195 0
173 196 0
172 195 0
174 197 0
173 196 0
173 195 0
176 199 0
176 198 0
174 196 0
172 194 0
173 196 0
176 198 0
176 198 0
171 193 0
174 196 0
175 197 0
173 196 0
171 193 0
175 197 0
173 195 0
174 196 0
173 196 0
171 193 0
173 196 0
174 196 0
175 197 0
173 195 0
176 197 0
175 198 0
175 197 0
171 192 0
172 194 0
173 195 0
173 194 0
171 192 0
174 196 0
175 196 0
168 189 0
174 196 0
172 195 0
173 195 0
175 196 0
170 191 0
173 194 0
171 193 0
173 196 0
171 192 0
169 192 0
173 195 0
171 193 0
172 193 0
171 194 0
170 192 0
167 189 0
174 196 0
176 198 0
168 190 0
168 190 0
174 196 0
171 193 0
169 191 0
170 192 0
170 192 0
166 188 0
168 190 0
171 193 0
170 193 0
171 194 0
173 195 0
170 193 0
166 188 0
169 192 0
167 190 0
169 191 0
165 187 0
164 187 0
171 194 0
165 189 0
171 193 0
169 192 0
164 187 0
168 191 0
169 192 0
167 190 0
165 189 0
163 186 0
163 186 0
168 191 0
166 190 0
168 192 0
165 189 0
168 191 0
171 194 0
167 191 0
165 189 0
166 189 0
168 191 0
171 195 0
167 190 0
168 191 0
168 191 0
164 189 0
169 192 0
171 194 0
167 190 0
170 194 0
169 193 0
170 194 0
168 191 0
165 189 0
174 196 0
167 190 0
166 189 0
168 191 0
170 193 0
168 191 0
170 193 0
169 193 0
169 192 0
170 194 0
163 187 0
165 188 0
170 193 0
166 189 0
167 191 0
164 188 0
167 190 0
168 192 0
171 194 0
172 195 0
167 191 0
168 191 0
169 193 0
167 190 0
168 191 0
170 192 0
169 192 0
169 192 0
172 195 0
169 191 0
171 194 0
169 193 0
167 191 0
168 191 0
168 191 0
169 192 0
170 194 0
168 191 0
170 193 0
171 194 0
170 194 0
172 195 0
170 193 0
165 188 0
170 194 0
170 192 0
170 193 0
169 192 0
164 187 0
167 191 0
169 193 0
170 194 0
167 191 0
169 192 0
169 193 0
165 188 0
164 188 0
171 193 0
168 192 0
168 192 0
168 192 0
169 193 0
169 193 0
170 193 0
168 192 0
171 194 0
168 192 0
171 195 0
171 194 0
167 190 0
171 194 0
169 192 0
171 194 0
167 191 0
172 196 0
172 195 0
169 193 0
172 195 0
172 196 0
168 191 0
173 196 0
169 192 0
170 194 0
170 193 0
170 193 0
168 192 0
171 193 0
171 194 0
172 196 0
167 190 0
169 192 0
171 194 0
172 195 0
173 196 0
170 194 0
171 193 0
170 194 0
173 196 0
171 193 0
173 196 0
169 192 0
170 194 0
172 195 0
170 193 0
173 196 0
172 195 0
170 193 0
171 194 0
171 194 0
172 196 0
172 195 0
170 194 0
170 193 0
172 195 0
174 196 0
171 195 0
171 195 0
171 194 0
173 196 0
173 195 0
171 194 0
173 196 0
170 193 0
172 194 0
172 196 0
168 191 0
171 194 0
172 195 0
173 196 0
166 190 0
169 192 0
172 195 0
172 195 0
171 193 0
173 195 0
174 197 0
172 195 0
170 194 0
172 195 0
173 196 0
171 194 0
174 197 0
172 195 0
169 192 0
172 196 0
170 194 0
174 197 0
173 196 0
173 196 0
172 196 0
171 195 0
170 194 0
172 196 0
171 195 0
173 197 0
173 196 0
174 196 0
172 195 0
173 196 0
173 196 0
172 196 0
173 196 0
170 194 0
173 196 0
173 195 0
173 196 0
170 194 0
171 194 0
172 195 0
173 197 0
174 198 0
170 194 0
171 195 0
173 196 0
173 196 0
174 197 0
173 195 0
173 197 0
171 195 0
169 193 0
173 197 0
171 195 0
172 195 0
172 195 0
172 195 0
173 197 0
171 196 0
174 196 0
171 194 0
173 196 0
173 197 0
174 196 0
173 196 0
173 196 0
173 197 0
175 198 0
174 197 0
173 197 0
173 197 0
172 196 0
174 197 0
174 197 0
174 197 0
172 196 0
174 198 0
173 196 0
175 198 0
174 197 0
173 197 0
175 197 0
172 196 0
173 197 0
174 198 0
172 195 0
173 196 0
173 197 0
174 197 0
173 196 0
174 198 0
174 197 0
170 194 0
174 197 0
172 196 0
173 197 0
174 197 0
174 197 0
173 197 0
174 198 0
175 198 0
171 195 0
173 197 0
172 195 0
172 196 0
174 197 0
173 197 0
173 196 0
172 195 0
171 195 0
175 197 0
173 196 0
173 197 0
173 197 0
170 195 0
172 196 0
172 196 0
173 196 0
173 196 0
173 196 0
173 197 0
173 197 0
174 197 0
173 196 0
174 197 0
172 195 0
175 197 0
171 195 0
171 195 0
170 194 0
173 196 0
174 197 0
173 196 0
172 197 0
170 193 0
173 197 0
174 197 0
171 194 0
171 194 0
170 195 0
173 196 0
172 196 0
172 196 0
172 195 0
170 193 0
171 194 0
175 198 0
174 197 0
174 197 0
169 192 0
174 197 0
171 195 0
172 195 0
172 195 0
173 196 0
171 194 0
172 195 0
169 193 0
173 196 0
174 196 0
174 197 0
175 198 0
174 197 0
172 195 0
173 196 0
173 196 0
175 197 0
171 193 0
175 198 0
172 196 0
176 197 0
175 197 0
174 196 0
172 195 0
174 196 0
173 196 0
172 195 0
166 189 0
173 195 0
171 193 0
174 196 0
173 195 0
172 194 0
170 193 0
174 196 0
173 195 0
174 196 0
174 197 0
174 196 0
169 192 0
176 198 0
174 196 0
175 197 0
175 197 0
170 193 0
172 195 0
170 192 0
174 196 0
174 196 0
171 193 0
174 195 0
169 192 0
170 192 0
173 195 0
172 194 0
170 192 0
170 192 0
176 198 0
173 195 0
170 191 0
172 194 0
173 194 0
173 195 0
170 192 0
172 194 0
175 196 0
172 195 0
166 189 0
175 197 0
165 187 0
170 193 0
170 192 0
167 190 0
169 192 0
171 194 0
170 193 0
167 189 0
171 193 0
169 191 0
171 194 0
170 193 0
163 185 0
167 190 0
168 191 0
170 193 0
165 188 0
170 194 0
169 192 0
166 189 0
169 192 0
165 188 0
170 194 0
166 188 0
173 196 0
169 193 0
168 191 0
167 190 0
167 190 0
168 190 0
168 190 0
169 192 0
169 193 0
166 189 0
167 190 0
168 192 0
167 191 0
168 191 0
168 191 0
167 191 0
168 191 0
167 191 0
169 192 0
166 190 0
168 192 0
169 192 0
168 191 0
169 192 0
171 193 0
171 193 0
167 191 0
167 191 0
166 189 0
167 191 0
164 187 0
167 191 0
169 192 0
165 188 0
165 187 0
163 186 0
165 189 0
167 190 0
169 192 0
171 193 0
168 191 0
166 189 0
163 186 0
172 195 0
168 191 0
171 194 0
163 187 0
170 193 0
168 191 0
166 190 0
165 189 0
171 194 0
165 189 0
169 192 0
170 193 0
168 191 0
170 194 0
169 192 0
169 192 0
169 192 0
165 188 0
168 191 0
172 195 0
170 193 0
168 191 0
169 192 0
172 196 0
165 189 0
173 196 0
170 194 0
170 194 0
173 196 0
166 190 0
169 192 0
172 195 0
168 191 0
167 191 0
171 195 0
167 191 0
169 193 0
171 195 0
168 192 0
169 192 0
171 194 0
170 194 0
169 192 0
168 192 0
172 195 0
170 193 0
164 186 0
173 196 0
169 192 0
167 191 0
168 191 0
169 191 0
168 190 0
171 194 0
169 191 0
171 194 0
171 194 0
172 194 0
169 192 0
171 195 0
168 191 0
167 191 0
169 192 0
170 193 0
171 193 0
168 191 0
172 195 0
168 191 0
173 196 0
170 193 0
171 195 0
167 191 0
173 196 0
170 194 0
169 194 0
169 192 0
170 194 0
170 194 0
172 194 0
169 192 0
170 194 0
166 189 0
171 195 0
171 194 0
168 191 0
170 193 0
168 192 0
170 192 0
171 194 0
170 194 0
171 194 0
168 191 0
171 194 0
171 194 0
169 192 0
169 193 0
170 193 0
171 194 0
172 196 0
172 196 0
172 195 0
169 193 0
173 196 0
172 196 0
172 196 0
171 195 0
174 198 0
172 194 0
170 193 0
171 195 0
168 191 0
172 195 0
168 192 0
171 195 0
170 194 0
172 196 0
174 196 0
170 193 0
171 195 0
172 194 0
170 194 0
173 195 0
174 197 0
170 194 0
173 196 0
171 193 0
171 195 0
173 195 0
173 196 0
175 198 0
172 196 0
173 196 0
170 193 0
172 195 0
173 196 0
172 195 0
174 197 0
171 194 0
174 198 0
171 195 0
171 195 0
174 197 0
173 197 0
173 196 0
172 195 0
173 196 0
173 196 0
174 197 0
172 195 0
171 194 0
174 197 0
172 195 0
173 196 0
172 195 0
169 193 0
171 194 0
173 196 0
172 195 0
172 196 0
173 196 0
171 194 0
173 197 0
169 193 0
173 196 0
172 195 0
173 197 0
173 196 0
172 195 0
172 196 0
172 196 0
173 197 0
174 197 0
172 196 0
173 197 0
174 198 0
173 197 0
174 198 0
172 195 0
173 196 0
173 196 0
172 194 0
173 196 0
173 196 0
172 195 0
173 196 0
174 198 0
175 198 0
174 197 0
176 198 0
173 197 0
173 196 0
175 198 0
173 197 0
173 196 0
172 196 0
172 196 0
175 198 0
173 197 0
175 198 0
174 197 0
175 198 0
174 197 0
175 198 0
173 197 0
175 198 0
170 194 0
174 197 0
173 196 0
175 198 0
173 196 0
174 198 0
174 197 0
173 197 0
173 196 0
172 196 0
173 197 0
173 197 0
173 197 0
172 196 0
174 197 0
171 195 0
173 197 0
170 195 0
173 196 0
171 195 0
173 197 0
172 195 0
174 197 0
172 196 0
172 195 0
175 197 0
173 197 0
174 197 0
166 190 0
175 198 0
171 196 0
173 196 0
173 197 0
172 195 0
172 196 0
172 196 0
171 195 0
173 196 0
171 194 0
172 196 0
171 195 0
172 196 0
170 194 0
171 195 0
173 196 0
169 192 0
173 197 0
172 196 0
174 197 0
173 196 0
173 197 0
174 197 0
173 197 0
170 194 0
174 197 0
172 194 0
169 192 0
174 196 0
174 198 0
174 197 0
174 197 0
175 196 0
173 196 0
176 198 0
173 196 0
171 194 0
175 198 0
174 196 0
172 195 0
174 196 0
173 196 0
172 195 0
173 196 0
174 197 0
174 197 0
173 195 0
173 196 0
171 194 0
174 196 0
172 194 0
170 194 0
171 194 0
170 193 0
174 196 0
171 194 0
174 197 0
172 195 0
173 195 0
168 192 0
171 194 0
173 195 0
169 191 0
173 195 0
173 195 0
171 193 0
174 196 0
173 195 0
173 194 0
171 193 0
175 197 0
169 191 0
171 194 0
172 194 0
174 196 0
171 193 0
173 195 0
169 191 0
173 195 0
172 194 0
169 191 0
173 195 0
173 195 0
172 193 0
169 192 0
175 197 0
170 191 0
174 196 0
175 197 0
172 195 0
169 191 0
171 193 0
173 196 0
171 193 0
174 196 0
171 193 0
171 194 0
171 194 0
172 195 0
166 188 0
172 195 0
171 194 0
170 193 0
169 192 0
173 196 0
169 192 0
170 194 0
172 196 0
165 187 0
170 192 0
168 191 0
173 195 0
171 194 0
168 191 0
170 193 0
168 191 0
171 194 0
168 191 0
168 191 0
168 191 0
167 189 0
168 191 0
169 191 0
172 195 0
170 194 0
167 190 0
170 193 0
168 191 0
165 189 0
168 192 0
171 194 0
169 192 0
171 194 0
171 194 0
165 188 0
167 190 0
167 189 0
168 191 0
165 189 0
165 188 0
169 192 0
168 191 0
164 187 0
171 194 0
171 194 0
168 192 0
163 186 0
168 192 0
161 184 0
170 192 0
165 189 0
168 191 0
166 190 0
169 192 0
167 189 0
168 191 0
168 191 0
166 190 0
166 189 0
166 189 0
172 195 0
167 192 0
171 193 0
171 194 0
171 194 0
167 190 0
171 194 0
171 194 0
169 193 0
169 192 0
167 191 0
167 191 0
168 191 0
168 190 0
167 190 0
169 192 0
168 192 0
170 194 0
169 193 0
170 192 0
169 192 0
169 192 0
167 190 0
167 190 0
169 192 0
167 191 0
165 188 0
173 196 0
161 183 0
169 192 0
168 190 0
169 192 0
167 191 0
171 195 0
169 193 0
167 189 0
168 192 0
167 190 0
168 190 0
172 194 0
169 191 0
168 191 0
170 193 0
170 194 0
171 194 0
167 190 0
170 194 0
167 190 0
169 191 0
173 195 0
169 193 0
171 195 0
172 196 0
170 193 0
168 191 0
170 194 0
171 194 0
171 194 0
168 192 0
167 191 0
169 192 0
168 191 0
170 194 0
169 193 0
168 191 0
170 194 0
170 193 0
169 193 0
167 190 0
171 194 0
170 194 0
172 195 0
171 194 0
171 194 0
165 188 0
170 193 0
169 192 0
169 192 0
168 191 0
173 196 0
171 195 0
171 194 0
173 196 0
170 194 0
170 193 0
171 194 0
167 190 0
171 194 0
170 194 0
174 197 0
170 193 0
173 196 0
172 195 0
171 194 0
171 194 0
172 196 0
172 196 0
169 193 0
169 192 0
173 196 0
171 194 0
173 197 0
170 194 0
172 196 0
172 195 0
173 196 0
173 196 0
172 195 0
172 194 0
173 197 0
172 196 0
170 194 0
171 194 0
170 193 0
169 192 0
173 196 0
169 192 0
173 196 0
170 193 0
172 195 0
170 193 0
170 193 0
172 196 0
169 192 0
174 197 0
174 197 0
172 195 0
172 196 0
172 195 0
172 195 0
174 196 0
171 194 0
173 196 0
173 197 0
174 198 0
171 194 0
172 195 0
173 196 0
173 196 0
175 198 0
174 197 0
172 195 0
171 195 0
172 195 0
173 197 0
171 195 0
172 196 0
173 197 0
174 197 0
172 196 0
172 195 0
172 195 0
174 197 0
174 197 0
174 196 0
170 195 0
171 195 0
174 197 0
171 194 0
174 197 0
174 197 0
172 196 0
172 195 0
172 195 0
174 197 0
175 198 0
174 198 0
174 197 0
172 196 0
174 197 0
174 197 0
173 196 0
173 196 0
172 195 0
174 196 0
171 195 0
173 196 0
173 197 0
170 194 0
172 196 0
172 196 0
172 195 0
174 197 0
174 197 0
173 197 0
175 198 0
171 194 0
173 197 0
173 196 0
174 197 0
173 196 0
173 197 0
174 196 0
174 197 0
172 196 0
173 196 0
173 196 0
175 198 0
175 198 0
176 198 0
173 197 0
172 195 0
173 197 0
175 198 0
172 196 0
171 195 0
174 198 0
174 197 0
174 198 0
173 196 0
172 197 0
175 198 0
173 197 0
171 195 0
174 198 0
174 198 0
173 197 0
175 198 0
173 197 0
172 195 0
174 197 0
173 197 0
173 196 0
174 197 0
172 196 0
174 197 0
171 195 0
173 197 0
172 196 0
172 195 0
173 196 0
173 197 0
174 197 0
174 197 0
172 196 0
173 197 0
174 197 0
172 195 0
174 197 0
172 195 0
173 196 0
171 195 0
172 195 0
173 196 0
172 195 0
172 195 0
173 196 0
171 194 0
174 197 0
171 194 0
171 194 0
173 197 0
174 197 0
172 196 0
172 195 0
173 197 0
170 193 0
173 196 0
173 197 0
173 196 0
173 196 0
174 197 0
174 196 0
171 195 0
173 196 0
172 196 0
172 196 0
172 195 0
174 197 0
174 197 0
169 193 0
173 196 0
170 193 0
171 193 0
172 196 0
173 196 0
174 197 0
172 195 0
176 198 0
174 197 0
173 196 0
171 194 0
171 195 0
170 193 0
174 196 0
172 195 0
173 196 0
174 196 0
171 194 0
172 196 0
173 196 0
173 196 0
172 195 0
173 195 0
173 195 0
175 197 0
172 194 0
175 198 0
173 196 0
174 196 0
172 194 0
174 196 0
173 195 0
170 193 0
174 196 0
176 198 0
176 197 0
173 195 0
172 194 0
173 195 0
173 195 0
175 197 0
175 196 0
172 194 0
176 198 0
169 192 0
172 194 0
173 195 0
174 195 0
173 195 0
170 192 0
171 193 0
172 194 0
174 196 0
173 194 0
170 192 0
175 197 0
171 194 0
172 195 0
174 195 0
171 193 0
173 195 0
173 194 0
171 193 0
170 193 0
172 194 0
171 193 0
169 191 0
172 194 0
171 193 0
171 192 0
170 192 0
171 193 0
170 193 0
171 194 0
171 193 0
170 193 0
170 193 0
167 190 0
169 192 0
168 191 0
167 190 0
169 192 0
168 190 0
170 193 0
172 195 0
163 187 0
168 190 0
170 193 0
165 188 0
165 188 0
171 193 0
168 191 0
169 192 0
169 192 0
169 192 0
168 192 0
170 192 0
165 189 0
165 188 0
165 187 0
164 188 0
169 192 0
169 192 0
167 190 0
168 191 0
169 192 0
166 189 0
167 190 0
166 189 0
172 195 0
170 192 0
170 194 0
168 191 0
166 190 0
167 190 0
170 194 0
161 184 0
173 197 0
169 192 0
167 190 0
167 190 0
167 190 0
169 193 0
171 194 0
169 192 0
169 193 0
168 192 0
169 193 0
171 194 0
167 190 0
168 191 0
170 193 0
165 188 0
168 192 0
168 192 0
168 192 0
164 187 0
171 194 0
167 192 0
166 189 0
170 194 0
167 190 0
169 192 0
169 192 0
174 197 0
167 191 0
168 191 0
172 195 0
168 191 0
167 190 0
173 196 0
167 191 0
169 192 0
168 191 0
169 192 0
169 192 0
174 196 0
168 193 0
167 191 0
170 193 0
167 190 0
166 188 0
169 192 0
166 189 0
170 194 0
167 191 0
167 190 0
168 191 0
169 193 0
173 196 0
167 190 0
169 192 0
171 193 0
169 191 0
172 195 0
171 193 0
171 195 0
170 194 0
169 192 0
167 190 0
173 196 0
169 192 0
172 195 0
172 195 0
169 192 0
168 192 0
172 196 0
172 196 0
170 193 0
171 195 0
170 193 0
170 193 0
171 195 0
168 192 0
169 192 0
171 195 0
170 194 0
171 193 0
168 191 0
171 194 0
168 192 0
169 193 0
169 193 0
172 195 0
170 193 0
171 194 0
172 195 0
171 195 0
171 194 0
172 195 0
171 193 0
170 194 0
170 193 0
169 192 0
172 195 0
167 191 0
173 196 0
170 192 0
168 193 0
167 189 0
172 195 0
170 193 0
174 197 0
167 189 0
171 194 0
174 197 0
171 194 0
174 197 0
172 195 0
169 192 0
173 197 0
172 194 0
169 193 0
172 196 0
172 196 0
171 194 0
174 196 0
173 197 0
168 191 0
172 195 0
171 194 0
171 193 0
171 194 0
170 192 0
173 196 0
170 193 0
173 196 0
172 196 0
170 193 0
172 195 0
172 195 0
173 196 0
170 194 0
172 195 0
173 196 0
173 196 0
171 194 0
172 195 0
172 195 0
171 195 0
172 195 0
173 197 0
170 194 0
168 192 0
170 194 0
174 197 0
172 196 0
170 193 0
170 193 0
173 197 0
172 195 0
172 195 0
172 196 0
171 195 0
171 194 0
172 195 0
172 196 0
172 195 0
170 194 0
173 196 0
175 198 0
175 198 0
171 194 0
173 197 0
171 195 0
173 197 0
174 196 0
169 192 0
174 197 0
171 193 0
171 193 0
172 196 0
173 195 0
172 195 0
171 194 0
172 196 0
173 195 0
173 196 0
173 196 0
173 196 0
172 196 0
174 197 0
173 197 0
172 195 0
172 196 0
171 195 0
174 197 0
175 197 0
170 194 0
173 197 0
172 194 0
174 198 0
172 196 0
173 196 0
173 195 0
175 198 0
173 197 0
174 197 0
171 195 0
172 196 0
171 194 0
174 197 0
174 196 0
175 198 0
175 198 0
173 197 0
174 198 0
174 197 0
175 198 0
172 196 0
173 197 0
174 198 0
172 196 0
175 198 0
171 195 0
173 196 0
172 196 0
173 197 0
174 197 0
171 195 0
173 197 0
173 197 0
173 196 0
172 195 0
173 197 0
172 196 0
173 197 0
171 195 0
172 196 0
174 197 0
174 198 0
172 196 0
170 194 0
173 197 0
174 198 0
173 196 0
171 195 0
172 196 0
175 198 0
173 197 0
174 197 0
174 197 0
174 198 0
175 198 0
171 194 0
176 198 0
172 196 0
173 196 0
173 197 0
174 198 0
169 192 0
172 195 0
174 197 0
174 196 0
173 196 0
171 195 0
172 196 0
175 197 0
168 192 0
174 197 0
171 195 0
176 198 0
173 197 0
173 195 0
174 197 0
172 196 0
171 194 0
173 197 0
171 194 0
174 197 0
175 197 0
174 197 0
174 197 0
172 196 0
171 195 0
175 197 0
171 194 0
169 193 0
174 198 0
173 196 0
173 197 0
172 195 0
174 197 0
174 197 0
173 196 0
173 196 0
173 195 0
173 195 0
171 195 0
176 198 0
170 193 0
171 194 0
172 195 0
174 197 0
173 196 0
175 197 0
171 193 0
173 195 0
173 196 0
174 197 0
172 195 0
176 198 0
170 193 0
175 198 0
170 193 0
173 194 0
174 196 0
172 195 0
173 196 0
173 195 0
172 194 0
172 195 0
171 193 0
171 194 0
171 193 0
174 195 0
171 193 0
172 194 0
175 197 0
174 196 0
173 196 0
174 196 0
175 197 0
174 196 0
172 194 0
170 193 0
175 197 0
173 195 0
173 195 0
173 195 0
175 197 0
174 196 0
171 194 0
171 193 0
172 195 0
171 193 0
172 195 0
170 192 0
174 195 0
172 194 0
173 196 0
170 193 0
173 195 0
167 189 0
171 193 0
170 192 0
172 195 0
174 196 0
170 192 0
171 194 0
169 192 0
170 193 0
172 195 0
169 192 0
171 195 0
169 192 0
169 191 0
168 191 0
169 192 0
172 194 0
167 190 0
167 190 0
169 192 0
169 192 0
169 191 0
168 191 0
167 191 0
170 193 0
168 192 0
167 190 0
167 191 0
170 194 0
170 193 0
166 190 0
166 190 0
164 187 0
170 194 0
167 190 0
167 190 0
164 188 0
172 195 0
168 191 0
167 191 0
167 191 0
163 186 0
169 193 0
171 195 0
169 192 0
167 190 0
166 190 0
168 191 0
164 187 0
168 190 0
168 193 0
167 191 0
170 194 0
167 190 0
166 189 0
172 194 0
168 191 0
169 193 0
169 192 0
165 188 0
167 190 0
171 194 0
170 193 0
165 188 0
164 187 0
168 190 0
168 192 0
171 194 0
167 190 0
169 192 0
169 192 0
170 194 0
166 190 0
172 196 0
167 191 0
166 191 0
166 190 0
168 192 0
171 195 0
169 191 0
169 192 0
172 195 0
168 191 0
168 191 0
169 192 0
171 194 0
168 191 0
172 195 0
167 191 0
169 191 0
169 193 0
170 192 0
172 194 0
168 192 0
169 192 0
171 194 0
170 193 0
169 192 0
168 192 0
170 193 0
169 193 0
168 191 0
171 193 0
169 192 0
166 190 0
170 192 0
170 192 0
171 194 0
165 188 0
170 192 0
168 193 0
168 191 0
169 192 0
171 194 0
170 193 0
170 193 0
170 194 0
170 193 0
169 192 0
169 192 0
171 195 0
170 193 0
166 189 0
170 193 0
170 193 0
173 196 0
168 192 0
169 192 0
170 193 0
169 192 0
168 191 0
172 196 0
170 194 0
173 197 0
172 194 0
171 195 0
169 192 0
169 192 0
173 196 0
169 192 0
168 192 0
172 196 0
168 191 0
170 194 0
172 195 0
173 196 0
171 195 0
169 192 0
171 194 0
172 196 0
173 196 0
170 193 0
171 195 0
172 194 0
173 196 0
172 195 0
169 192 0
173 196 0
171 194 0
169 192 0
172 195 0
172 196 0
171 193 0
170 192 0
171 194 0
173 196 0
171 194 0
173 196 0
175 197 0
173 196 0
170 194 0
171 194 0
171 194 0
168 192 0
172 195 0
171 195 0
174 197 0
171 194 0
169 191 0
174 197 0
171 194 0
173 196 0
170 194 0
171 194 0
173 196 0
174 197 0
171 194 0
173 197 0
172 195 0
171 195 0
170 193 0
173 197 0
172 196 0
172 195 0
171 194 0
173 196 0
173 196 0
172 195 0
173 197 0
171 194 0
172 195 0
174 197 0
172 195 0
169 192 0
173 194 0
172 196 0
173 197 0
172 196 0
168 191 0
172 195 0
172 195 0
173 196 0
170 193 0
170 194 0
173 196 0
172 194 0
172 195 0
172 195 0
171 194 0
173 197 0
172 195 0
171 195 0
174 197 0
173 196 0
169 192 0
171 195 0
172 196 0
172 196 0
174 197 0
171 195 0
171 194 0
174 197 0
169 192 0
174 197 0
174 197 0
174 196 0
175 197 0
170 193 0
171 195 0
174 197 0
174 197 0
171 195 0
173 197 0
174 197 0
170 192 0
173 197 0
172 196 0
174 196 0
174 197 0
175 198 0
171 195 0
171 195 0
173 197 0
173 197 0
172 195 0
174 197 0
173 196 0
174 198 0
174 196 0
173 196 0
173 195 0
172 196 0
174 197 0
174 197 0
173 197 0
174 197 0
174 198 0
174 198 0
174 197 0
173 197 0
172 196 0
174 197 0
174 197 0
171 195 0
173 197 0
171 196 0
173 197 0
174 197 0
174 197 0
175 198 0
172 196 0
174 198 0
175 198 0
175 198 0
175 198 0
171 195 0
172 196 0
174 197 0
175 198 0
175 198 0
173 197 0
175 198 0
171 195 0
172 195 0
174 197 0
174 198 0
171 194 0
174 198 0
175 198 0
173 197 0
172 195 0
173 197 0
174 197 0
173 197 0
173 197 0
172 197 0
174 197 0
172 196 0
173 197 0
174 197 0
174 198 0
175 198 0
174 197 0
174 197 0
172 196 0
173 196 0
171 195 0
173 196 0
174 197 0
174 198 0
173 196 0
174 197 0
175 197 0
172 195 0
172 196 0
170 194 0
174 197 0
170 193 0
171 195 0
173 196 0
173 196 0
172 196 0
174 196 0
173 196 0
172 195 0
172 195 0
173 196 0
174 197 0
173 196 0
171 194 0
173 196 0
172 195 0
174 197 0
172 194 0
174 197 0
170 193 0
173 196 0
172 195 0
174 197 0
175 197 0
173 195 0
175 198 0
171 194 0
173 196 0
173 196 0
170 193 0
172 195 0
173 196 0
171 193 0
174 196 0
174 196 0
174 196 0
169 192 0
173 195 0
174 196 0
174 196 0
175 197 0
171 194 0
175 197 0
173 195 0
172 194 0
173 196 0
172 194 0
174 197 0
173 195 0
173 196 0
172 195 0
173 195 0
173 195 0
170 193 0
176 198 0
175 197 0
175 197 0
174 196 0
172 194 0
172 195 0
171 195 0
174 195 0
172 194 0
172 194 0
171 193 0
171 193 0
171 194 0
168 191 0
174 196 0
172 195 0
174 196 0
171 194 0
171 193 0
170 192 0
171 193 0
170 194 0
170 194 0
174 197 0
170 193 0
169 192 0
168 191 0
169 192 0
172 195 0
169 192 0
169 191 0
172 195 0
166 189 0
167 190 0
171 194 0
167 191 0
170 194 0
171 193 0
168 192 0
168 191 0
169 194 0
170 193 0
167 190 0
165 188 0
164 186 0
169 192 0
170 194 0
169 191 0
170 193 0
167 190 0
163 187 0
165 188 0
166 189 0
169 191 0
167 190 0
167 191 0
167 190 0
167 190 0
169 193 0
166 189 0
166 189 0
169 193 0
167 191 0
165 189 0
171 194 0
162 185 0
170 193 0
174 196 0
169 193 0
169 192 0
166 190 0
169 193 0
167 191 0
170 194 0
171 195 0
170 194 0
168 192 0
170 194 0
168 191 0
171 194 0
168 192 0
170 192 0
168 191 0
169 192 0
167 191 0
166 189 0
167 192 0
167 191 0
167 190 0
173 196 0
167 190 0
170 194 0
169 193 0
171 196 0
169 191 0
165 188 0
168 191 0
167 190 0
166 189 0
169 192 0
170 193 0
168 191 0
166 189 0
170 194 0
164 188 0
170 193 0
168 191 0
172 196 0
169 192 0
168 191 0
169 193 0
167 189 0
166 190 0
169 193 0
164 187 0
169 192 0
171 194 0
169 191 0
172 195 0
168 192 0
169 192 0
170 193 0
167 192 0
166 189 0
168 193 0
171 194 0
169 192 0
167 191 0
173 197 0
168 191 0
170 194 0
171 195 0
168 191 0
165 187 0
168 192 0
167 190 0
171 194 0
171 194 0
172 195 0
171 193 0
172 195 0
173 195 0
167 190 0
169 192 0
168 190 0
170 193 0
172 196 0
170 193 0
169 193 0
168 191 0
170 193 0
171 195 0
172 195 0
169 193 0
172 195 0
170 194 0
170 193 0
166 189 0
169 192 0
171 194 0
171 194 0
168 192 0
169 192 0
170 194 0
170 194 0
172 195 0
166 190 0
171 194 0
173 195 0
173 196 0
171 194 0
171 194 0
169 192 0
169 192 0
170 193 0
172 195 0
172 195 0
169 193 0
172 195 0
167 192 0
171 196 0
168 193 0
172 195 0
172 195 0
173 196 0
169 192 0
171 196 0
173 197 0
169 192 0
169 193 0
171 193 0
171 194 0
171 195 0
172 195 0
173 195 0
174 196 0
171 194 0
170 193 0
173 197 0
171 195 0
169 193 0
172 196 0
169 192 0
171 195 0
170 194 0
171 194 0
169 193 0
171 195 0
169 192 0
169 192 0
174 197 0
172 195 0
170 194 0
173 197 0
175 198 0
171 195 0
173 196 0
174 197 0
172 196 0
173 196 0
172 196 0
172 194 0
170 194 0
173 196 0
173 196 0
173 196 0
171 195 0
172 196 0
175 197 0
172 196 0
172 195 0
172 194 0
173 195 0
173 197 0
171 195 0
170 194 0
172 196 0
171 195 0
172 196 0
174 197 0
172 195 0
171 194 0
174 197 0
174 198 0
171 195 0
174 197 0
170 194 0
171 194 0
173 197 0
173 196 0
173 197 0
172 195 0
172 196 0
174 197 0
173 197 0
175 198 0
172 196 0
173 195 0
172 194 0
173 196 0
173 196 0
171 195 0
173 197 0
172 195 0
169 192 0
173 197 0
174 196 0
173 196 0
171 194 0
174 198 0
173 196 0
171 195 0
170 193 0
174 197 0
172 195 0
173 196 0
173 196 0
175 198 0
174 197 0
172 197 0
173 197 0
173 196 0
175 198 0
174 198 0
175 198 0
170 194 0
173 197 0
173 197 0
171 195 0
171 195 0
174 198 0
171 195 0
172 196 0
173 197 0
174 197 0
173 197 0
174 198 0
175 198 0
172 196 0
172 195 0
170 194 0
174 198 0
173 197 0
173 196 0
171 195 0
173 197 0
169 193 0
172 195 0
174 197 0
173 197 0
172 195 0
173 197 0
173 197 0
174 197 0
172 196 0
171 195 0
172 196 0
172 196 0
171 195 0
173 196 0
173 197 0
171 195 0
174 197 0
172 196 0
171 195 0
174 197 0
172 196 0
172 196 0
171 195 0
173 197 0
173 197 0
173 196 0
173 197 0
175 198 0
171 194 0
172 195 0
173 196 0
173 196 0
172 196 0
175 198 0
172 195 0
174 197 0
174 197 0
167 190 0
175 198 0
174 196 0
173 196 0
172 196 0
172 196 0
172 196 0
173 196 0
174 198 0
172 196 0
172 196 0
174 196 0
172 194 0
173 196 0
173 196 0
173 196 0
173 196 0
173 197 0
173 196 0
174 197 0
173 197 0
173 196 0
174 198 0
174 197 0
171 195 0
173 196 0
173 196 0
175 197 0
176 198 0
171 194 0
171 195 0
172 195 0
174 197 0
173 195 0
172 194 0
172 195 0
174 196 0
170 193 0
174 196 0
171 194 0
171 194 0
174 197 0
171 195 0
173 196 0
174 196 0
170 193 0
175 197 0
173 196 0
175 197 0
171 194 0
173 196 0
170 192 0
175 197 0
174 196 0
176 198 0
173 195 0
171 193 0
173 195 0
172 195 0
170 192 0
172 194 0
170 192 0
171 193 0
171 194 0
174 196 0
174 195 0
172 194 0
166 189 0
175 197 0
175 197 0
173 195 0
170 192 0
173 196 0
170 193 0
171 193 0
172 195 0
175 197 0
175 196 0
174 196 0
173 196 0
173 196 0
170 193 0
171 194 0
173 195 0
170 193 0
169 192 0
169 192 0
171 194 0
171 194 0
173 195 0
169 191 0
172 194 0
171 194 0
169 192 0
170 194 0
170 194 0
169 192 0
167 190 0
169 192 0
163 186 0
166 190 0
169 191 0
166 189 0
170 193 0
169 193 0
170 193 0
166 189 0
166 189 0
169 191 0
167 191 0
168 191 0
164 187 0
171 195 0
168 192 0
172 196 0
171 195 0
171 194 0
166 190 0
170 193 0
166 189 0
170 194 0
171 195 0
167 191 0
172 196 0
171 195 0
169 193 0
167 191 0
168 191 0
168 191 0
169 193 0
170 193 0
172 196 0
166 190 0
168 191 0
165 186 0
172 194 0
169 193 0
167 191 0
167 190 0
167 190 0
170 193 0
170 194 0
168 191 0
167 190 0
169 192 0
166 191 0
168 191 0
169 192 0
170 193 0
170 193 0
166 189 0
169 192 0
168 192 0
169 192 0
170 193 0
165 189 0
171 194 0
172 196 0
167 190 0
169 193 0
167 190 0
169 192 0
172 195 0
169 192 0
171 194 0
169 192 0
170 194 0
167 191 0
168 191 0
164 187 0
169 192 0
168 192 0
170 192 0
169 193 0
170 193 0
172 196 0
170 193 0
167 190 0
167 191 0
173 196 0
167 190 0
169 192 0
171 194 0
171 194 0
167 190 0
170 193 0
169 192 0
167 190 0
169 192 0
173 195 0
168 192 0
170 193 0
172 196 0
170 194 0
169 192 0
173 197 0
169 193 0
171 193 0
168 192 0
166 190 0
169 192 0
170 194 0
164 187 0
168 192 0
172 195 0
165 188 0
169 192 0
167 190 0
169 191 0
172 194 0
173 196 0
170 193 0
169 193 0
171 194 0
168 192 0
171 195 0
170 194 0
169 193 0
169 192 0
170 194 0
172 195 0
168 192 0
172 195 0
168 191 0
174 197 0
169 192 0
171 195 0
172 195 0
166 188 0
170 194 0
173 195 0
169 192 0
170 192 0
172 195 0
173 197 0
170 193 0
171 195 0
168 191 0
172 195 0
170 193 0
169 193 0
171 194 0
170 193 0
171 195 0
170 193 0
168 192 0
172 195 0
171 194 0
171 195 0
171 194 0
173 195 0
174 197 0
173 196 0
174 197 0
173 196 0
173 196 0
172 195 0
172 194 0
173 196 0
171 193 0
170 193 0
175 198 0
172 196 0
172 194 0
171 195 0
173 196 0
169 193 0
173 197 0
172 195 0
173 196 0
171 194 0
172 194 0
170 192 0
174 196 0
173 197 0
174 196 0
172 195 0
168 192 0
171 193 0
174 196 0
174 197 0
173 197 0
172 196 0
173 196 0
171 195 0
166 190 0
173 197 0
171 195 0
173 196 0
171 194 0
171 194 0
172 196 0
173 196 0
172 195 0
171 193 0
172 195 0
170 194 0
172 195 0
173 196 0
172 196 0
173 197 0
172 196 0
173 196 0
171 195 0
172 195 0
172 195 0
174 197 0
173 196 0
175 197 0
171 194 0
176 199 0
173 196 0
172 195 0
175 198 0
176 199 0
172 196 0
173 197 0
173 197 0
172 196 0
171 195 0
172 196 0
173 197 0
172 195 0
174 196 0
173 197 0
174 197 0
175 198 0
170 195 0
172 196 0
174 197 0
173 196 0
176 199 0
174 197 0
172 195 0
